; generated by PrusaSlicer 2.3.0 on 2021-04-27 at 01:38:28 UTC

; 

; external perimeters extrusion width = 0.45mm
; perimeters extrusion width = 0.45mm
; infill extrusion width = 0.45mm
; solid infill extrusion width = 0.45mm
; top infill extrusion width = 0.40mm
; support material extrusion width = 0.38mm
; first layer extrusion width = 0.42mm

M201 X500 Y500 Z100 E5000 ; sets maximum accelerations, mm/sec^2
M203 X500 Y500 Z10 E60 ; sets maximum feedrates, mm/sec
M204 P500 R1000 T500 ; sets acceleration (P, T) and retract acceleration (R), mm/sec^2
M205 X8.00 Y8.00 Z0.40 E5.00 ; sets the jerk limits, mm/sec
M205 S0 T0 ; sets the minimum extruding and travel feed rate, mm/sec
M107
;TYPE:Custom
G90 ; use absolute coordinates
M83 ; extruder relative mode
M104 S120 ; set temporary nozzle temp to prevent oozing during homing and auto bed leveling
M140 S60 ; set final bed temp
G4 S10 ; allow partial nozzle warmup
G28 ; home all axis
G1 Z50 F240
G1 X2 Y10 F3000
M104 S210 ; set final nozzle temp
M190 S60 ; wait for bed temp to stabilize
M109 S210 ; wait for nozzle temp to stabilize
G1 Z0.28 F240
G92 E0
G1 Y140 E10 F1500 ; prime the nozzle
G1 X2.3 F5000
G92 E0
G1 Y10 E10 F1200 ; prime the nozzle
G92 E0
G21 ; set units to millimeters
G90 ; use absolute coordinates
M83 ; use relative distances for extrusion
; Filament gcode
;LAYER_CHANGE
;Z:0.2
;HEIGHT:0.2
;BEFORE_LAYER_CHANGE
G92 E0
;0.2


G1 E-5.00000 F3600.000
G1 Z0.200 F9000.000
;AFTER_LAYER_CHANGE
;0.2
G1 X80.876 Y97.618
G1 E5.00000 F2400.000
;TYPE:Skirt
;WIDTH:0.42
G1 F1200.000
G1 X81.582 Y97.248 E0.02496
G1 X95.176 Y92.905 E0.44746
G1 X95.668 Y92.805 E0.01574
G1 X133.604 Y92.625 E1.18950
G1 X135.449 Y92.819 E0.05817
G1 X136.014 Y92.974 E0.01835
G1 X145.393 Y97.478 E0.32622
G1 X145.789 Y97.780 E0.01562
G1 X150.379 Y102.181 E0.19939
G1 X150.727 Y102.632 E0.01787
G1 X150.958 Y103.157 E0.01799
G1 X151.060 Y103.841 E0.02166
G1 X151.028 Y127.714 E0.74854
G1 X150.826 Y128.351 E0.02095
G1 X150.453 Y128.910 E0.02107
G1 X145.943 Y133.382 E0.19916
G1 X136.867 Y137.966 E0.31878
G1 X136.058 Y138.194 E0.02637
G1 X95.880 Y138.205 E1.25973
G1 X95.208 Y138.105 E0.02130
G1 X81.572 Y133.918 E0.44725
G1 X80.936 Y133.596 E0.02237
G1 X80.424 Y133.099 E0.02237
G1 X80.070 Y132.436 E0.02355
G1 X79.940 Y131.697 E0.02355
G1 X79.940 Y99.478 E1.01018
G1 X80.008 Y98.943 E0.01692
G1 X80.194 Y98.440 E0.01680
G1 X80.490 Y97.989 E0.01692
G1 X80.833 Y97.659 E0.01492
G1 E-3.50000 F3600.000
;WIPE_START
G1 F7200.000
G1 X81.582 Y97.248 E-0.40562
G1 X83.626 Y96.595 E-1.01938
;WIPE_END
G1 E-0.07500 F3600.000
G1 X80.833 Y97.659 F9000.000
G1 X80.833 Y97.659
G1 X91.367 Y113.485
G1 E5.00000 F2400.000
;TYPE:Support material
G1 F1200.000
G1 X91.367 Y113.986 E0.01573
G1 X91.261 Y114.261 E0.00922
G1 X91.171 Y114.631 E0.01194
G1 X91.117 Y115.064 E0.01369
G1 X91.103 Y115.421 E0.01119
G1 X91.112 Y115.781 E0.01130
G1 X91.162 Y116.251 E0.01483
G1 X91.250 Y116.635 E0.01235
G1 X91.367 Y116.946 E0.01042
G1 X91.367 Y117.445 E0.01565
G1 E-3.50000 F3600.000
;WIPE_START
G1 F7200.000
G1 X91.367 Y116.946 E-0.23712
G1 X91.250 Y116.635 E-0.15790
G1 X91.162 Y116.251 E-0.18705
G1 X91.112 Y115.781 E-0.22465
G1 X91.103 Y115.421 E-0.17122
G1 X91.117 Y115.064 E-0.16950
G1 X91.171 Y114.631 E-0.20743
G1 X91.206 Y114.487 E-0.07013
;WIPE_END
G1 E-0.07500 F3600.000
G1 X91.367 Y117.445 F9000.000
G1 X91.367 Y117.445
G1 X90.675 Y121.795
G1 X89.104 Y131.661
G1 E5.00000 F2400.000
G1 F1200.000
G1 X89.104 Y99.509 E1.00810
G1 X88.350 Y99.509 E0.02365
G1 X88.350 Y131.491 E1.00278
G1 X87.596 Y131.491 E0.02365
G1 X87.596 Y99.509 E1.00278
G1 X86.842 Y99.509 E0.02365
G1 X86.842 Y131.491 E1.00278
G1 X86.088 Y131.491 E0.02365
G1 X86.088 Y99.509 E1.00278
G1 X85.334 Y99.509 E0.02365
G1 X85.334 Y131.491 E1.00278
G1 X84.579 Y131.491 E0.02365
G1 X84.579 Y99.509 E1.00278
G1 X83.825 Y99.509 E0.02365
G1 X83.825 Y131.491 E1.00278
G1 X83.071 Y131.491 E0.02365
G1 X83.071 Y99.509 E1.00278
G1 X82.317 Y99.509 E0.02365
G1 X82.317 Y131.661 E1.00810
G1 E-3.50000 F3600.000
;WIPE_START
G1 F7200.000
G1 X82.317 Y128.661 E-1.42500
;WIPE_END
G1 E-0.07500 F3600.000
G1 X82.317 Y131.661 F9000.000
G1 X82.317 Y131.661
G1 X101.540 Y117.919
G1 X101.555 Y117.965
G1 X101.583 Y118.038
G1 X101.618 Y118.108
G1 X101.652 Y118.164
G1 X101.698 Y118.227
G1 X101.751 Y118.291
G1 X101.814 Y118.351
G1 X101.882 Y118.407
G1 X101.949 Y118.454
G1 X102.021 Y118.498
G1 X102.100 Y118.540
G1 X102.187 Y118.579
G1 X102.280 Y118.614
G1 X102.386 Y118.648
G1 X102.461 Y118.670
G1 X102.581 Y118.698
G1 X102.706 Y118.721
G1 X102.823 Y118.737
G1 X102.948 Y118.749
G1 X103.079 Y118.755
G1 X103.224 Y118.757
G1 X103.358 Y118.755
G1 X103.485 Y118.748
G1 X103.606 Y118.737
G1 X103.729 Y118.718
G1 X103.837 Y118.698
G1 X103.942 Y118.672
G1 X104.044 Y118.641
G1 X104.147 Y118.604
G1 X104.246 Y118.562
G1 X104.344 Y118.514
G1 X104.440 Y118.460
G1 X104.530 Y118.401
G1 X104.615 Y118.340
G1 X104.700 Y118.272
G1 X104.778 Y118.199
G1 X104.855 Y118.123
G1 X104.928 Y118.039
G1 X104.996 Y117.952
G1 X105.059 Y117.860
G1 X105.120 Y117.763
G1 X105.175 Y117.663
G1 X105.226 Y117.558
G1 X105.270 Y117.453
G1 X106.424 Y114.373
G1 X106.392 Y113.009
G1 X106.394 Y112.935
G1 X106.400 Y112.866
G1 X106.413 Y112.800
G1 X106.431 Y112.745
G1 X106.444 Y112.712
G1 X106.474 Y112.657
G1 X106.509 Y112.606
G1 X106.555 Y112.555
G1 X106.605 Y112.513
G1 X106.659 Y112.474
G1 X106.723 Y112.439
G1 X115.967 Y107.607
G1 X133.600 Y95.002
G1 E5.00000 F2400.000
G1 F1200.000
G1 X133.600 Y114.143 E0.60015
G1 X132.846 Y114.143 E0.02365
G1 X132.846 Y95.172 E0.59483
G1 X132.091 Y95.172 E0.02365
G1 X132.091 Y114.143 E0.59483
G1 X131.337 Y114.143 E0.02365
G1 X131.337 Y95.172 E0.59483
G1 X130.583 Y95.172 E0.02365
G1 X130.583 Y114.143 E0.59483
G1 X129.868 Y114.143 E0.02241
G1 X129.868 Y109.806 E0.13599
G1 X129.829 Y109.806 E0.00123
G1 X129.829 Y95.172 E0.45884
G1 X129.075 Y95.172 E0.02365
G1 X129.075 Y109.806 E0.45884
G1 X128.321 Y109.806 E0.02365
G1 X128.321 Y95.172 E0.45884
G1 X127.567 Y95.172 E0.02365
G1 X127.567 Y109.806 E0.45884
G1 X126.812 Y109.806 E0.02365
G1 X126.812 Y95.172 E0.45884
G1 X126.058 Y95.172 E0.02365
G1 X126.058 Y109.806 E0.45884
G1 X125.304 Y109.806 E0.02365
G1 X125.304 Y95.172 E0.45884
G1 X124.550 Y95.172 E0.02365
G1 X124.550 Y109.806 E0.45884
G1 X124.478 Y109.806 E0.00226
G1 X123.796 Y109.345 E0.02580
G1 X123.796 Y95.172 E0.44441
G1 X123.042 Y95.172 E0.02365
G1 X123.042 Y108.894 E0.43026
G1 X122.287 Y108.499 E0.02670
G1 X122.287 Y95.172 E0.41787
G1 X121.533 Y95.172 E0.02365
G1 X121.533 Y108.156 E0.40711
G1 X120.779 Y107.860 E0.02540
G1 X120.779 Y95.172 E0.39784
G1 X120.025 Y95.172 E0.02365
G1 X120.025 Y107.609 E0.38998
G1 X119.271 Y107.400 E0.02454
G1 X119.271 Y95.172 E0.38341
G1 X118.517 Y95.172 E0.02365
G1 X118.517 Y107.232 E0.37815
G1 X117.762 Y107.102 E0.02399
G1 X117.762 Y95.172 E0.37407
G1 X117.008 Y95.172 E0.02365
G1 X117.008 Y107.012 E0.37123
G1 X116.857 Y106.998 E0.00476
G1 X116.857 Y105.469 E0.04794
G1 X116.254 Y105.469 E0.01891
G1 X116.254 Y95.172 E0.32285
G1 X115.500 Y95.172 E0.02365
G1 X115.500 Y105.469 E0.32285
G1 X114.746 Y105.469 E0.02365
G1 X114.746 Y95.172 E0.32285
G1 X113.992 Y95.172 E0.02365
G1 X113.992 Y107.009 E0.37115
G1 X113.238 Y107.055 E0.02369
G1 X113.238 Y95.172 E0.37259
G1 X112.483 Y95.172 E0.02365
G1 X112.483 Y107.101 E0.37403
G1 X111.729 Y107.147 E0.02369
G1 X111.729 Y95.172 E0.37547
G1 X110.975 Y95.172 E0.02365
G1 X110.975 Y107.193 E0.37693
G1 X110.221 Y107.239 E0.02369
G1 X110.221 Y95.172 E0.37835
G1 X109.467 Y95.172 E0.02365
G1 X109.467 Y107.285 E0.37979
G1 X108.713 Y107.330 E0.02369
G1 X108.713 Y95.172 E0.38122
G1 X107.958 Y95.172 E0.02365
G1 X107.958 Y107.376 E0.38267
G1 X107.204 Y107.423 E0.02369
G1 X107.204 Y95.172 E0.38412
G1 X106.450 Y95.172 E0.02365
G1 X106.450 Y107.468 E0.38554
G1 X105.696 Y107.514 E0.02369
G1 X105.696 Y95.172 E0.38698
G1 X104.942 Y95.172 E0.02365
G1 X104.942 Y107.559 E0.38840
G1 X104.188 Y107.606 E0.02369
G1 X104.188 Y95.172 E0.38986
G1 X103.433 Y95.172 E0.02365
G1 X103.433 Y107.651 E0.39129
G1 X102.679 Y107.697 E0.02369
G1 X102.679 Y95.172 E0.39273
G1 X101.925 Y95.172 E0.02365
G1 X101.925 Y107.742 E0.39415
G1 X101.171 Y107.788 E0.02369
G1 X101.171 Y95.172 E0.39556
G1 X100.417 Y95.172 E0.02365
G1 X100.417 Y107.834 E0.39702
G1 X99.663 Y107.880 E0.02369
G1 X99.663 Y95.172 E0.39846
G1 X98.909 Y95.172 E0.02365
G1 X98.909 Y107.926 E0.39989
G1 X98.154 Y107.972 E0.02369
G1 X98.154 Y95.172 E0.40134
G1 X97.400 Y95.172 E0.02365
G1 X97.400 Y108.018 E0.40277
G1 X96.646 Y108.064 E0.02369
G1 X96.646 Y95.172 E0.40422
G1 X95.892 Y95.172 E0.02365
G1 X95.892 Y108.109 E0.40565
G1 X95.138 Y108.155 E0.02369
G1 X95.138 Y99.509 E0.27110
G1 X94.384 Y99.509 E0.02365
G1 X94.384 Y108.201 E0.27254
G1 X93.629 Y108.247 E0.02369
G1 X93.629 Y99.509 E0.27397
G1 X92.875 Y99.509 E0.02365
G1 X92.875 Y108.293 E0.27541
G1 X92.121 Y108.338 E0.02369
G1 X92.121 Y99.509 E0.27684
G1 X91.367 Y99.509 E0.02365
G1 X91.367 Y108.384 E0.27828
G1 X90.944 Y108.428 E0.01334
G1 X90.613 Y108.518 E0.01076
G1 X90.613 Y99.509 E0.28248
G1 X89.859 Y99.509 E0.02365
G1 X89.859 Y108.976 E0.29683
G1 X89.558 Y109.330 E0.01457
G1 X89.346 Y109.726 E0.01409
G1 X89.214 Y110.175 E0.01467
G1 X89.169 Y110.628 E0.01427
G1 X89.170 Y120.393 E0.30618
G1 X89.214 Y120.824 E0.01359
G1 X89.346 Y121.274 E0.01468
G1 X89.558 Y121.671 E0.01414
G1 X89.859 Y122.024 E0.01452
G1 X89.859 Y131.491 E0.29683
G1 X90.613 Y131.491 E0.02365
G1 X90.613 Y122.482 E0.28249
G1 X90.947 Y122.572 E0.01086
G1 X91.367 Y122.616 E0.01323
G1 X91.367 Y131.491 E0.27828
G1 X92.121 Y131.491 E0.02365
G1 X92.121 Y122.662 E0.27684
G1 X92.875 Y122.708 E0.02369
G1 X92.875 Y131.491 E0.27538
G1 X93.629 Y131.491 E0.02365
G1 X93.629 Y122.754 E0.27394
G1 X94.384 Y122.799 E0.02369
G1 X94.384 Y131.491 E0.27252
G1 X95.138 Y131.491 E0.02365
G1 X95.138 Y122.845 E0.27108
G1 X95.892 Y122.891 E0.02369
G1 X95.892 Y135.828 E0.40563
G1 X96.646 Y135.828 E0.02365
G1 X96.646 Y122.937 E0.40419
G1 X97.400 Y122.983 E0.02369
G1 X97.400 Y135.828 E0.40275
G1 X98.154 Y135.828 E0.02365
G1 X98.154 Y123.029 E0.40131
G1 X98.909 Y123.074 E0.02369
G1 X98.909 Y135.828 E0.39989
G1 X99.663 Y135.828 E0.02365
G1 X99.663 Y123.120 E0.39844
G1 X100.417 Y123.166 E0.02369
G1 X100.417 Y135.828 E0.39702
G1 X101.171 Y135.828 E0.02365
G1 X101.171 Y123.212 E0.39558
G1 X101.925 Y123.257 E0.02369
G1 X101.925 Y135.828 E0.39415
G1 X102.679 Y135.828 E0.02365
G1 X102.679 Y123.304 E0.39270
G1 X103.433 Y123.349 E0.02369
G1 X103.433 Y135.828 E0.39127
G1 X104.188 Y135.828 E0.02365
G1 X104.188 Y123.394 E0.38985
G1 X104.942 Y123.440 E0.02369
G1 X104.942 Y135.828 E0.38842
G1 X105.696 Y135.828 E0.02365
G1 X105.696 Y123.486 E0.38698
G1 X106.450 Y123.532 E0.02369
G1 X106.450 Y135.828 E0.38555
G1 X107.204 Y135.828 E0.02365
G1 X107.204 Y123.578 E0.38411
G1 X107.958 Y123.623 E0.02369
G1 X107.958 Y135.828 E0.38268
G1 X108.713 Y135.828 E0.02365
G1 X108.713 Y123.669 E0.38125
G1 X109.467 Y123.715 E0.02369
G1 X109.467 Y135.828 E0.37980
G1 X110.221 Y135.828 E0.02365
G1 X110.221 Y123.761 E0.37835
G1 X110.975 Y123.807 E0.02369
G1 X110.975 Y135.828 E0.37693
G1 X111.729 Y135.828 E0.02365
G1 X111.729 Y123.852 E0.37550
G1 X112.483 Y123.898 E0.02369
G1 X112.483 Y135.828 E0.37406
G1 X113.238 Y135.828 E0.02365
G1 X113.238 Y123.944 E0.37261
G1 X113.992 Y123.991 E0.02369
G1 X113.992 Y135.828 E0.37116
G1 X114.746 Y135.828 E0.02365
G1 X114.746 Y125.531 E0.32285
G1 X115.500 Y125.531 E0.02365
G1 X115.500 Y135.828 E0.32285
G1 X116.254 Y135.828 E0.02365
G1 X116.254 Y125.531 E0.32285
G1 X116.857 Y125.531 E0.01891
G1 X116.857 Y124.002 E0.04795
G1 X117.008 Y123.989 E0.00476
G1 X117.008 Y135.828 E0.37121
G1 X117.762 Y135.828 E0.02365
G1 X117.762 Y123.897 E0.37408
G1 X118.517 Y123.768 E0.02399
G1 X118.517 Y135.828 E0.37813
G1 X119.271 Y135.828 E0.02365
G1 X119.271 Y123.600 E0.38341
G1 X120.025 Y123.391 E0.02454
G1 X120.025 Y135.828 E0.38995
G1 X120.779 Y135.828 E0.02365
G1 X120.779 Y123.140 E0.39782
G1 X121.533 Y122.844 E0.02541
G1 X121.533 Y135.828 E0.40711
G1 X122.287 Y135.828 E0.02365
G1 X122.287 Y122.500 E0.41789
G1 X123.042 Y122.105 E0.02669
G1 X123.042 Y135.828 E0.43027
G1 X123.796 Y135.828 E0.02365
G1 X123.796 Y121.655 E0.44438
G1 X124.479 Y121.194 E0.02585
G1 X124.550 Y121.194 E0.00222
G1 X124.550 Y135.828 E0.45884
G1 X125.304 Y135.828 E0.02365
G1 X125.304 Y121.194 E0.45884
G1 X126.058 Y121.194 E0.02365
G1 X126.058 Y135.828 E0.45884
G1 X126.812 Y135.828 E0.02365
G1 X126.812 Y121.194 E0.45884
G1 X127.567 Y121.194 E0.02365
G1 X127.567 Y135.828 E0.45884
G1 X128.321 Y135.828 E0.02365
G1 X128.321 Y121.194 E0.45884
G1 X129.075 Y121.194 E0.02365
G1 X129.075 Y135.828 E0.45884
G1 X129.829 Y135.828 E0.02365
G1 X129.829 Y121.194 E0.45884
G1 X129.868 Y121.194 E0.00123
G1 X129.868 Y116.857 E0.13599
G1 X130.583 Y116.857 E0.02241
G1 X130.583 Y135.828 E0.59483
G1 X131.337 Y135.828 E0.02365
G1 X131.337 Y116.857 E0.59483
G1 X132.091 Y116.857 E0.02365
G1 X132.091 Y135.828 E0.59483
G1 X132.846 Y135.828 E0.02365
G1 X132.846 Y116.857 E0.59483
G1 X133.600 Y116.857 E0.02365
G1 X133.600 Y135.828 E0.59483
G1 X134.354 Y135.828 E0.02365
G1 X134.354 Y95.172 E1.27476
G1 X135.108 Y95.172 E0.02365
G1 X135.108 Y135.828 E1.27476
G1 X135.828 Y135.828 E0.02258
G1 X135.828 Y131.491 E0.13599
G1 X135.862 Y131.491 E0.00107
G1 X135.862 Y99.509 E1.00278
G1 X136.616 Y99.509 E0.02365
G1 X136.616 Y131.491 E1.00278
G1 X137.371 Y131.491 E0.02365
G1 X137.371 Y99.509 E1.00278
G1 X138.125 Y99.509 E0.02365
G1 X138.125 Y131.491 E1.00278
G1 X138.879 Y131.491 E0.02365
G1 X138.879 Y99.509 E1.00278
G1 X139.633 Y99.509 E0.02365
G1 X139.633 Y131.491 E1.00278
G1 X140.387 Y131.491 E0.02365
G1 X140.387 Y99.509 E1.00278
G1 X141.141 Y99.509 E0.02365
G1 X141.141 Y131.491 E1.00278
G1 X141.896 Y131.491 E0.02365
G1 X141.896 Y99.509 E1.00278
G1 X142.650 Y99.509 E0.02365
G1 X142.650 Y131.491 E1.00278
G1 X143.404 Y131.491 E0.02365
G1 X143.404 Y99.509 E1.00278
G1 X144.158 Y99.509 E0.02365
G1 X144.158 Y131.491 E1.00278
G1 X144.502 Y131.491 E0.01080
G1 X144.502 Y127.154 E0.13599
G1 X144.912 Y127.154 E0.01285
G1 X144.912 Y103.846 E0.73081
G1 X145.666 Y103.846 E0.02365
G1 X145.666 Y127.154 E0.73081
G1 X146.421 Y127.154 E0.02365
G1 X146.421 Y103.846 E0.73081
G1 X147.175 Y103.846 E0.02365
G1 X147.175 Y127.154 E0.73081
G1 X147.929 Y127.154 E0.02365
G1 X147.929 Y103.846 E0.73081
G1 X148.683 Y103.846 E0.02365
G1 X148.683 Y127.324 E0.73613
G1 E-3.50000 F3600.000
;WIPE_START
G1 F7200.000
G1 X148.683 Y124.324 E-1.42500
;WIPE_END
G1 E-0.07500 F3600.000
G1 X148.683 Y127.324 F9000.000
G1 X148.683 Y127.324
G1 X120.229 Y119.550
G1 X120.189 Y119.653
G1 X120.133 Y119.795
G1 X120.055 Y119.983
G1 X120.021 Y120.061
G1 X119.996 Y120.116
G1 X119.981 Y120.150
G1 X119.919 Y120.281
G1 X119.860 Y120.395
G1 X119.803 Y120.495
G1 X119.748 Y120.585
G1 X119.690 Y120.667
G1 X119.633 Y120.741
G1 X119.574 Y120.808
G1 X119.508 Y120.872
G1 X119.440 Y120.931
G1 X119.368 Y120.986
G1 X119.290 Y121.037
G1 X119.206 Y121.084
G1 X119.119 Y121.128
G1 X119.023 Y121.169
G1 X118.920 Y121.207
G1 X118.809 Y121.243
G1 X118.704 Y121.272
G1 X118.605 Y121.295
G1 X118.513 Y121.309
G1 X118.429 Y121.319
G1 X118.349 Y121.322
G1 X118.273 Y121.320
G1 X118.200 Y121.312
G1 X118.132 Y121.298
G1 X118.058 Y121.276
G1 X117.992 Y121.246
G1 X117.930 Y121.211
G1 X117.870 Y121.167
G1 X117.820 Y121.119
G1 X117.775 Y121.068
G1 X117.731 Y121.008
G1 X117.691 Y120.941
G1 X117.658 Y120.870
G1 X117.631 Y120.799
G1 X117.608 Y120.722
G1 X117.245 Y118.735
G1 E5.00000 F2400.000
;TYPE:External perimeter
G1 F1200.000
G1 X117.109 Y118.821 E0.00505
G1 X116.949 Y118.882 E0.00536
G1 X116.697 Y118.913 E0.00798
G1 X116.445 Y118.860 E0.00806
G1 X116.244 Y118.737 E0.00740
G1 X116.085 Y118.553 E0.00763
G1 X115.885 Y118.167 E0.01363
G1 X115.846 Y117.984 E0.00587
G1 X115.790 Y117.880 E0.00368
G1 X115.646 Y117.768 E0.00573
G1 X115.609 Y117.689 E0.00274
G1 X115.467 Y117.834 E0.00635
G1 X115.402 Y117.963 E0.00453
G1 X115.386 Y118.093 E0.00411
G1 X115.168 Y118.482 E0.01400
G1 X115.059 Y118.637 E0.00593
G1 X114.925 Y118.757 E0.00565
G1 X114.651 Y118.885 E0.00949
G1 X114.393 Y118.870 E0.00808
G1 X114.122 Y118.736 E0.00950
