; generated by PrusaSlicer 2.3.0 on 2021-05-15 at 00:28:51 UTC

; 

; external perimeters extrusion width = 0.45mm
; perimeters extrusion width = 0.45mm
; infill extrusion width = 0.45mm
; solid infill extrusion width = 0.45mm
; top infill extrusion width = 0.40mm
; first layer extrusion width = 0.42mm

M201 X500 Y500 Z100 E5000 ; sets maximum accelerations, mm/sec^2
M203 X500 Y500 Z10 E60 ; sets maximum feedrates, mm/sec
M204 P500 R1000 T500 ; sets acceleration (P, T) and retract acceleration (R), mm/sec^2
M205 X8.00 Y8.00 Z0.40 E5.00 ; sets the jerk limits, mm/sec
M205 S0 T0 ; sets the minimum extruding and travel feed rate, mm/sec
M107
;TYPE:Custom
G90 ; use absolute coordinates
M83 ; extruder relative mode
M104 S120 ; set temporary nozzle temp to prevent oozing during homing and auto bed leveling
M140 S60 ; set final bed temp
G4 S10 ; allow partial nozzle warmup
G28 ; home all axis
G1 Z50 F240
G1 X2 Y10 F3000
M104 S210 ; set final nozzle temp
M190 S60 ; wait for bed temp to stabilize
M109 S210 ; wait for nozzle temp to stabilize
G1 Z0.28 F240
G92 E0
G1 Y140 E10 F1500 ; prime the nozzle
G1 X2.3 F5000
G92 E0
G1 Y10 E10 F1200 ; prime the nozzle
G92 E0
G21 ; set units to millimeters
G90 ; use absolute coordinates
M83 ; use relative distances for extrusion
; Filament gcode
;LAYER_CHANGE
;Z:0.2
;HEIGHT:0.2
;BEFORE_LAYER_CHANGE
G92 E0
;0.2


G1 E-5.00000 F3600.000
G1 Z0.200 F9000.000
;AFTER_LAYER_CHANGE
;0.2
G1 X117.189 Y109.192
G1 E5.00000 F2400.000
;TYPE:External perimeter
;WIDTH:0.42
G1 F1200.000
G1 X129.806 Y109.192 E0.39557
G1 X129.806 Y121.808 E0.39557
G1 X117.189 Y121.808 E0.39557
G1 X117.189 Y109.252 E0.39369
G1 E-5.00000 F3600.000
G1 X128.920 Y109.305 F9000.000
G1 E5.00000 F2400.000
;TYPE:Solid infill
;WIDTH:0.424989
G1 F1200.000
G1 X129.523 Y109.908 E0.02710
G1 X129.523 Y110.449 E0.01717
G1 X128.549 Y109.475 E0.04375
G1 X128.009 Y109.475 E0.01717
G1 X129.523 Y110.989 E0.06803
G1 X129.523 Y111.529 E0.01717
G1 X127.468 Y109.475 E0.09230
G1 X126.928 Y109.475 E0.01717
G1 X129.523 Y112.070 E0.11658
G1 X129.523 Y112.610 E0.01717
G1 X126.388 Y109.475 E0.14086
G1 X125.847 Y109.475 E0.01717
G1 X129.523 Y113.150 E0.16513
G1 X129.523 Y113.691 E0.01717
G1 X125.307 Y109.475 E0.18941
G1 X124.767 Y109.475 E0.01717
G1 X129.523 Y114.231 E0.21368
G1 X129.523 Y114.771 E0.01717
G1 X124.226 Y109.475 E0.23796
G1 X123.686 Y109.475 E0.01717
G1 X129.523 Y115.312 E0.26224
G1 X129.523 Y115.852 E0.01717
G1 X123.146 Y109.475 E0.28651
G1 X122.605 Y109.475 E0.01717
G1 X129.523 Y116.392 E0.31079
G1 X129.523 Y116.933 E0.01717
G1 X122.065 Y109.475 E0.33506
G1 X121.525 Y109.475 E0.01717
G1 X129.523 Y117.473 E0.35934
G1 X129.523 Y118.013 E0.01717
G1 X120.984 Y109.475 E0.38362
G1 X120.444 Y109.475 E0.01717
G1 X129.523 Y118.553 E0.40789
G1 X129.523 Y119.094 E0.01717
G1 X119.904 Y109.475 E0.43217
G1 X119.363 Y109.475 E0.01717
G1 X129.523 Y119.634 E0.45644
G1 X129.523 Y120.174 E0.01717
G1 X118.823 Y109.475 E0.48072
G1 X118.283 Y109.475 E0.01717
G1 X129.523 Y120.715 E0.50500
G1 X129.523 Y121.255 E0.01717
G1 X117.742 Y109.475 E0.52927
G1 X117.472 Y109.475 E0.00858
G1 X117.472 Y109.745 E0.00858
G1 X129.253 Y121.525 E0.52927
G1 X128.712 Y121.525 E0.01717
G1 X117.472 Y110.285 E0.50499
G1 X117.472 Y110.826 E0.01717
G1 X128.172 Y121.525 E0.48072
G1 X127.632 Y121.525 E0.01717
G1 X117.472 Y111.366 E0.45644
G1 X117.472 Y111.906 E0.01717
G1 X127.091 Y121.525 E0.43216
G1 X126.551 Y121.525 E0.01717
G1 X117.472 Y112.447 E0.40789
G1 X117.472 Y112.987 E0.01717
G1 X126.011 Y121.525 E0.38361
G1 X125.470 Y121.525 E0.01717
G1 X117.472 Y113.527 E0.35934
G1 X117.472 Y114.068 E0.01717
G1 X124.930 Y121.525 E0.33506
G1 X124.390 Y121.525 E0.01717
G1 X117.472 Y114.608 E0.31078
G1 X117.472 Y115.148 E0.01717
G1 X123.849 Y121.525 E0.28651
G1 X123.309 Y121.525 E0.01717
G1 X117.472 Y115.689 E0.26223
G1 X117.472 Y116.229 E0.01717
G1 X122.769 Y121.525 E0.23796
G1 X122.228 Y121.525 E0.01717
G1 X117.472 Y116.769 E0.21368
G1 X117.472 Y117.310 E0.01717
G1 X121.688 Y121.525 E0.18940
G1 X121.148 Y121.525 E0.01717
G1 X117.472 Y117.850 E0.16513
G1 X117.472 Y118.390 E0.01717
G1 X120.607 Y121.525 E0.14085
G1 X120.067 Y121.525 E0.01717
G1 X117.472 Y118.931 E0.11658
G1 X117.472 Y119.471 E0.01717
G1 X119.527 Y121.525 E0.09230
G1 X118.986 Y121.525 E0.01717
G1 X117.472 Y120.011 E0.06802
G1 X117.472 Y120.552 E0.01717
G1 X118.446 Y121.525 E0.04375
G1 X117.906 Y121.525 E0.01717
G1 X117.303 Y120.922 E0.02709
G1 E-3.50000 F3600.000
;WIPE_START
G1 F7200.000
G1 X117.906 Y121.525 E-0.40511
G1 X118.446 Y121.525 E-0.25666
G1 X117.472 Y120.552 E-0.65409
G1 X117.472 Y120.322 E-0.10915
;WIPE_END
G1 E-0.07500 F3600.000
G1 X117.303 Y120.922 F9000.000
G1 X117.303 Y120.922
G1 X110.462 Y119.843
G1 E5.00000 F2400.000
;TYPE:External perimeter
;WIDTH:0.42
G1 F1200.000
G1 X110.225 Y120.080 E0.01049
G1 X110.118 Y120.002 E0.00416
G1 X109.169 Y119.054 E0.04205
G1 X108.811 Y119.211 E0.01227
G1 X108.278 Y119.535 E0.01954
G1 X107.745 Y119.804 E0.01873
G1 X107.190 Y120.003 E0.01848
G1 X106.616 Y120.132 E0.01847
G1 X106.029 Y120.187 E0.01847
G1 X105.441 Y120.169 E0.01847
G1 X104.859 Y120.077 E0.01847
G1 X104.290 Y119.911 E0.01857
G1 X104.022 Y119.805 E0.00903
G1 X103.492 Y119.535 E0.01867
G1 X103.249 Y119.381 E0.00903
G1 X102.781 Y119.018 E0.01857
G1 X102.364 Y118.601 E0.01847
G1 X102.001 Y118.133 E0.01857
G1 X101.847 Y117.890 E0.00903
G1 X101.578 Y117.362 E0.01857
G1 X101.379 Y116.808 E0.01847
G1 X101.249 Y116.230 E0.01857
G1 X101.213 Y115.945 E0.00903
G1 X101.195 Y115.353 E0.01857
G1 X101.250 Y114.766 E0.01847
G1 X101.379 Y114.192 E0.01847
G1 X101.578 Y113.637 E0.01848
G1 X101.847 Y113.103 E0.01873
G1 X102.171 Y112.571 E0.01954
G1 X102.328 Y112.213 E0.01227
G1 X101.380 Y111.264 E0.04205
G1 X101.302 Y111.157 E0.00416
G1 X101.539 Y110.920 E0.01049
G1 X101.646 Y110.998 E0.00416
G1 X102.595 Y111.946 E0.04205
G1 X102.952 Y111.790 E0.01221
G1 X103.752 Y111.321 E0.02907
G1 X104.296 Y111.086 E0.01860
G1 X104.570 Y110.997 E0.00903
G1 X105.152 Y110.867 E0.01867
G1 X105.437 Y110.831 E0.00901
G1 X106.077 Y110.816 E0.02010
G1 X106.619 Y110.868 E0.01705
G1 X106.902 Y110.922 E0.00904
G1 X107.470 Y111.088 E0.01857
G1 X108.011 Y111.322 E0.01847
G1 X108.518 Y111.621 E0.01847
G1 X108.983 Y111.982 E0.01846
G1 X109.400 Y112.399 E0.01847
G1 X109.763 Y112.867 E0.01857
G1 X109.917 Y113.110 E0.00903
G1 X110.186 Y113.638 E0.01857
G1 X110.385 Y114.192 E0.01847
G1 X110.514 Y114.770 E0.01857
G1 X110.551 Y115.055 E0.00903
G1 X110.569 Y115.647 E0.01857
G1 X110.514 Y116.234 E0.01847
G1 X110.385 Y116.808 E0.01847
G1 X110.186 Y117.363 E0.01848
G1 X109.917 Y117.897 E0.01873
G1 X109.593 Y118.429 E0.01954
G1 X109.436 Y118.787 E0.01227
G1 X110.427 Y119.795 E0.04431
G1 E-5.00000 F3600.000
G1 X109.433 Y118.752 F9000.000
G1 X109.876 Y113.279
G1 E5.00000 F2400.000
;TYPE:Solid infill
;WIDTH:0.425088
G1 F1200.000
G1 X108.779 Y112.182 E0.04928
G1 X108.359 Y111.856 E0.01693
G1 X107.882 Y111.574 E0.01758
G1 X107.439 Y111.382 E0.01535
G1 X109.993 Y113.936 E0.11476
G1 X110.113 Y114.271 E0.01131
G1 X110.207 Y114.691 E0.01368
G1 X106.685 Y111.169 E0.15826
G1 X106.076 Y111.100 E0.01950
G1 X110.275 Y115.299 E0.18873
G1 X110.286 Y115.638 E0.01078
G1 X110.268 Y115.832 E0.00619
G1 X105.547 Y111.112 E0.21214
G1 X105.070 Y111.175 E0.01528
G1 X110.207 Y116.312 E0.23082
G1 X110.105 Y116.751 E0.01433
G1 X104.630 Y111.275 E0.24607
G1 X104.235 Y111.421 E0.01338
G1 X109.962 Y117.148 E0.25739
G1 X109.791 Y117.518 E0.01293
G1 X103.860 Y111.586 E0.26657
G1 X103.519 Y111.786 E0.01255
G1 X109.602 Y117.869 E0.27340
G1 X109.398 Y118.205 E0.01250
G1 X103.178 Y111.985 E0.27952
G1 X102.812 Y112.160 E0.01288
G1 X109.222 Y118.570 E0.28807
G1 X109.140 Y118.758 E0.00652
G1 X108.952 Y118.840 E0.00652
G1 X102.542 Y112.430 E0.28807
G1 X102.366 Y112.795 E0.01287
G1 X108.587 Y119.016 E0.27956
G1 X108.251 Y119.221 E0.01250
G1 X102.161 Y113.131 E0.27367
G1 X101.973 Y113.482 E0.01268
G1 X107.900 Y119.409 E0.26635
G1 X107.530 Y119.580 E0.01293
G1 X101.802 Y113.852 E0.25745
G1 X101.658 Y114.249 E0.01342
G1 X107.133 Y119.723 E0.24602
G1 X106.693 Y119.825 E0.01433
G1 X101.557 Y114.688 E0.23082
G1 X101.496 Y115.168 E0.01536
G1 X106.214 Y119.886 E0.21202
G1 X106.020 Y119.904 E0.00618
G1 X105.681 Y119.893 E0.01078
G1 X101.489 Y115.701 E0.18842
G1 X101.496 Y115.922 E0.00705
G1 X101.557 Y116.309 E0.01245
G1 X105.071 Y119.824 E0.15794
G1 X104.921 Y119.800 E0.00485
G1 X104.330 Y119.623 E0.01960
G1 X101.771 Y117.064 E0.11498
G1 X101.838 Y117.250 E0.00627
G1 X102.093 Y117.750 E0.01783
G1 X102.233 Y117.971 E0.00830
G1 X102.565 Y118.398 E0.01719
G1 X103.661 Y119.494 E0.04925
M106 S255
;LAYER_CHANGE
;Z:0.28
;HEIGHT:0.08
;BEFORE_LAYER_CHANGE
G92 E0
;0.28


G1 E-3.50000 F3600.000
;WIPE_START
G1 F7200.000
G1 X102.565 Y118.398 E-0.73622
G1 X102.233 Y117.971 E-0.25698
G1 X102.093 Y117.750 E-0.12414
G1 X101.838 Y117.250 E-0.26652
G1 X101.809 Y117.168 E-0.04114
;WIPE_END
G1 E-0.07500 F3600.000
G1 Z0.280 F9000.000
;AFTER_LAYER_CHANGE
;0.28
M104 S205 ; set temperature
G1 X117.104 Y121.893
G1 E5.00000 F2400.000
;TYPE:External perimeter
;WIDTH:0.45
G1 F1500.000
G1 X117.104 Y109.107 E0.18407
G1 X129.891 Y109.107 E0.18407
G1 X129.891 Y121.893 E0.18407
G1 X117.164 Y121.893 E0.18320
G1 E-5.00000 F3600.000
G1 X118.111 Y109.237 F9000.000
G1 E5.00000 F2400.000
;TYPE:Solid infill
;WIDTH:0.450732
G1 F2135
G1 X117.429 Y109.918 E0.01390
G1 X117.429 Y110.532 E0.00884
G1 X118.529 Y109.432 E0.02243
G1 X119.142 Y109.432 E0.00884
G1 X117.429 Y111.145 E0.03494
G1 X117.429 Y111.758 E0.00884
G1 X119.755 Y109.432 E0.04744
G1 X120.369 Y109.432 E0.00884
G1 X117.429 Y112.371 E0.05995
G1 X117.429 Y112.984 E0.00884
G1 X120.982 Y109.432 E0.07245
G1 X121.595 Y109.432 E0.00884
G1 X117.429 Y113.597 E0.08496
G1 X117.429 Y114.211 E0.00884
G1 X122.208 Y109.432 E0.09746
G1 X122.821 Y109.432 E0.00884
G1 X117.429 Y114.824 E0.10996
G1 X117.429 Y115.437 E0.00884
G1 X123.434 Y109.432 E0.12247
G1 X124.048 Y109.432 E0.00884
G1 X117.429 Y116.050 E0.13497
G1 X117.429 Y116.663 E0.00884
G1 X124.661 Y109.432 E0.14748
G1 X125.274 Y109.432 E0.00884
G1 X117.429 Y117.276 E0.15998
G1 X117.429 Y117.889 E0.00884
G1 X125.887 Y109.432 E0.17249
G1 X126.500 Y109.432 E0.00884
G1 X117.429 Y118.503 E0.18499
G1 X117.429 Y119.116 E0.00884
G1 X127.113 Y109.432 E0.19749
G1 X127.726 Y109.432 E0.00884
G1 X117.429 Y119.729 E0.21000
G1 X117.429 Y120.342 E0.00884
G1 X128.340 Y109.432 E0.22250
G1 X128.953 Y109.432 E0.00884
G1 X117.429 Y120.955 E0.23501
G1 X117.429 Y121.568 E0.00884
G1 X129.566 Y109.432 E0.24751
G1 X129.566 Y110.045 E0.00884
G1 X118.042 Y121.568 E0.23501
G1 X118.655 Y121.568 E0.00884
G1 X129.566 Y110.658 E0.22250
G1 X129.566 Y111.271 E0.00884
G1 X119.269 Y121.568 E0.21000
G1 X119.882 Y121.568 E0.00884
G1 X129.566 Y111.884 E0.19750
G1 X129.566 Y112.497 E0.00884
G1 X120.495 Y121.568 E0.18499
G1 X121.108 Y121.568 E0.00884
G1 X129.566 Y113.110 E0.17249
G1 X129.566 Y113.724 E0.00884
G1 X121.721 Y121.568 E0.15998
G1 X122.334 Y121.568 E0.00884
G1 X129.566 Y114.337 E0.14748
G1 X129.566 Y114.950 E0.00884
G1 X122.947 Y121.568 E0.13497
G1 X123.561 Y121.568 E0.00884
G1 X129.566 Y115.563 E0.12247
G1 X129.566 Y116.176 E0.00884
G1 X124.174 Y121.568 E0.10997
G1 X124.787 Y121.568 E0.00884
G1 X129.566 Y116.789 E0.09746
G1 X129.566 Y117.403 E0.00884
G1 X125.400 Y121.568 E0.08496
G1 X126.013 Y121.568 E0.00884
G1 X129.566 Y118.016 E0.07245
G1 X129.566 Y118.629 E0.00884
G1 X126.626 Y121.568 E0.05995
G1 X127.240 Y121.568 E0.00884
G1 X129.566 Y119.242 E0.04744
G1 X129.566 Y119.855 E0.00884
G1 X127.853 Y121.568 E0.03494
G1 X128.466 Y121.568 E0.00884
G1 X129.566 Y120.468 E0.02244
G1 X129.566 Y121.081 E0.00884
G1 X128.884 Y121.763 E0.01390
G1 E-3.50000 F3600.000
;WIPE_START
G1 F7200.000
G1 X129.566 Y121.081 E-0.45796
G1 X129.566 Y120.468 E-0.29125
G1 X128.560 Y121.474 E-0.67579
;WIPE_END
G1 E-0.07500 F3600.000
G1 X128.884 Y121.763 F9000.000
G1 X128.884 Y121.763
G1 X110.514 Y119.884
G1 E5.00000 F2400.000
;TYPE:External perimeter
;WIDTH:0.45
G1 F1500.000
G1 X110.266 Y120.132 E0.00504
G1 X109.141 Y119.007 E0.02289
G1 X108.563 Y119.451 E0.01049
G1 X108.316 Y119.608 E0.00422
G1 X107.778 Y119.882 E0.00868
G1 X107.214 Y120.085 E0.00863
G1 X106.629 Y120.216 E0.00863
G1 X106.032 Y120.272 E0.00863
G1 X105.433 Y120.253 E0.00863
G1 X104.840 Y120.160 E0.00863
G1 X104.261 Y119.991 E0.00868
G1 X103.989 Y119.883 E0.00422
G1 X103.448 Y119.608 E0.00873
G1 X103.201 Y119.451 E0.00422
G1 X102.724 Y119.081 E0.00868
G1 X102.301 Y118.657 E0.00863
G1 X101.931 Y118.181 E0.00868
G1 X101.774 Y117.934 E0.00422
G1 X101.500 Y117.396 E0.00868
G1 X101.297 Y116.832 E0.00863
G1 X101.165 Y116.243 E0.00868
G1 X101.129 Y115.953 E0.00422
G1 X101.110 Y115.350 E0.00868
G1 X101.166 Y114.753 E0.00863
G1 X101.297 Y114.168 E0.00863
G1 X101.500 Y113.604 E0.00863
G1 X101.774 Y113.066 E0.00868
G1 X101.931 Y112.819 E0.00422
G1 X102.375 Y112.240 E0.01049
G1 X101.250 Y111.116 E0.02289
G1 X101.498 Y110.868 E0.00504
G1 X102.622 Y111.993 E0.02289
G1 X103.201 Y111.549 E0.01049
G1 X103.448 Y111.392 E0.00422
G1 X103.989 Y111.117 E0.00873
G1 X104.546 Y110.916 E0.00853
G1 X105.135 Y110.784 E0.00868
G1 X105.734 Y110.728 E0.00865
G1 X106.151 Y110.735 E0.00601
G1 X106.632 Y110.784 E0.00696
G1 X106.920 Y110.839 E0.00423
G1 X107.499 Y111.008 E0.00868
G1 X108.050 Y111.246 E0.00863
G1 X108.566 Y111.551 E0.00863
G1 X109.039 Y111.919 E0.00863
G1 X109.463 Y112.343 E0.00863
G1 X109.833 Y112.819 E0.00868
G1 X109.990 Y113.066 E0.00422
G1 X110.264 Y113.604 E0.00868
G1 X110.467 Y114.168 E0.00863
G1 X110.599 Y114.757 E0.00868
G1 X110.635 Y115.047 E0.00422
G1 X110.654 Y115.650 E0.00868
G1 X110.598 Y116.247 E0.00863
G1 X110.467 Y116.832 E0.00863
G1 X110.264 Y117.396 E0.00863
G1 X109.990 Y117.934 E0.00868
G1 X109.833 Y118.181 E0.00422
G1 X109.389 Y118.760 E0.01049
G1 X110.471 Y119.842 E0.02203
G1 E-5.00000 F3600.000
G1 X103.586 Y111.467 F9000.000
G1 E5.00000 F2400.000
;TYPE:Solid infill
;WIDTH:0.464643
G1 F2135
G1 X102.689 Y112.365 E0.01889
G1 X102.197 Y113.005 E0.01200
G1 X102.056 Y113.227 E0.00392
G1 X101.799 Y113.733 E0.00844
G1 X101.711 Y113.975 E0.00383
G1 X104.373 Y111.314 E0.05602
G1 X104.632 Y111.229 E0.00406
G1 X105.217 Y111.103 E0.00890
G1 X101.485 Y114.835 E0.07855
G1 X101.435 Y115.360 E0.00786
G1 X101.440 Y115.512 E0.00227
G1 X105.897 Y111.055 E0.09381
G1 X106.489 Y111.096 E0.00883
G1 X101.476 Y116.109 E0.10552
G1 X101.585 Y116.633 E0.00796
G1 X107.013 Y111.205 E0.11425
G1 X107.492 Y111.358 E0.00749
G1 X101.742 Y117.109 E0.12104
G1 X101.799 Y117.267 E0.00250
G1 X101.940 Y117.544 E0.00462
G1 X107.931 Y111.553 E0.12610
G1 X108.328 Y111.788 E0.00688
G1 X102.168 Y117.948 E0.12967
G1 X102.441 Y118.308 E0.00672
G1 X108.690 Y112.059 E0.13154
G1 X108.824 Y112.163 E0.00252
G1 X109.022 Y112.360 E0.00416
G1 X102.742 Y118.640 E0.13218
G1 X102.940 Y118.837 E0.00416
G1 X103.073 Y118.941 E0.00252
G1 X109.323 Y112.691 E0.13155
G1 X109.596 Y113.051 E0.00672
G1 X103.433 Y119.214 E0.12971
G1 X103.838 Y119.442 E0.00691
G1 X109.824 Y113.456 E0.12600
G1 X109.965 Y113.733 E0.00462
G1 X110.022 Y113.891 E0.00250
G1 X104.268 Y119.645 E0.12111
G1 X104.751 Y119.795 E0.00752
G1 X110.179 Y114.367 E0.11425
G1 X110.288 Y114.891 E0.00796
G1 X105.279 Y119.900 E0.10544
G1 X105.463 Y119.930 E0.00278
G1 X105.869 Y119.942 E0.00605
G1 X110.324 Y115.487 E0.09377
G1 X110.329 Y115.640 E0.00227
G1 X110.279 Y116.165 E0.00785
G1 X106.547 Y119.897 E0.07856
G1 X107.123 Y119.773 E0.00877
G1 X107.407 Y119.671 E0.00448
G1 X110.053 Y117.025 E0.05569
G1 X109.965 Y117.267 E0.00383
G1 X109.708 Y117.773 E0.00844
G1 X109.566 Y117.995 E0.00392
G1 X109.076 Y118.634 E0.01199
G1 X108.177 Y119.533 E0.01891
;LAYER_CHANGE
;Z:0.36
;HEIGHT:0.08
;BEFORE_LAYER_CHANGE
G92 E0
;0.36


G1 E-3.50000 F3600.000
;WIPE_START
G1 F7200.000
G1 X109.076 Y118.634 E-0.60339
G1 X109.566 Y117.995 E-0.38280
G1 X109.708 Y117.773 E-0.12523
G1 X109.965 Y117.267 E-0.26952
G1 X109.997 Y117.180 E-0.04406
;WIPE_END
G1 E-0.07500 F3600.000
G1 Z0.360 F9000.000
;AFTER_LAYER_CHANGE
;0.36
G1 X117.104 Y121.893
G1 E5.00000 F2400.000
;TYPE:External perimeter
;WIDTH:0.45
G1 F1500.000
G1 X117.104 Y109.107 E0.18407
G1 X129.891 Y109.107 E0.18407
