; generated by PrusaSlicer 2.3.0 on 2021-04-30 at 02:47:51 UTC

; 

; external perimeters extrusion width = 0.45mm
; perimeters extrusion width = 0.45mm
; infill extrusion width = 0.45mm
; solid infill extrusion width = 0.45mm
; top infill extrusion width = 0.40mm
; support material extrusion width = 0.38mm
; first layer extrusion width = 0.42mm

M201 X500 Y500 Z100 E5000 ; sets maximum accelerations, mm/sec^2
M203 X500 Y500 Z10 E60 ; sets maximum feedrates, mm/sec
M204 P500 R1000 T500 ; sets acceleration (P, T) and retract acceleration (R), mm/sec^2
M205 X8.00 Y8.00 Z0.40 E5.00 ; sets the jerk limits, mm/sec
M205 S0 T0 ; sets the minimum extruding and travel feed rate, mm/sec
M107
;TYPE:Custom
G90 ; use absolute coordinates
M83 ; extruder relative mode
M104 S120 ; set temporary nozzle temp to prevent oozing during homing and auto bed leveling
M140 S60 ; set final bed temp
G4 S10 ; allow partial nozzle warmup
G28 ; home all axis
G1 Z50 F240
G1 X2 Y10 F3000
M104 S210 ; set final nozzle temp
M190 S60 ; wait for bed temp to stabilize
M109 S210 ; wait for nozzle temp to stabilize
G1 Z0.28 F240
G92 E0
G1 Y140 E10 F1500 ; prime the nozzle
G1 X2.3 F5000
G92 E0
G1 Y10 E10 F1200 ; prime the nozzle
G92 E0
G21 ; set units to millimeters
G90 ; use absolute coordinates
M83 ; use relative distances for extrusion
; Filament gcode
;LAYER_CHANGE
;Z:0.2
;HEIGHT:0.2
;BEFORE_LAYER_CHANGE
G92 E0
;0.2


G1 E-5.00000 F3600.000
G1 Z0.200 F9000.000
;AFTER_LAYER_CHANGE
;0.2
G1 X101.096 Y103.492
G1 E5.00000 F2400.000
;TYPE:Skirt
;WIDTH:0.42
G1 F1200.000
G1 X101.458 Y102.768 E0.02536
G1 X101.957 Y102.228 E0.02307
G1 X102.582 Y101.839 E0.02307
G1 X107.534 Y99.921 E0.16651
G1 X108.109 Y99.774 E0.01860
G1 X122.504 Y99.746 E0.45136
G1 X123.494 Y99.931 E0.03157
G1 X128.616 Y102.108 E0.17450
G1 X129.080 Y102.429 E0.01771
G1 X129.472 Y102.842 E0.01784
G1 X129.770 Y103.327 E0.01784
G1 X129.961 Y103.858 E0.01771
G1 X130.042 Y104.512 E0.02065
G1 X130.041 Y126.699 E0.69565
G1 X129.907 Y127.501 E0.02549
G1 X129.542 Y128.232 E0.02562
G1 X129.027 Y128.785 E0.02371
G1 X128.381 Y129.178 E0.02371
G1 X123.424 Y131.095 E0.16664
G1 X122.552 Y131.254 E0.02777
G1 X108.161 Y131.233 E0.45124
G1 X107.445 Y131.044 E0.02320
G1 X102.615 Y129.006 E0.16437
G1 X102.130 Y128.734 E0.01745
G1 X101.651 Y128.306 E0.02014
G1 X101.286 Y127.783 E0.02001
G1 X101.050 Y127.185 E0.02014
G1 X100.959 Y126.549 E0.02014
G1 X100.959 Y104.293 E0.69783
G1 X101.086 Y103.551 E0.02361
G1 X101.454 Y103.614 F9000.000
G1 F1200.000
G1 X101.776 Y102.972 E0.02251
G1 X102.209 Y102.509 E0.01989
G1 X102.753 Y102.176 E0.02000
G1 X107.668 Y100.273 E0.16524
G1 X108.177 Y100.145 E0.01645
G1 X122.504 Y100.123 E0.44922
G1 X123.363 Y100.285 E0.02743
G1 X128.418 Y102.429 E0.17213
G1 X128.828 Y102.710 E0.01562
G1 X129.172 Y103.071 E0.01562
G1 X129.432 Y103.495 E0.01562
G1 X129.599 Y103.965 E0.01562
G1 X129.664 Y104.512 E0.01728
G1 X129.664 Y126.688 E0.69530
G1 X129.546 Y127.391 E0.02237
G1 X129.224 Y128.028 E0.02237
G1 X128.776 Y128.503 E0.02048
G1 X128.219 Y128.837 E0.02036
G1 X123.303 Y130.737 E0.16524
G1 X122.535 Y130.877 E0.02449
G1 X108.211 Y130.859 E0.44911
G1 X107.587 Y130.695 E0.02024
G1 X102.767 Y128.661 E0.16402
G1 X102.334 Y128.416 E0.01562
G1 X101.925 Y128.047 E0.01728
G1 X101.612 Y127.593 E0.01728
G1 X101.412 Y127.079 E0.01728
G1 X101.336 Y126.534 E0.01728
G1 X101.336 Y104.305 E0.69697
G1 X101.444 Y103.673 E0.02010
G1 E-3.50000 F3600.000
;WIPE_START
G1 F7200.000
G1 X101.776 Y102.972 E-0.36833
G1 X102.209 Y102.509 E-0.30125
G1 X102.753 Y102.176 E-0.30304
G1 X103.641 Y101.832 E-0.45238
;WIPE_END
G1 E-0.07500 F3600.000
G1 X101.444 Y103.673 F9000.000
G1 X101.444 Y103.673
G1 X127.287 Y119.324
G1 E5.00000 F2400.000
;TYPE:Support material
G1 F1200.000
G1 X127.287 Y104.520 E0.46416
G1 X126.533 Y104.520 E0.02365
G1 X126.533 Y119.154 E0.45884
G1 X125.779 Y119.154 E0.02365
G1 X125.779 Y104.520 E0.45884
G1 X125.025 Y104.520 E0.02365
G1 X125.025 Y119.154 E0.45884
G1 X124.271 Y119.154 E0.02365
G1 X124.271 Y104.520 E0.45884
G1 X123.517 Y104.520 E0.02365
G1 X123.517 Y119.154 E0.45884
G1 X122.762 Y119.154 E0.02365
G1 X122.762 Y112.886 E0.19653
G1 X122.690 Y112.959 E0.00322
G1 X122.008 Y112.959 E0.02137
G1 X122.008 Y119.154 E0.19426
G1 X121.254 Y119.154 E0.02365
G1 X121.254 Y112.959 E0.19426
G1 X120.500 Y112.959 E0.02365
G1 X120.500 Y119.154 E0.19426
G1 X119.746 Y119.154 E0.02365
G1 X119.746 Y112.959 E0.19426
G1 X118.992 Y112.959 E0.02365
G1 X118.992 Y119.154 E0.19426
G1 X118.238 Y119.154 E0.02365
G1 X118.238 Y112.886 E0.19653
G1 X118.041 Y112.690 E0.00869
G1 X118.041 Y104.520 E0.25616
G1 X117.483 Y104.520 E0.01750
G1 X117.483 Y119.154 E0.45884
G1 X116.729 Y119.154 E0.02365
G1 X116.729 Y104.520 E0.45884
G1 X115.975 Y104.520 E0.02365
G1 X115.975 Y119.154 E0.45884
G1 X115.221 Y119.154 E0.02365
G1 X115.221 Y104.520 E0.45884
G1 X114.467 Y104.520 E0.02365
G1 X114.467 Y119.154 E0.45884
G1 X113.713 Y119.154 E0.02365
G1 X113.713 Y104.350 E0.46416
G1 E-3.50000 F3600.000
;WIPE_START
G1 F7200.000
G1 X113.713 Y107.350 E-1.42500
;WIPE_END
G1 E-0.07500 F3600.000
G1 X113.713 Y104.350 F9000.000
G1 X113.713 Y104.350
G1 X119.187 Y103.187
G1 E5.00000 F2400.000
;TYPE:Perimeter
G1 F1200.000
G1 X121.813 Y103.187 E0.08233
G1 X121.813 Y111.813 E0.27046
G1 X119.187 Y111.813 E0.08233
G1 X119.187 Y103.247 E0.26858
G1 X118.810 Y102.810 F9000.000
;TYPE:External perimeter
G1 F1200.000
G1 X122.190 Y102.810 E0.10598
G1 X122.190 Y112.190 E0.29410
G1 X118.810 Y112.190 E0.10598
G1 X118.810 Y102.870 E0.29222
G1 X119.177 Y102.969 F9000.000
G1 E-5.00000 F3600.000
G1 X121.700 Y104.078 F9000.000
G1 E5.00000 F2400.000
;TYPE:Solid infill
;WIDTH:0.427396
G1 F1200.000
G1 X121.092 Y103.470 E0.02750
G1 X120.548 Y103.470 E0.01738
G1 X121.530 Y104.452 E0.04441
G1 X121.530 Y104.996 E0.01738
G1 X120.004 Y103.470 E0.06900
G1 X119.470 Y103.470 E0.01708
G1 X121.530 Y105.540 E0.09336
G1 X121.530 Y106.083 E0.01738
G1 X119.470 Y104.023 E0.09315
G1 X119.470 Y104.567 E0.01738
G1 X121.530 Y106.627 E0.09315
G1 X121.530 Y107.171 E0.01738
G1 X119.470 Y105.111 E0.09315
G1 X119.470 Y105.654 E0.01738
G1 X121.530 Y107.715 E0.09315
G1 X121.530 Y108.258 E0.01738
G1 X119.470 Y106.198 E0.09315
G1 X119.470 Y106.742 E0.01738
G1 X121.530 Y108.802 E0.09315
G1 X121.530 Y109.346 E0.01738
G1 X119.470 Y107.286 E0.09315
G1 X119.470 Y107.829 E0.01738
G1 X121.530 Y109.890 E0.09315
G1 X121.530 Y110.433 E0.01738
G1 X119.470 Y108.373 E0.09315
G1 X119.470 Y108.917 E0.01738
G1 X121.530 Y110.977 E0.09315
G1 X121.530 Y111.521 E0.01738
G1 X119.470 Y109.460 E0.09315
G1 X119.470 Y110.004 E0.01738
G1 X120.996 Y111.530 E0.06899
G1 X120.452 Y111.530 E0.01738
G1 X119.470 Y110.548 E0.04441
G1 X119.470 Y111.092 E0.01738
G1 X120.078 Y111.700 E0.02750
G1 E-3.50000 F3600.000
;WIPE_START
G1 F7200.000
G1 X119.470 Y111.092 E-0.40853
G1 X119.470 Y110.548 E-0.25827
G1 X120.452 Y111.530 E-0.65980
G1 X120.659 Y111.530 E-0.09840
;WIPE_END
G1 E-0.07500 F3600.000
G1 X120.078 Y111.700 F9000.000
G1 X120.078 Y111.700
G1 X103.713 Y104.350
G1 E5.00000 F2400.000
;TYPE:Support material
;WIDTH:0.42
G1 F1200.000
G1 X103.713 Y119.154 E0.46416
G1 X104.467 Y119.154 E0.02365
G1 X104.467 Y104.520 E0.45884
G1 X105.221 Y104.520 E0.02365
G1 X105.221 Y119.154 E0.45884
G1 X105.975 Y119.154 E0.02365
G1 X105.975 Y104.520 E0.45884
G1 X106.729 Y104.520 E0.02365
G1 X106.729 Y119.154 E0.45884
G1 X107.483 Y119.154 E0.02365
G1 X107.483 Y104.520 E0.45884
G1 X108.041 Y104.520 E0.01750
G1 X108.041 Y112.690 E0.25616
G1 X108.238 Y112.886 E0.00869
G1 X108.238 Y119.154 E0.19653
G1 X108.992 Y119.154 E0.02365
G1 X108.992 Y112.959 E0.19426
G1 X109.746 Y112.959 E0.02365
G1 X109.746 Y119.154 E0.19426
G1 X110.500 Y119.154 E0.02365
G1 X110.500 Y112.959 E0.19426
G1 X111.254 Y112.959 E0.02365
G1 X111.254 Y119.154 E0.19426
G1 X112.008 Y119.154 E0.02365
G1 X112.008 Y112.959 E0.19426
G1 X112.690 Y112.959 E0.02137
G1 X112.762 Y112.886 E0.00322
G1 X112.762 Y119.154 E0.19653
G1 X113.517 Y119.154 E0.02365
G1 X113.517 Y104.520 E0.45884
G1 X114.271 Y104.520 E0.02365
G1 X114.271 Y119.154 E0.45884
G1 X115.025 Y119.154 E0.02365
G1 X115.025 Y104.520 E0.45884
G1 X115.779 Y104.520 E0.02365
G1 X115.779 Y119.154 E0.45884
G1 X116.533 Y119.154 E0.02365
G1 X116.533 Y104.520 E0.45884
G1 X117.287 Y104.520 E0.02365
G1 X117.287 Y119.324 E0.46416
G1 E-3.50000 F3600.000
;WIPE_START
G1 F7200.000
G1 X117.287 Y116.324 E-1.42500
;WIPE_END
G1 E-0.07500 F3600.000
G1 X117.287 Y119.324 F9000.000
G1 X117.287 Y119.324
G1 X111.813 Y111.813
G1 E5.00000 F2400.000
;TYPE:Perimeter
G1 F1200.000
G1 X109.187 Y111.813 E0.08233
G1 X109.187 Y103.187 E0.27046
G1 X111.813 Y103.187 E0.08233
G1 X111.813 Y111.753 E0.26858
G1 X112.190 Y112.190 F9000.000
;TYPE:External perimeter
G1 F1200.000
G1 X108.810 Y112.190 E0.10598
G1 X108.810 Y102.810 E0.29410
G1 X112.190 Y102.810 E0.10598
G1 X112.190 Y112.130 E0.29222
G1 X111.823 Y112.031 F9000.000
G1 E-5.00000 F3600.000
G1 X111.700 Y104.078 F9000.000
G1 E5.00000 F2400.000
;TYPE:Solid infill
;WIDTH:0.427396
G1 F1200.000
G1 X111.092 Y103.470 E0.02750
G1 X110.548 Y103.470 E0.01738
G1 X111.530 Y104.452 E0.04441
G1 X111.530 Y104.996 E0.01738
G1 X110.004 Y103.470 E0.06900
G1 X109.470 Y103.470 E0.01708
G1 X111.530 Y105.540 E0.09336
G1 X111.530 Y106.083 E0.01738
G1 X109.470 Y104.023 E0.09315
G1 X109.470 Y104.567 E0.01738
G1 X111.530 Y106.627 E0.09315
G1 X111.530 Y107.171 E0.01738
G1 X109.470 Y105.111 E0.09315
G1 X109.470 Y105.654 E0.01738
G1 X111.530 Y107.715 E0.09315
G1 X111.530 Y108.258 E0.01738
G1 X109.470 Y106.198 E0.09315
G1 X109.470 Y106.742 E0.01738
G1 X111.530 Y108.802 E0.09315
G1 X111.530 Y109.346 E0.01738
G1 X109.470 Y107.286 E0.09315
G1 X109.470 Y107.829 E0.01738
G1 X111.530 Y109.890 E0.09315
G1 X111.530 Y110.433 E0.01738
G1 X109.470 Y108.373 E0.09315
G1 X109.470 Y108.917 E0.01738
G1 X111.530 Y110.977 E0.09315
G1 X111.530 Y111.521 E0.01738
G1 X109.470 Y109.460 E0.09315
G1 X109.470 Y110.004 E0.01738
G1 X110.996 Y111.530 E0.06899
G1 X110.452 Y111.530 E0.01738
G1 X109.470 Y110.548 E0.04441
G1 X109.470 Y111.092 E0.01738
G1 X110.078 Y111.700 E0.02750
G1 X117.287 Y126.650 F9000.000
;TYPE:Support material
;WIDTH:0.42
G1 F1200.000
G1 X117.287 Y111.846 E0.46416
G1 X116.533 Y111.846 E0.02365
G1 X116.533 Y126.480 E0.45884
G1 X115.779 Y126.480 E0.02365
G1 X115.779 Y111.846 E0.45884
G1 X115.025 Y111.846 E0.02365
G1 X115.025 Y126.480 E0.45884
G1 X114.271 Y126.480 E0.02365
G1 X114.271 Y111.846 E0.45884
G1 X113.517 Y111.846 E0.02365
G1 X113.517 Y126.480 E0.45884
G1 X112.959 Y126.480 E0.01750
G1 X112.959 Y118.310 E0.25616
G1 X112.762 Y118.114 E0.00869
G1 X112.762 Y111.846 E0.19653
G1 X112.008 Y111.846 E0.02365
G1 X112.008 Y118.041 E0.19426
G1 X111.254 Y118.041 E0.02365
G1 X111.254 Y111.846 E0.19426
G1 X110.500 Y111.846 E0.02365
G1 X110.500 Y118.041 E0.19426
G1 X109.746 Y118.041 E0.02365
G1 X109.746 Y111.846 E0.19426
G1 X108.992 Y111.846 E0.02365
G1 X108.992 Y118.041 E0.19426
G1 X108.310 Y118.041 E0.02137
G1 X108.238 Y118.114 E0.00322
G1 X108.238 Y111.846 E0.19653
G1 X107.483 Y111.846 E0.02365
G1 X107.483 Y126.480 E0.45884
G1 X106.729 Y126.480 E0.02365
G1 X106.729 Y111.846 E0.45884
G1 X105.975 Y111.846 E0.02365
G1 X105.975 Y126.480 E0.45884
G1 X105.221 Y126.480 E0.02365
G1 X105.221 Y111.846 E0.45884
G1 X104.467 Y111.846 E0.02365
G1 X104.467 Y126.480 E0.45884
G1 X103.713 Y126.480 E0.02365
G1 X103.713 Y111.676 E0.46416
G1 E-3.50000 F3600.000
;WIPE_START
G1 F7200.000
G1 X103.713 Y114.676 E-1.42500
;WIPE_END
G1 E-0.07500 F3600.000
G1 X103.713 Y111.676 F9000.000
G1 X103.713 Y111.676
G1 X109.187 Y119.187
G1 E5.00000 F2400.000
;TYPE:Perimeter
G1 F1200.000
G1 X111.813 Y119.187 E0.08233
G1 X111.813 Y127.813 E0.27046
G1 X109.187 Y127.813 E0.08233
G1 X109.187 Y119.247 E0.26858
G1 X108.810 Y118.810 F9000.000
;TYPE:External perimeter
G1 F1200.000
G1 X112.190 Y118.810 E0.10598
G1 X112.190 Y128.190 E0.29410
G1 X108.810 Y128.190 E0.10598
G1 X108.810 Y118.870 E0.29222
G1 X109.177 Y118.969 F9000.000
G1 E-5.00000 F3600.000
G1 X111.700 Y120.078 F9000.000
G1 E5.00000 F2400.000
;TYPE:Solid infill
;WIDTH:0.427396
G1 F1200.000
G1 X111.092 Y119.470 E0.02750
G1 X110.548 Y119.470 E0.01738
G1 X111.530 Y120.452 E0.04441
G1 X111.530 Y120.996 E0.01738
G1 X110.004 Y119.470 E0.06900
G1 X109.470 Y119.470 E0.01708
G1 X111.530 Y121.540 E0.09336
G1 X111.530 Y122.083 E0.01738
G1 X109.470 Y120.023 E0.09315
G1 X109.470 Y120.567 E0.01738
G1 X111.530 Y122.627 E0.09315
G1 X111.530 Y123.171 E0.01738
G1 X109.470 Y121.111 E0.09315
G1 X109.470 Y121.654 E0.01738
G1 X111.530 Y123.715 E0.09315
G1 X111.530 Y124.258 E0.01738
G1 X109.470 Y122.198 E0.09315
G1 X109.470 Y122.742 E0.01738
G1 X111.530 Y124.802 E0.09315
G1 X111.530 Y125.346 E0.01738
G1 X109.470 Y123.286 E0.09315
G1 X109.470 Y123.829 E0.01738
G1 X111.530 Y125.890 E0.09315
G1 X111.530 Y126.433 E0.01738
G1 X109.470 Y124.373 E0.09315
G1 X109.470 Y124.917 E0.01738
G1 X111.530 Y126.977 E0.09315
G1 X111.530 Y127.521 E0.01738
G1 X109.470 Y125.460 E0.09315
G1 X109.470 Y126.004 E0.01738
G1 X110.996 Y127.530 E0.06899
G1 X110.452 Y127.530 E0.01738
G1 X109.470 Y126.548 E0.04441
G1 X109.470 Y127.092 E0.01738
G1 X110.078 Y127.700 E0.02750
G1 E-3.50000 F3600.000
;WIPE_START
G1 F7200.000
G1 X109.470 Y127.092 E-0.40853
G1 X109.470 Y126.548 E-0.25827
G1 X110.452 Y127.530 E-0.65980
G1 X110.659 Y127.530 E-0.09840
;WIPE_END
G1 E-0.07500 F3600.000
G1 X110.078 Y127.700 F9000.000
G1 X110.078 Y127.700
G1 X127.287 Y126.650
G1 E5.00000 F2400.000
;TYPE:Support material
;WIDTH:0.42
G1 F1200.000
G1 X127.287 Y111.846 E0.46416
G1 X126.533 Y111.846 E0.02365
G1 X126.533 Y126.480 E0.45884
G1 X125.779 Y126.480 E0.02365
G1 X125.779 Y111.846 E0.45884
G1 X125.025 Y111.846 E0.02365
G1 X125.025 Y126.480 E0.45884
G1 X124.271 Y126.480 E0.02365
G1 X124.271 Y111.846 E0.45884
G1 X123.517 Y111.846 E0.02365
G1 X123.517 Y126.480 E0.45884
G1 X122.959 Y126.480 E0.01750
G1 X122.959 Y118.310 E0.25616
G1 X122.762 Y118.114 E0.00869
G1 X122.762 Y111.846 E0.19653
G1 X122.008 Y111.846 E0.02365
G1 X122.008 Y118.041 E0.19426
G1 X121.254 Y118.041 E0.02365
G1 X121.254 Y111.846 E0.19426
G1 X120.500 Y111.846 E0.02365
G1 X120.500 Y118.041 E0.19426
G1 X119.746 Y118.041 E0.02365
G1 X119.746 Y111.846 E0.19426
G1 X118.992 Y111.846 E0.02365
G1 X118.992 Y118.041 E0.19426
G1 X118.310 Y118.041 E0.02137
G1 X118.238 Y118.114 E0.00322
G1 X118.238 Y111.846 E0.19653
G1 X117.483 Y111.846 E0.02365
G1 X117.483 Y126.480 E0.45884
G1 X116.729 Y126.480 E0.02365
G1 X116.729 Y111.846 E0.45884
G1 X115.975 Y111.846 E0.02365
G1 X115.975 Y126.480 E0.45884
G1 X115.221 Y126.480 E0.02365
G1 X115.221 Y111.846 E0.45884
G1 X114.467 Y111.846 E0.02365
G1 X114.467 Y126.480 E0.45884
G1 X113.713 Y126.480 E0.02365
G1 X113.713 Y111.676 E0.46416
G1 E-3.50000 F3600.000
;WIPE_START
G1 F7200.000
G1 X113.713 Y114.676 E-1.42500
;WIPE_END
G1 E-0.07500 F3600.000
G1 X113.713 Y111.676 F9000.000
G1 X113.713 Y111.676
G1 X119.187 Y119.187
G1 E5.00000 F2400.000
;TYPE:Perimeter
G1 F1200.000
G1 X121.813 Y119.187 E0.08233
G1 X121.813 Y127.813 E0.27046
G1 X119.187 Y127.813 E0.08233
G1 X119.187 Y119.247 E0.26858
G1 X118.810 Y118.810 F9000.000
;TYPE:External perimeter
G1 F1200.000
G1 X122.190 Y118.810 E0.10598
G1 X122.190 Y128.190 E0.29410
G1 X118.810 Y128.190 E0.10598
G1 X118.810 Y118.870 E0.29222
G1 X119.177 Y118.969 F9000.000
G1 E-5.00000 F3600.000
G1 X121.700 Y120.078 F9000.000
G1 E5.00000 F2400.000
;TYPE:Solid infill
;WIDTH:0.427396
G1 F1200.000
G1 X121.092 Y119.470 E0.02750
G1 X120.548 Y119.470 E0.01738
G1 X121.530 Y120.452 E0.04441
G1 X121.530 Y120.996 E0.01738
G1 X120.004 Y119.470 E0.06900
G1 X119.470 Y119.470 E0.01708
G1 X121.530 Y121.540 E0.09336
G1 X121.530 Y122.083 E0.01738
G1 X119.470 Y120.023 E0.09315
G1 X119.470 Y120.567 E0.01738
G1 X121.530 Y122.627 E0.09315
G1 X121.530 Y123.171 E0.01738
G1 X119.470 Y121.111 E0.09315
G1 X119.470 Y121.654 E0.01738
G1 X121.530 Y123.715 E0.09315
G1 X121.530 Y124.258 E0.01738
G1 X119.470 Y122.198 E0.09315
G1 X119.470 Y122.742 E0.01738
G1 X121.530 Y124.802 E0.09315
G1 X121.530 Y125.346 E0.01738
G1 X119.470 Y123.286 E0.09315
G1 X119.470 Y123.829 E0.01738
G1 X121.530 Y125.890 E0.09315
G1 X121.530 Y126.433 E0.01738
