; generated by PrusaSlicer 2.3.0 on 2021-04-23 at 01:33:47 UTC

; 

; external perimeters extrusion width = 0.45mm
; perimeters extrusion width = 0.45mm
; infill extrusion width = 0.45mm
; solid infill extrusion width = 0.45mm
; top infill extrusion width = 0.40mm
; support material extrusion width = 0.38mm
; first layer extrusion width = 0.42mm

M201 X500 Y500 Z100 E5000 ; sets maximum accelerations, mm/sec^2
M203 X500 Y500 Z10 E60 ; sets maximum feedrates, mm/sec
M204 P500 R1000 T500 ; sets acceleration (P, T) and retract acceleration (R), mm/sec^2
M205 X8.00 Y8.00 Z0.40 E5.00 ; sets the jerk limits, mm/sec
M205 S0 T0 ; sets the minimum extruding and travel feed rate, mm/sec
M107
;TYPE:Custom
G90 ; use absolute coordinates
M83 ; extruder relative mode
M104 S245 ; set extruder temp
M140 S90 ; set bed temp
M190 S90 ; wait for bed temp
M109 S245 ; wait for extruder temp
G28 ; home all
G1 Z2 F240
G1 X2 Y10 F3000
G1 Z0.28 F240
G92 E0
G1 Y190 E15 F1500 ; intro line
G1 X2.3 F5000
G92 E0
G1 Y10 E15 F1200 ; intro line
G92 E0
G21 ; set units to millimeters
G90 ; use absolute coordinates
M83 ; use relative distances for extrusion
; Filament gcode
;LAYER_CHANGE
;Z:0.2
;HEIGHT:0.2
;BEFORE_LAYER_CHANGE
G92 E0
;0.2


G1 E-5.00000 F3600.000
G1 Z0.200 F9000.000
;AFTER_LAYER_CHANGE
;0.2
G1 X39.056 Y18.063
G1 E5.00000 F2400.000
;TYPE:Skirt
;WIDTH:0.42
G1 F1200.000
G1 X39.419 Y17.384 E0.02414
G1 X41.197 Y15.626 E0.07840
G1 X41.831 Y15.308 E0.02225
G1 X42.531 Y15.192 E0.02225
G1 X191.685 Y15.192 E4.67659
G1 X192.191 Y15.246 E0.01597
G1 X192.678 Y15.409 E0.01609
G1 X193.118 Y15.673 E0.01609
G1 X193.489 Y16.022 E0.01597
G1 X194.639 Y17.566 E0.06038
G1 X194.994 Y18.543 E0.03257
G1 X195.082 Y19.148 E0.01917
G1 X195.082 Y209.165 E5.95785
G1 X194.955 Y209.924 E0.02414
G1 X194.592 Y210.603 E0.02414
G1 X192.811 Y212.363 E0.07852
G1 X192.176 Y212.680 E0.02225
G1 X191.472 Y212.795 E0.02237
G1 X42.319 Y212.795 E4.67659
G1 X41.559 Y212.668 E0.02414
G1 X40.881 Y212.305 E0.02414
G1 X40.483 Y211.918 E0.01740
G1 X39.414 Y210.501 E0.05564
G1 X39.022 Y209.463 E0.03481
G1 X38.929 Y208.820 E0.02036
G1 X38.928 Y18.822 E5.95726
G1 X39.046 Y18.122 E0.02226
G1 E-3.50000 F3600.000
;WIPE_START
G1 F7200.000
G1 X39.419 Y17.384 E-0.39278
G1 X40.964 Y15.856 E-1.03222
;WIPE_END
G1 E-0.07500 F3600.000
G1 X42.326 Y210.418 F9000.000
G1 E5.00000 F2400.000
;TYPE:Support material
G1 F1200.000
G1 X191.445 Y210.418 E4.67550
G1 X191.983 Y209.879 E0.02389
G1 X42.028 Y209.879 E4.70175
G1 X41.489 Y209.341 E0.02389
G1 X192.522 Y209.341 E4.73553
G1 X192.705 Y209.157 E0.00813
G1 X192.705 Y208.802 E0.01114
G1 X41.306 Y208.802 E4.74703
G1 X41.306 Y208.263 E0.01689
G1 X192.705 Y208.263 E4.74703
G1 X192.705 Y207.725 E0.01689
G1 X41.306 Y207.725 E4.74703
G1 X41.306 Y207.186 E0.01689
G1 X192.705 Y207.186 E4.74703
G1 X192.705 Y206.647 E0.01689
G1 X41.306 Y206.647 E4.74703
G1 X41.306 Y206.109 E0.01689
G1 X192.705 Y206.109 E4.74703
G1 X192.705 Y205.570 E0.01689
G1 X41.306 Y205.570 E4.74703
G1 X41.306 Y205.031 E0.01689
G1 X192.705 Y205.031 E4.74703
G1 X192.705 Y204.492 E0.01689
G1 X41.306 Y204.492 E4.74703
G1 X41.306 Y203.954 E0.01689
G1 X192.705 Y203.954 E4.74703
G1 X192.705 Y203.415 E0.01689
G1 X41.306 Y203.415 E4.74703
G1 X41.306 Y202.876 E0.01689
G1 X192.705 Y202.876 E4.74703
G1 X192.705 Y202.338 E0.01689
G1 X41.306 Y202.338 E4.74703
G1 X41.306 Y201.799 E0.01689
G1 X192.705 Y201.799 E4.74703
G1 X192.705 Y201.260 E0.01689
G1 X41.306 Y201.260 E4.74703
G1 X41.306 Y200.722 E0.01689
G1 X192.705 Y200.722 E4.74703
G1 X192.705 Y200.183 E0.01689
G1 X41.306 Y200.183 E4.74703
G1 X41.306 Y199.644 E0.01689
G1 X192.705 Y199.644 E4.74703
G1 X192.705 Y199.106 E0.01689
G1 X41.306 Y199.106 E4.74703
G1 X41.306 Y198.567 E0.01689
G1 X192.705 Y198.567 E4.74703
G1 X192.705 Y198.028 E0.01689
G1 X41.306 Y198.028 E4.74703
G1 X41.306 Y197.490 E0.01689
G1 X192.705 Y197.490 E4.74703
G1 X192.705 Y196.951 E0.01689
G1 X41.306 Y196.951 E4.74703
G1 X41.306 Y196.412 E0.01689
G1 X192.705 Y196.412 E4.74703
G1 X192.705 Y195.874 E0.01689
G1 X41.306 Y195.874 E4.74703
G1 X41.306 Y195.335 E0.01689
G1 X192.705 Y195.335 E4.74703
G1 X192.705 Y194.796 E0.01689
G1 X41.306 Y194.796 E4.74703
G1 X41.306 Y194.257 E0.01689
G1 X192.705 Y194.257 E4.74703
G1 X192.705 Y193.719 E0.01689
G1 X41.306 Y193.719 E4.74703
G1 X41.306 Y193.180 E0.01689
G1 X192.705 Y193.180 E4.74703
G1 X192.705 Y192.641 E0.01689
G1 X41.306 Y192.641 E4.74703
G1 X41.306 Y192.103 E0.01689
G1 X192.705 Y192.103 E4.74703
G1 X192.705 Y191.564 E0.01689
G1 X41.306 Y191.564 E4.74703
G1 X41.306 Y191.025 E0.01689
G1 X192.705 Y191.025 E4.74703
G1 X192.705 Y190.487 E0.01689
G1 X41.306 Y190.487 E4.74703
G1 X41.306 Y189.948 E0.01689
G1 X192.705 Y189.948 E4.74703
G1 X192.705 Y189.409 E0.01689
G1 X41.306 Y189.409 E4.74703
G1 X41.306 Y188.871 E0.01689
G1 X192.705 Y188.871 E4.74703
G1 X192.705 Y188.332 E0.01689
G1 X41.306 Y188.332 E4.74703
G1 X41.306 Y187.793 E0.01689
G1 X192.705 Y187.793 E4.74703
G1 X192.705 Y187.255 E0.01689
G1 X41.306 Y187.255 E4.74703
G1 X41.306 Y186.716 E0.01689
G1 X192.705 Y186.716 E4.74703
G1 X192.705 Y186.177 E0.01689
G1 X41.306 Y186.177 E4.74703
G1 X41.306 Y185.638 E0.01689
G1 X192.705 Y185.638 E4.74703
G1 X192.705 Y185.100 E0.01689
G1 X41.306 Y185.100 E4.74703
G1 X41.306 Y184.561 E0.01689
G1 X192.705 Y184.561 E4.74703
G1 X192.705 Y184.022 E0.01689
G1 X41.306 Y184.022 E4.74703
G1 X41.306 Y183.484 E0.01689
G1 X192.705 Y183.484 E4.74703
G1 X192.705 Y182.945 E0.01689
G1 X41.306 Y182.945 E4.74703
G1 X41.306 Y182.406 E0.01689
G1 X192.705 Y182.406 E4.74703
G1 X192.705 Y181.868 E0.01689
G1 X41.306 Y181.868 E4.74703
G1 X41.306 Y181.329 E0.01689
G1 X192.705 Y181.329 E4.74703
G1 X192.705 Y180.790 E0.01689
G1 X41.306 Y180.790 E4.74703
G1 X41.306 Y180.252 E0.01689
G1 X192.277 Y180.252 E4.73359
G1 X191.738 Y179.713 E0.02389
G1 X41.306 Y179.713 E4.71670
G1 X41.306 Y179.174 E0.01689
G1 X191.199 Y179.174 E4.69981
G1 X191.058 Y179.033 E0.00625
G1 X122.335 Y179.033 E2.15476
G1 X122.335 Y178.636 E0.01247
G1 X41.306 Y178.636 E2.54063
G1 X41.306 Y178.097 E0.01689
G1 X122.335 Y178.097 E2.54063
G1 X122.335 Y177.558 E0.01689
G1 X41.306 Y177.558 E2.54063
G1 X41.306 Y177.020 E0.01689
G1 X122.335 Y177.020 E2.54063
G1 X122.335 Y176.481 E0.01689
G1 X41.306 Y176.481 E2.54063
G1 X41.306 Y175.942 E0.01689
G1 X122.335 Y175.942 E2.54063
G1 X122.335 Y175.403 E0.01689
G1 X41.306 Y175.403 E2.54063
G1 X41.306 Y174.865 E0.01689
G1 X122.335 Y174.865 E2.54063
G1 X122.335 Y174.326 E0.01689
G1 X41.306 Y174.326 E2.54063
G1 X41.306 Y173.787 E0.01689
G1 X122.335 Y173.787 E2.54063
G1 X122.335 Y173.249 E0.01689
G1 X41.306 Y173.249 E2.54063
G1 X41.306 Y172.710 E0.01689
G1 X122.335 Y172.710 E2.54063
G1 X122.335 Y172.171 E0.01689
G1 X41.306 Y172.171 E2.54063
G1 X41.306 Y171.633 E0.01689
G1 X122.335 Y171.633 E2.54063
G1 X122.335 Y171.094 E0.01689
G1 X41.306 Y171.094 E2.54063
G1 X41.306 Y170.555 E0.01689
G1 X122.335 Y170.555 E2.54063
G1 X122.335 Y170.017 E0.01689
G1 X41.306 Y170.017 E2.54063
G1 X41.306 Y169.478 E0.01689
G1 X122.335 Y169.478 E2.54063
G1 X122.335 Y168.939 E0.01689
G1 X41.306 Y168.939 E2.54063
G1 X41.306 Y168.401 E0.01689
G1 X122.335 Y168.401 E2.54063
G1 X122.335 Y167.862 E0.01689
G1 X41.306 Y167.862 E2.54063
G1 X41.306 Y167.323 E0.01689
G1 X122.335 Y167.323 E2.54063
G1 X122.335 Y166.785 E0.01689
G1 X41.306 Y166.785 E2.54063
G1 X41.306 Y166.246 E0.01689
G1 X122.335 Y166.246 E2.54063
G1 X122.335 Y165.707 E0.01689
G1 X41.306 Y165.707 E2.54063
G1 X41.306 Y165.168 E0.01689
G1 X122.335 Y165.168 E2.54063
G1 X122.335 Y164.630 E0.01689
G1 X41.306 Y164.630 E2.54063
G1 X41.306 Y164.091 E0.01689
G1 X122.335 Y164.091 E2.54063
G1 X122.335 Y163.552 E0.01689
G1 X41.306 Y163.552 E2.54063
G1 X41.306 Y163.014 E0.01689
G1 X122.335 Y163.014 E2.54063
G1 X122.335 Y162.475 E0.01689
G1 X41.306 Y162.475 E2.54063
G1 X41.306 Y161.936 E0.01689
G1 X122.335 Y161.936 E2.54063
G1 X122.335 Y161.398 E0.01689
G1 X41.306 Y161.398 E2.54063
G1 X41.306 Y160.859 E0.01689
G1 X122.335 Y160.859 E2.54063
G1 X122.335 Y160.320 E0.01689
G1 X41.306 Y160.320 E2.54063
G1 X41.306 Y159.782 E0.01689
G1 X122.335 Y159.782 E2.54063
G1 X122.335 Y159.243 E0.01689
G1 X41.306 Y159.243 E2.54063
G1 X41.306 Y158.704 E0.01689
G1 X122.335 Y158.704 E2.54063
G1 X122.335 Y158.166 E0.01689
G1 X41.306 Y158.166 E2.54063
G1 X41.306 Y157.627 E0.01689
G1 X122.335 Y157.627 E2.54063
G1 X122.335 Y157.088 E0.01689
G1 X41.306 Y157.088 E2.54063
G1 X41.306 Y156.549 E0.01689
G1 X122.335 Y156.549 E2.54063
G1 X122.335 Y156.011 E0.01689
G1 X41.306 Y156.011 E2.54063
G1 X41.306 Y155.472 E0.01689
G1 X122.335 Y155.472 E2.54063
G1 X122.335 Y154.933 E0.01689
G1 X41.306 Y154.933 E2.54063
G1 X41.306 Y154.395 E0.01689
G1 X122.335 Y154.395 E2.54063
G1 X122.335 Y153.856 E0.01689
G1 X41.306 Y153.856 E2.54063
G1 X41.306 Y153.317 E0.01689
G1 X122.335 Y153.317 E2.54063
G1 X122.335 Y152.779 E0.01689
G1 X41.306 Y152.779 E2.54063
G1 X41.306 Y152.240 E0.01689
G1 X122.335 Y152.240 E2.54063
G1 X122.335 Y151.701 E0.01689
G1 X41.306 Y151.701 E2.54063
G1 X41.306 Y151.163 E0.01689
G1 X122.335 Y151.163 E2.54063
G1 X122.335 Y150.624 E0.01689
G1 X41.306 Y150.624 E2.54063
G1 X41.306 Y150.085 E0.01689
G1 X122.335 Y150.085 E2.54063
G1 X122.335 Y149.547 E0.01689
G1 X41.306 Y149.547 E2.54063
G1 X41.306 Y149.008 E0.01689
G1 X122.335 Y149.008 E2.54063
G1 X122.335 Y148.469 E0.01689
G1 X41.306 Y148.469 E2.54063
G1 X41.306 Y147.931 E0.01689
G1 X122.335 Y147.931 E2.54063
G1 X122.335 Y147.392 E0.01689
G1 X41.306 Y147.392 E2.54063
G1 X41.306 Y146.853 E0.01689
G1 X122.335 Y146.853 E2.54063
G1 X122.335 Y146.314 E0.01689
G1 X41.306 Y146.314 E2.54063
G1 X41.306 Y145.776 E0.01689
G1 X122.335 Y145.776 E2.54063
G1 X122.335 Y145.237 E0.01689
G1 X41.306 Y145.237 E2.54063
G1 X41.306 Y144.698 E0.01689
G1 X122.335 Y144.698 E2.54063
G1 X122.335 Y144.160 E0.01689
G1 X41.306 Y144.160 E2.54063
G1 X41.306 Y143.621 E0.01689
G1 X122.335 Y143.621 E2.54063
G1 X122.335 Y143.082 E0.01689
G1 X41.306 Y143.082 E2.54063
G1 X41.306 Y142.544 E0.01689
G1 X122.335 Y142.544 E2.54063
G1 X122.335 Y142.005 E0.01689
G1 X41.306 Y142.005 E2.54063
G1 X41.306 Y141.466 E0.01689
G1 X122.335 Y141.466 E2.54063
G1 X122.335 Y140.928 E0.01689
G1 X41.306 Y140.928 E2.54063
G1 X41.306 Y140.389 E0.01689
G1 X122.335 Y140.389 E2.54063
G1 X122.335 Y139.850 E0.01689
G1 X41.306 Y139.850 E2.54063
G1 X41.306 Y139.312 E0.01689
G1 X122.335 Y139.312 E2.54063
G1 X122.335 Y138.773 E0.01689
G1 X41.306 Y138.773 E2.54063
G1 X41.306 Y138.234 E0.01689
G1 X122.335 Y138.234 E2.54063
G1 X122.335 Y137.696 E0.01689
G1 X41.306 Y137.696 E2.54063
G1 X41.306 Y137.157 E0.01689
G1 X122.335 Y137.157 E2.54063
G1 X122.335 Y136.618 E0.01689
G1 X41.306 Y136.618 E2.54063
G1 X41.306 Y136.079 E0.01689
G1 X122.335 Y136.079 E2.54063
G1 X122.335 Y135.541 E0.01689
G1 X41.306 Y135.541 E2.54063
G1 X41.306 Y135.002 E0.01689
G1 X122.335 Y135.002 E2.54063
G1 X122.335 Y134.463 E0.01689
G1 X41.306 Y134.463 E2.54063
G1 X41.306 Y133.925 E0.01689
G1 X122.335 Y133.925 E2.54063
G1 X122.335 Y133.386 E0.01689
G1 X41.306 Y133.386 E2.54063
G1 X41.306 Y132.847 E0.01689
G1 X122.335 Y132.847 E2.54063
G1 X122.335 Y132.309 E0.01689
G1 X41.306 Y132.309 E2.54063
G1 X41.306 Y131.770 E0.01689
G1 X122.335 Y131.770 E2.54063
G1 X122.335 Y131.231 E0.01689
G1 X41.306 Y131.231 E2.54063
G1 X41.306 Y130.693 E0.01689
G1 X122.335 Y130.693 E2.54063
G1 X122.335 Y130.154 E0.01689
G1 X41.306 Y130.154 E2.54063
G1 X41.306 Y129.615 E0.01689
G1 X122.335 Y129.615 E2.54063
G1 X122.335 Y129.077 E0.01689
G1 X41.306 Y129.077 E2.54063
G1 X41.306 Y128.538 E0.01689
G1 X122.335 Y128.538 E2.54063
G1 X122.335 Y127.999 E0.01689
G1 X41.306 Y127.999 E2.54063
G1 X41.306 Y127.461 E0.01689
G1 X122.335 Y127.461 E2.54063
G1 X122.335 Y126.922 E0.01689
G1 X41.306 Y126.922 E2.54063
G1 X41.306 Y126.383 E0.01689
G1 X122.335 Y126.383 E2.54063
G1 X122.335 Y125.844 E0.01689
G1 X41.306 Y125.844 E2.54063
G1 X41.306 Y125.306 E0.01689
G1 X122.335 Y125.306 E2.54063
G1 X122.335 Y124.767 E0.01689
G1 X41.306 Y124.767 E2.54063
G1 X41.306 Y124.228 E0.01689
G1 X122.335 Y124.228 E2.54063
G1 X122.335 Y123.690 E0.01689
G1 X41.306 Y123.690 E2.54063
G1 X41.306 Y123.151 E0.01689
G1 X122.335 Y123.151 E2.54063
G1 X122.335 Y122.612 E0.01689
G1 X41.306 Y122.612 E2.54063
G1 X41.306 Y122.074 E0.01689
G1 X122.335 Y122.074 E2.54063
G1 X122.335 Y121.535 E0.01689
G1 X41.306 Y121.535 E2.54063
G1 X41.306 Y120.996 E0.01689
G1 X122.335 Y120.996 E2.54063
G1 X122.335 Y120.458 E0.01689
G1 X41.306 Y120.458 E2.54063
G1 X41.306 Y119.919 E0.01689
G1 X122.335 Y119.919 E2.54063
G1 X122.335 Y119.380 E0.01689
G1 X41.306 Y119.380 E2.54063
G1 X41.306 Y118.842 E0.01689
G1 X122.335 Y118.842 E2.54063
G1 X122.335 Y118.303 E0.01689
G1 X41.306 Y118.303 E2.54063
G1 X41.306 Y117.764 E0.01689
G1 X122.335 Y117.764 E2.54063
G1 X122.335 Y117.225 E0.01689
G1 X41.306 Y117.225 E2.54063
G1 X41.306 Y116.687 E0.01689
G1 X122.335 Y116.687 E2.54063
G1 X122.335 Y116.148 E0.01689
G1 X41.306 Y116.148 E2.54063
G1 X41.306 Y115.609 E0.01689
G1 X122.335 Y115.609 E2.54063
G1 X122.335 Y115.071 E0.01689
G1 X41.306 Y115.071 E2.54063
G1 X41.306 Y114.532 E0.01689
G1 X122.335 Y114.532 E2.54063
G1 X122.335 Y113.993 E0.01689
G1 X41.306 Y113.993 E2.54063
G1 X41.306 Y113.455 E0.01689
G1 X122.335 Y113.455 E2.54063
G1 X122.335 Y112.916 E0.01689
G1 X41.306 Y112.916 E2.54063
G1 X41.306 Y112.377 E0.01689
G1 X122.335 Y112.377 E2.54063
G1 X122.335 Y111.839 E0.01689
G1 X41.306 Y111.839 E2.54063
G1 X41.306 Y111.300 E0.01689
G1 X122.335 Y111.300 E2.54063
G1 X122.335 Y110.761 E0.01689
G1 X41.306 Y110.761 E2.54063
G1 X41.306 Y110.223 E0.01689
G1 X122.335 Y110.223 E2.54063
G1 X122.335 Y109.684 E0.01689
G1 X41.306 Y109.684 E2.54063
G1 X41.306 Y109.145 E0.01689
G1 X122.335 Y109.145 E2.54063
G1 X122.335 Y108.607 E0.01689
G1 X41.306 Y108.607 E2.54063
G1 X41.306 Y108.068 E0.01689
G1 X122.335 Y108.068 E2.54063
G1 X122.335 Y107.529 E0.01689
G1 X41.306 Y107.529 E2.54063
G1 X41.306 Y106.990 E0.01689
G1 X122.335 Y106.990 E2.54063
G1 X122.335 Y106.452 E0.01689
G1 X41.306 Y106.452 E2.54063
G1 X41.306 Y105.913 E0.01689
G1 X122.335 Y105.913 E2.54063
G1 X122.335 Y105.374 E0.01689
G1 X41.306 Y105.374 E2.54063
G1 X41.306 Y104.836 E0.01689
G1 X122.335 Y104.836 E2.54063
G1 X122.335 Y104.297 E0.01689
G1 X41.306 Y104.297 E2.54063
G1 X41.306 Y103.758 E0.01689
G1 X122.335 Y103.758 E2.54063
G1 X122.335 Y103.220 E0.01689
G1 X41.306 Y103.220 E2.54063
G1 X41.306 Y102.681 E0.01689
G1 X122.335 Y102.681 E2.54063
G1 X122.335 Y102.142 E0.01689
G1 X41.306 Y102.142 E2.54063
G1 X41.306 Y101.604 E0.01689
G1 X122.335 Y101.604 E2.54063
G1 X122.335 Y101.065 E0.01689
G1 X41.306 Y101.065 E2.54063
G1 X41.306 Y100.526 E0.01689
G1 X122.335 Y100.526 E2.54063
G1 X122.335 Y99.988 E0.01689
G1 X41.306 Y99.988 E2.54063
G1 X41.306 Y99.449 E0.01689
G1 X122.335 Y99.449 E2.54063
G1 X122.335 Y98.910 E0.01689
G1 X41.306 Y98.910 E2.54063
G1 X41.306 Y98.372 E0.01689
G1 X122.335 Y98.372 E2.54063
G1 X122.335 Y97.833 E0.01689
G1 X41.306 Y97.833 E2.54063
G1 X41.306 Y97.294 E0.01689
G1 X122.335 Y97.294 E2.54063
G1 X122.335 Y96.755 E0.01689
G1 X41.306 Y96.755 E2.54063
G1 X41.306 Y96.217 E0.01689
G1 X122.335 Y96.217 E2.54063
G1 X122.335 Y95.678 E0.01689
G1 X41.306 Y95.678 E2.54063
G1 X41.306 Y95.139 E0.01689
G1 X122.335 Y95.139 E2.54063
G1 X122.335 Y94.601 E0.01689
G1 X41.306 Y94.601 E2.54063
G1 X41.306 Y94.062 E0.01689
G1 X122.335 Y94.062 E2.54063
G1 X122.335 Y93.523 E0.01689
G1 X41.306 Y93.523 E2.54063
G1 X41.306 Y92.985 E0.01689
G1 X122.335 Y92.985 E2.54063
G1 X122.335 Y92.446 E0.01689
G1 X41.306 Y92.446 E2.54063
G1 X41.306 Y91.907 E0.01689
G1 X122.335 Y91.907 E2.54063
G1 X122.335 Y91.369 E0.01689
G1 X41.306 Y91.369 E2.54063
G1 X41.306 Y90.830 E0.01689
G1 X122.335 Y90.830 E2.54063
G1 X122.335 Y90.291 E0.01689
G1 X41.306 Y90.291 E2.54063
G1 X41.306 Y89.753 E0.01689
G1 X122.335 Y89.753 E2.54063
G1 X122.335 Y89.214 E0.01689
G1 X41.306 Y89.214 E2.54063
G1 X41.306 Y88.675 E0.01689
G1 X122.335 Y88.675 E2.54063
G1 X122.335 Y88.137 E0.01689
G1 X41.306 Y88.137 E2.54063
G1 X41.306 Y87.598 E0.01689
G1 X122.335 Y87.598 E2.54063
G1 X122.335 Y87.059 E0.01689
G1 X41.306 Y87.059 E2.54063
G1 X41.306 Y86.520 E0.01689
