; generated by PrusaSlicer 2.3.0 on 2021-05-02 at 23:28:46 UTC

; 

; external perimeters extrusion width = 0.45mm
; perimeters extrusion width = 0.45mm
; infill extrusion width = 0.45mm
; solid infill extrusion width = 0.45mm
; top infill extrusion width = 0.40mm
; support material extrusion width = 0.38mm
; first layer extrusion width = 0.42mm

M201 X500 Y500 Z100 E5000 ; sets maximum accelerations, mm/sec^2
M203 X500 Y500 Z10 E60 ; sets maximum feedrates, mm/sec
M204 P500 R1000 T500 ; sets acceleration (P, T) and retract acceleration (R), mm/sec^2
M205 X8.00 Y8.00 Z0.40 E5.00 ; sets the jerk limits, mm/sec
M205 S0 T0 ; sets the minimum extruding and travel feed rate, mm/sec
M107
;TYPE:Custom
G90 ; use absolute coordinates
M83 ; extruder relative mode
M104 S120 ; set temporary nozzle temp to prevent oozing during homing and auto bed leveling
M140 S60 ; set final bed temp
G4 S10 ; allow partial nozzle warmup
G28 ; home all axis
G1 Z50 F240
G1 X2 Y10 F3000
M104 S210 ; set final nozzle temp
M190 S60 ; wait for bed temp to stabilize
M109 S210 ; wait for nozzle temp to stabilize
G1 Z0.28 F240
G92 E0
G1 Y140 E10 F1500 ; prime the nozzle
G1 X2.3 F5000
G92 E0
G1 Y10 E10 F1200 ; prime the nozzle
G92 E0
G21 ; set units to millimeters
G90 ; use absolute coordinates
M83 ; use relative distances for extrusion
; Filament gcode
;LAYER_CHANGE
;Z:0.2
;HEIGHT:0.2
;BEFORE_LAYER_CHANGE
G92 E0
;0.2


G1 E-5.00000 F3600.000
G1 Z0.200 F9000.000
;AFTER_LAYER_CHANGE
;0.2
G1 X101.745 Y98.594
G1 E5.00000 F2400.000
;TYPE:Skirt
;WIDTH:0.42
G1 F1200.000
G1 X102.206 Y98.197 E0.01906
G1 X102.755 Y97.930 E0.01917
G1 X103.352 Y97.811 E0.01906
G1 X112.541 Y97.636 E0.28817
G1 X122.966 Y97.636 E0.32689
G1 X127.615 Y97.809 E0.14584
G1 X128.198 Y97.915 E0.01858
G1 X128.785 Y98.191 E0.02036
G1 X129.276 Y98.617 E0.02036
G1 X129.634 Y99.163 E0.02048
G1 X129.830 Y99.782 E0.02036
G1 X129.864 Y135.339 E1.11488
G1 X129.796 Y135.890 E0.01740
G1 X129.600 Y136.413 E0.01752
G1 X129.242 Y136.927 E0.01965
G1 X128.762 Y137.330 E0.01965
G1 X128.194 Y137.593 E0.01965
G1 X127.576 Y137.699 E0.01965
G1 X103.486 Y137.701 E0.75533
G1 X102.939 Y137.631 E0.01728
G1 X102.424 Y137.437 E0.01728
G1 X101.904 Y137.074 E0.01989
G1 X101.498 Y136.586 E0.01989
G1 X101.236 Y136.008 E0.01989
G1 X101.136 Y135.386 E0.01977
G1 X101.136 Y100.164 E1.10436
G1 X101.205 Y99.613 E0.01740
G1 X101.400 Y99.094 E0.01740
G1 X101.711 Y98.643 E0.01718
G1 E-3.50000 F3600.000
;WIPE_START
G1 F7200.000
G1 X102.206 Y98.197 E-0.31634
G1 X102.755 Y97.930 E-0.29049
G1 X103.352 Y97.811 E-0.28869
G1 X104.466 Y97.790 E-0.52948
;WIPE_END
G1 E-0.07500 F3600.000
G1 X101.711 Y98.643 F9000.000
G1 X101.711 Y98.643
G1 X122.962 Y100.013
G1 E5.00000 F2400.000
;TYPE:Support material
G1 F1200.000
G1 X122.962 Y102.041 E0.06359
G1 X122.208 Y102.041 E0.02365
G1 X122.208 Y100.183 E0.05827
G1 X121.454 Y100.183 E0.02365
G1 X121.454 Y102.041 E0.05827
G1 X120.700 Y102.041 E0.02365
G1 X120.700 Y100.183 E0.05827
G1 X119.946 Y100.183 E0.02365
G1 X119.946 Y102.041 E0.05827
G1 X119.192 Y102.041 E0.02365
G1 X119.192 Y100.183 E0.05827
G1 X118.438 Y100.183 E0.02365
G1 X118.438 Y102.041 E0.05827
G1 X118.310 Y102.041 E0.00400
G1 X118.041 Y102.310 E0.01191
G1 X118.041 Y112.690 E0.32545
G1 X118.310 Y112.959 E0.01191
G1 X118.438 Y112.959 E0.00400
G1 X118.438 Y119.154 E0.19426
G1 X119.192 Y119.154 E0.02365
G1 X119.192 Y112.959 E0.19426
G1 X119.946 Y112.959 E0.02365
G1 X119.946 Y119.154 E0.19426
G1 X120.700 Y119.154 E0.02365
G1 X120.700 Y112.959 E0.19426
G1 X121.454 Y112.959 E0.02365
G1 X121.454 Y119.154 E0.19426
G1 X122.208 Y119.154 E0.02365
G1 X122.208 Y112.959 E0.19426
G1 X122.962 Y112.959 E0.02365
G1 X122.962 Y119.154 E0.19426
G1 X123.717 Y119.154 E0.02365
G1 X123.717 Y100.183 E0.59483
G1 X124.471 Y100.183 E0.02365
G1 X124.471 Y119.154 E0.59483
G1 X125.225 Y119.154 E0.02365
G1 X125.225 Y100.183 E0.59483
G1 X125.979 Y100.183 E0.02365
G1 X125.979 Y119.154 E0.59483
G1 X126.733 Y119.154 E0.02365
G1 X126.733 Y100.183 E0.59483
G1 X127.487 Y100.183 E0.02365
G1 X127.487 Y119.324 E0.60015
G1 X117.683 Y119.324 F9000.000
G1 F1200.000
G1 X117.683 Y100.183 E0.60015
G1 X116.929 Y100.183 E0.02365
G1 X116.929 Y119.154 E0.59483
G1 X116.175 Y119.154 E0.02365
G1 X116.175 Y100.183 E0.59483
G1 X115.421 Y100.183 E0.02365
G1 X115.421 Y119.154 E0.59483
G1 X114.667 Y119.154 E0.02365
G1 X114.667 Y100.183 E0.59483
G1 X113.913 Y100.183 E0.02365
G1 X113.913 Y119.324 E0.60015
G1 E-3.50000 F3600.000
;WIPE_START
G1 F7200.000
G1 X113.913 Y116.324 E-1.42500
;WIPE_END
G1 E-0.07500 F3600.000
G1 X113.913 Y119.324 F9000.000
G1 X113.913 Y119.324
G1 X119.187 Y111.813
G1 E5.00000 F2400.000
;TYPE:Perimeter
G1 F1200.000
G1 X119.187 Y103.187 E0.27046
G1 X122.213 Y103.187 E0.09487
G1 X122.213 Y111.813 E0.27046
G1 X119.247 Y111.813 E0.09299
G1 X118.810 Y112.190 F9000.000
;TYPE:External perimeter
G1 F1200.000
G1 X118.810 Y102.810 E0.29410
G1 X122.590 Y102.810 E0.11852
G1 X122.590 Y112.190 E0.29410
G1 X118.870 Y112.190 E0.11664
G1 X118.861 Y111.793 F9000.000
G1 E-5.00000 F3600.000
G1 X122.100 Y104.068 F9000.000
G1 E5.00000 F2400.000
;TYPE:Solid infill
;WIDTH:0.422557
G1 F1200.000
G1 X121.502 Y103.470 E0.02670
G1 X120.965 Y103.470 E0.01695
G1 X121.930 Y104.435 E0.04309
G1 X121.930 Y104.972 E0.01695
G1 X120.428 Y103.470 E0.06706
G1 X119.891 Y103.470 E0.01695
G1 X121.930 Y105.509 E0.09103
G1 X121.930 Y106.046 E0.01695
G1 X119.470 Y103.585 E0.10983
G1 X119.470 Y104.122 E0.01695
G1 X121.930 Y106.583 E0.10983
G1 X121.930 Y107.120 E0.01695
G1 X119.470 Y104.659 E0.10983
G1 X119.470 Y105.196 E0.01695
G1 X121.930 Y107.656 E0.10983
G1 X121.930 Y108.193 E0.01695
G1 X119.470 Y105.733 E0.10983
G1 X119.470 Y106.270 E0.01695
G1 X121.930 Y108.730 E0.10983
G1 X121.930 Y109.267 E0.01695
G1 X119.470 Y106.807 E0.10983
G1 X119.470 Y107.344 E0.01695
G1 X121.930 Y109.804 E0.10983
G1 X121.930 Y110.341 E0.01695
G1 X119.470 Y107.881 E0.10983
G1 X119.470 Y108.417 E0.01695
G1 X121.930 Y110.878 E0.10983
G1 X121.930 Y111.415 E0.01695
G1 X119.470 Y108.954 E0.10983
G1 X119.470 Y109.491 E0.01695
G1 X121.509 Y111.530 E0.09102
G1 X120.972 Y111.530 E0.01695
G1 X119.470 Y110.028 E0.06705
G1 X119.470 Y110.565 E0.01695
G1 X120.435 Y111.530 E0.04308
G1 X119.898 Y111.530 E0.01695
G1 X119.300 Y110.932 E0.02669
G1 E-3.50000 F3600.000
;WIPE_START
G1 F7200.000
G1 X119.898 Y111.530 E-0.40163
G1 X120.435 Y111.530 E-0.25502
G1 X119.470 Y110.565 E-0.64830
G1 X119.470 Y110.312 E-0.12006
;WIPE_END
G1 E-0.07500 F3600.000
G1 X119.300 Y110.932 F9000.000
G1 X119.300 Y110.932
G1 X117.087 Y119.324
G1 E5.00000 F2400.000
;TYPE:Support material
;WIDTH:0.42
G1 F1200.000
G1 X117.087 Y100.183 E0.60015
G1 X116.333 Y100.183 E0.02365
G1 X116.333 Y119.154 E0.59483
G1 X115.579 Y119.154 E0.02365
G1 X115.579 Y100.183 E0.59483
G1 X114.825 Y100.183 E0.02365
G1 X114.825 Y119.154 E0.59483
G1 X114.071 Y119.154 E0.02365
G1 X114.071 Y100.183 E0.59483
G1 X113.317 Y100.183 E0.02365
G1 X113.317 Y119.154 E0.59483
G1 X112.562 Y119.154 E0.02365
G1 X112.562 Y112.959 E0.19426
G1 X111.808 Y112.959 E0.02365
G1 X111.808 Y119.154 E0.19426
G1 X111.054 Y119.154 E0.02365
G1 X111.054 Y112.959 E0.19426
G1 X110.300 Y112.959 E0.02365
G1 X110.300 Y119.154 E0.19426
G1 X109.546 Y119.154 E0.02365
G1 X109.546 Y112.959 E0.19426
G1 X108.792 Y112.959 E0.02365
G1 X108.792 Y119.154 E0.19426
G1 X108.038 Y119.154 E0.02365
G1 X108.038 Y112.959 E0.19426
G1 X107.910 Y112.959 E0.00400
G1 X107.641 Y112.690 E0.01191
G1 X107.641 Y102.310 E0.32545
G1 X107.910 Y102.041 E0.01191
G1 X108.038 Y102.041 E0.00400
G1 X108.038 Y100.183 E0.05827
G1 X108.792 Y100.183 E0.02365
G1 X108.792 Y102.041 E0.05827
G1 X109.546 Y102.041 E0.02365
G1 X109.546 Y100.183 E0.05827
G1 X110.300 Y100.183 E0.02365
G1 X110.300 Y102.041 E0.05827
G1 X111.054 Y102.041 E0.02365
G1 X111.054 Y100.183 E0.05827
G1 X111.808 Y100.183 E0.02365
G1 X111.808 Y102.041 E0.05827
G1 X112.562 Y102.041 E0.02365
G1 X112.562 Y100.013 E0.06359
G1 E-3.50000 F3600.000
;WIPE_START
G1 F7200.000
G1 X112.562 Y102.041 E-0.96338
G1 X111.808 Y102.041 E-0.35823
G1 X111.808 Y101.824 E-0.10339
;WIPE_END
G1 E-0.07500 F3600.000
G1 X112.562 Y100.013 F9000.000
G1 X112.562 Y100.013
G1 X109.204 Y112.300
G1 X107.283 Y119.324
G1 E5.00000 F2400.000
G1 F1200.000
G1 X107.283 Y100.183 E0.60015
G1 X106.529 Y100.183 E0.02365
G1 X106.529 Y119.154 E0.59483
G1 X105.775 Y119.154 E0.02365
G1 X105.775 Y100.183 E0.59483
G1 X105.021 Y100.183 E0.02365
G1 X105.021 Y119.154 E0.59483
G1 X104.267 Y119.154 E0.02365
G1 X104.267 Y100.183 E0.59483
G1 X103.513 Y100.183 E0.02365
G1 X103.513 Y119.324 E0.60015
G1 E-3.50000 F3600.000
;WIPE_START
G1 F7200.000
G1 X103.513 Y116.324 E-1.42500
;WIPE_END
G1 E-0.07500 F3600.000
G1 X103.513 Y119.324 F9000.000
G1 X103.513 Y119.324
G1 X108.787 Y111.813
G1 E5.00000 F2400.000
;TYPE:Perimeter
G1 F1200.000
G1 X108.787 Y103.187 E0.27046
G1 X111.813 Y103.187 E0.09487
G1 X111.813 Y111.813 E0.27046
G1 X108.847 Y111.813 E0.09299
G1 X108.410 Y112.190 F9000.000
;TYPE:External perimeter
G1 F1200.000
G1 X108.410 Y102.810 E0.29410
G1 X112.190 Y102.810 E0.11852
G1 X112.190 Y112.190 E0.29410
G1 X108.470 Y112.190 E0.11664
G1 X108.461 Y111.793 F9000.000
G1 E-5.00000 F3600.000
G1 X111.700 Y104.068 F9000.000
G1 E5.00000 F2400.000
;TYPE:Solid infill
;WIDTH:0.422557
G1 F1200.000
G1 X111.102 Y103.470 E0.02670
G1 X110.565 Y103.470 E0.01695
G1 X111.530 Y104.435 E0.04309
G1 X111.530 Y104.972 E0.01695
G1 X110.028 Y103.470 E0.06706
G1 X109.491 Y103.470 E0.01695
G1 X111.530 Y105.509 E0.09103
G1 X111.530 Y106.046 E0.01695
G1 X109.070 Y103.585 E0.10983
G1 X109.070 Y104.122 E0.01695
G1 X111.530 Y106.583 E0.10983
G1 X111.530 Y107.120 E0.01695
G1 X109.070 Y104.659 E0.10983
G1 X109.070 Y105.196 E0.01695
G1 X111.530 Y107.656 E0.10983
G1 X111.530 Y108.193 E0.01695
G1 X109.070 Y105.733 E0.10983
G1 X109.070 Y106.270 E0.01695
G1 X111.530 Y108.730 E0.10983
G1 X111.530 Y109.267 E0.01695
G1 X109.070 Y106.807 E0.10983
G1 X109.070 Y107.344 E0.01695
G1 X111.530 Y109.804 E0.10983
G1 X111.530 Y110.341 E0.01695
G1 X109.070 Y107.881 E0.10983
G1 X109.070 Y108.417 E0.01695
G1 X111.530 Y110.878 E0.10983
G1 X111.530 Y111.415 E0.01695
G1 X109.070 Y108.954 E0.10983
G1 X109.070 Y109.491 E0.01695
G1 X111.109 Y111.530 E0.09102
G1 X110.572 Y111.530 E0.01695
G1 X109.070 Y110.028 E0.06705
G1 X109.070 Y110.565 E0.01695
G1 X110.035 Y111.530 E0.04308
G1 X109.498 Y111.530 E0.01695
G1 X108.900 Y110.932 E0.02669
G1 E-3.50000 F3600.000
;WIPE_START
G1 F7200.000
G1 X109.498 Y111.530 E-0.40163
G1 X110.035 Y111.530 E-0.25502
G1 X109.070 Y110.565 E-0.64830
G1 X109.070 Y110.312 E-0.12005
;WIPE_END
G1 E-0.07500 F3600.000
G1 X108.900 Y110.932 F9000.000
G1 X108.900 Y110.932
G1 X112.562 Y116.013
G1 E5.00000 F2400.000
;TYPE:Support material
;WIDTH:0.42
G1 F1200.000
G1 X112.562 Y118.041 E0.06359
G1 X111.808 Y118.041 E0.02365
G1 X111.808 Y116.183 E0.05827
G1 X111.054 Y116.183 E0.02365
G1 X111.054 Y118.041 E0.05827
G1 X110.300 Y118.041 E0.02365
G1 X110.300 Y116.183 E0.05827
G1 X109.546 Y116.183 E0.02365
G1 X109.546 Y118.041 E0.05827
G1 X108.792 Y118.041 E0.02365
G1 X108.792 Y116.183 E0.05827
G1 X108.038 Y116.183 E0.02365
G1 X108.038 Y118.041 E0.05827
G1 X107.910 Y118.041 E0.00400
G1 X107.641 Y118.310 E0.01191
G1 X107.641 Y128.690 E0.32545
G1 X107.910 Y128.959 E0.01191
G1 X108.038 Y128.959 E0.00400
G1 X108.038 Y135.154 E0.19426
G1 X108.792 Y135.154 E0.02365
G1 X108.792 Y128.959 E0.19426
G1 X109.546 Y128.959 E0.02365
G1 X109.546 Y135.154 E0.19426
G1 X110.300 Y135.154 E0.02365
G1 X110.300 Y128.959 E0.19426
G1 X111.054 Y128.959 E0.02365
G1 X111.054 Y135.154 E0.19426
G1 X111.808 Y135.154 E0.02365
G1 X111.808 Y128.959 E0.19426
G1 X112.562 Y128.959 E0.02365
G1 X112.562 Y135.154 E0.19426
G1 X113.317 Y135.154 E0.02365
G1 X113.317 Y116.183 E0.59483
G1 X114.071 Y116.183 E0.02365
G1 X114.071 Y135.154 E0.59483
G1 X114.825 Y135.154 E0.02365
G1 X114.825 Y116.183 E0.59483
G1 X115.579 Y116.183 E0.02365
G1 X115.579 Y135.154 E0.59483
G1 X116.333 Y135.154 E0.02365
G1 X116.333 Y116.183 E0.59483
G1 X117.087 Y116.183 E0.02365
G1 X117.087 Y135.324 E0.60015
G1 X107.283 Y135.324 F9000.000
G1 F1200.000
G1 X107.283 Y116.183 E0.60015
G1 X106.529 Y116.183 E0.02365
G1 X106.529 Y135.154 E0.59483
G1 X105.775 Y135.154 E0.02365
G1 X105.775 Y116.183 E0.59483
G1 X105.021 Y116.183 E0.02365
G1 X105.021 Y135.154 E0.59483
G1 X104.267 Y135.154 E0.02365
G1 X104.267 Y116.183 E0.59483
G1 X103.513 Y116.183 E0.02365
G1 X103.513 Y135.324 E0.60015
G1 E-3.50000 F3600.000
;WIPE_START
G1 F7200.000
G1 X103.513 Y132.324 E-1.42500
;WIPE_END
G1 E-0.07500 F3600.000
G1 X103.513 Y135.324 F9000.000
G1 X103.513 Y135.324
G1 X108.787 Y127.813
G1 E5.00000 F2400.000
;TYPE:Perimeter
G1 F1200.000
G1 X108.787 Y119.187 E0.27046
G1 X111.813 Y119.187 E0.09487
G1 X111.813 Y127.813 E0.27046
G1 X108.847 Y127.813 E0.09299
G1 X108.410 Y128.190 F9000.000
;TYPE:External perimeter
G1 F1200.000
G1 X108.410 Y118.810 E0.29410
G1 X112.190 Y118.810 E0.11852
G1 X112.190 Y128.190 E0.29410
G1 X108.470 Y128.190 E0.11664
G1 X108.461 Y127.793 F9000.000
G1 E-5.00000 F3600.000
G1 X111.700 Y120.068 F9000.000
G1 E5.00000 F2400.000
;TYPE:Solid infill
;WIDTH:0.422557
G1 F1200.000
G1 X111.102 Y119.470 E0.02670
G1 X110.565 Y119.470 E0.01695
G1 X111.530 Y120.435 E0.04309
G1 X111.530 Y120.972 E0.01695
G1 X110.028 Y119.470 E0.06706
G1 X109.491 Y119.470 E0.01695
G1 X111.530 Y121.509 E0.09103
G1 X111.530 Y122.046 E0.01695
G1 X109.070 Y119.585 E0.10983
G1 X109.070 Y120.122 E0.01695
G1 X111.530 Y122.583 E0.10983
G1 X111.530 Y123.120 E0.01695
G1 X109.070 Y120.659 E0.10983
G1 X109.070 Y121.196 E0.01695
G1 X111.530 Y123.656 E0.10983
G1 X111.530 Y124.193 E0.01695
G1 X109.070 Y121.733 E0.10983
G1 X109.070 Y122.270 E0.01695
G1 X111.530 Y124.730 E0.10983
G1 X111.530 Y125.267 E0.01695
G1 X109.070 Y122.807 E0.10983
G1 X109.070 Y123.344 E0.01695
G1 X111.530 Y125.804 E0.10983
G1 X111.530 Y126.341 E0.01695
G1 X109.070 Y123.881 E0.10983
G1 X109.070 Y124.417 E0.01695
G1 X111.530 Y126.878 E0.10983
G1 X111.530 Y127.415 E0.01695
G1 X109.070 Y124.954 E0.10983
G1 X109.070 Y125.491 E0.01695
G1 X111.109 Y127.530 E0.09102
G1 X110.572 Y127.530 E0.01695
G1 X109.070 Y126.028 E0.06705
G1 X109.070 Y126.565 E0.01695
G1 X110.035 Y127.530 E0.04308
G1 X109.498 Y127.530 E0.01695
G1 X108.900 Y126.932 E0.02669
G1 E-3.50000 F3600.000
;WIPE_START
G1 F7200.000
G1 X109.498 Y127.530 E-0.40163
G1 X110.035 Y127.530 E-0.25502
G1 X109.070 Y126.565 E-0.64830
G1 X109.070 Y126.312 E-0.12006
;WIPE_END
G1 E-0.07500 F3600.000
G1 X108.900 Y126.932 F9000.000
G1 X108.900 Y126.932
G1 X113.913 Y135.324
G1 E5.00000 F2400.000
;TYPE:Support material
;WIDTH:0.42
G1 F1200.000
G1 X113.913 Y116.183 E0.60015
G1 X114.667 Y116.183 E0.02365
G1 X114.667 Y135.154 E0.59483
G1 X115.421 Y135.154 E0.02365
G1 X115.421 Y116.183 E0.59483
G1 X116.175 Y116.183 E0.02365
G1 X116.175 Y135.154 E0.59483
G1 X116.929 Y135.154 E0.02365
G1 X116.929 Y116.183 E0.59483
G1 X117.683 Y116.183 E0.02365
G1 X117.683 Y135.324 E0.60015
G1 X127.487 Y135.324 F9000.000
G1 F1200.000
G1 X127.487 Y116.183 E0.60015
G1 X126.733 Y116.183 E0.02365
G1 X126.733 Y135.154 E0.59483
G1 X125.979 Y135.154 E0.02365
G1 X125.979 Y116.183 E0.59483
G1 X125.225 Y116.183 E0.02365
G1 X125.225 Y135.154 E0.59483
G1 X124.471 Y135.154 E0.02365
G1 X124.471 Y116.183 E0.59483
G1 X123.717 Y116.183 E0.02365
G1 X123.717 Y135.154 E0.59483
G1 X122.962 Y135.154 E0.02365
G1 X122.962 Y128.959 E0.19426
G1 X122.208 Y128.959 E0.02365
G1 X122.208 Y135.154 E0.19426
G1 X121.454 Y135.154 E0.02365
G1 X121.454 Y128.959 E0.19426
G1 X120.700 Y128.959 E0.02365
G1 X120.700 Y135.154 E0.19426
G1 X119.946 Y135.154 E0.02365
G1 X119.946 Y128.959 E0.19426
G1 X119.192 Y128.959 E0.02365
G1 X119.192 Y135.154 E0.19426
G1 X118.438 Y135.154 E0.02365
G1 X118.438 Y128.959 E0.19426
G1 X118.310 Y128.959 E0.00400
G1 X118.041 Y128.690 E0.01191
G1 X118.041 Y118.310 E0.32545
G1 X118.310 Y118.041 E0.01191
G1 X118.438 Y118.041 E0.00400
G1 X118.438 Y116.183 E0.05827
G1 X119.192 Y116.183 E0.02365
G1 X119.192 Y118.041 E0.05827
G1 X119.946 Y118.041 E0.02365
G1 X119.946 Y116.183 E0.05827
G1 X120.700 Y116.183 E0.02365
G1 X120.700 Y118.041 E0.05827
G1 X121.454 Y118.041 E0.02365
