; generated by PrusaSlicer 2.3.0 on 2021-04-22 at 21:46:17 UTC

; 

; external perimeters extrusion width = 0.45mm
; perimeters extrusion width = 0.45mm
; infill extrusion width = 0.45mm
; solid infill extrusion width = 0.45mm
; top infill extrusion width = 0.40mm
; support material extrusion width = 0.38mm
; first layer extrusion width = 0.42mm

M201 X500 Y500 Z100 E5000 ; sets maximum accelerations, mm/sec^2
M203 X500 Y500 Z10 E60 ; sets maximum feedrates, mm/sec
M204 P500 R1000 T500 ; sets acceleration (P, T) and retract acceleration (R), mm/sec^2
M205 X8.00 Y8.00 Z0.40 E5.00 ; sets the jerk limits, mm/sec
M205 S0 T0 ; sets the minimum extruding and travel feed rate, mm/sec
M107
;TYPE:Custom
G90 ; use absolute coordinates
M83 ; extruder relative mode
M104 S210 ; set extruder temp
M140 S60 ; set bed temp
M190 S60 ; wait for bed temp
M109 S210 ; wait for extruder temp
G28 ; home all
G1 Z2 F240
G1 X2 Y10 F3000
G1 Z0.28 F240
G92 E0
G1 Y190 E15 F1500 ; intro line
G1 X2.3 F5000
G92 E0
G1 Y10 E15 F1200 ; intro line
G92 E0
G21 ; set units to millimeters
G90 ; use absolute coordinates
M83 ; use relative distances for extrusion
; Filament gcode
;LAYER_CHANGE
;Z:0.2
;HEIGHT:0.2
;BEFORE_LAYER_CHANGE
G92 E0
;0.2


G1 E-5.00000 F3600.000
G1 Z0.200 F9000.000
;AFTER_LAYER_CHANGE
;0.2
G1 X42.181 Y19.404
G1 E5.00000 F2400.000
;TYPE:Skirt
;WIDTH:0.42
G1 F1200.000
G1 X42.543 Y18.724 E0.02414
G1 X42.917 Y18.335 E0.01692
G1 X43.369 Y18.041 E0.01692
G1 X43.880 Y17.855 E0.01704
G1 X44.416 Y17.790 E0.01692
G1 X189.584 Y17.634 E4.55164
G1 X190.486 Y17.814 E0.02884
G1 X191.252 Y18.323 E0.02884
G1 X191.769 Y19.088 E0.02896
G1 X191.956 Y19.989 E0.02884
G1 X191.956 Y207.983 E5.89443
G1 X191.830 Y208.739 E0.02402
G1 X191.468 Y209.418 E0.02414
G1 X191.091 Y209.810 E0.01704
G1 X190.635 Y210.105 E0.01704
G1 X190.123 Y210.289 E0.01704
G1 X189.587 Y210.353 E0.01692
G1 X44.425 Y210.353 E4.55147
G1 X43.669 Y210.227 E0.02402
G1 X42.993 Y209.867 E0.02402
G1 X42.598 Y209.488 E0.01716
G1 X42.303 Y209.031 E0.01704
G1 X42.118 Y208.520 E0.01704
G1 X42.055 Y207.980 E0.01704
G1 X42.055 Y20.159 E5.88900
G1 X42.171 Y19.463 E0.02214
G1 E-3.50000 F3600.000
;WIPE_START
G1 F7200.000
G1 X42.543 Y18.724 E-0.39278
G1 X42.917 Y18.335 E-0.25636
G1 X43.369 Y18.041 E-0.25636
G1 X43.880 Y17.855 E-0.25816
G1 X44.416 Y17.790 E-0.25636
G1 X44.426 Y17.790 E-0.00496
;WIPE_END
G1 E-0.07500 F3600.000
G1 X189.579 Y20.011 F9000.000
G1 E5.00000 F2400.000
;TYPE:Support material interface
;WIDTH:0.38
G1 F1200.000
G1 X189.579 Y45.969 E0.72755
G1 X189.033 Y45.969 E0.01529
G1 X189.033 Y20.167 E0.72319
G1 X188.487 Y20.167 E0.01529
G1 X188.487 Y45.969 E0.72319
G1 X187.942 Y45.969 E0.01529
G1 X187.942 Y20.167 E0.72319
G1 X187.396 Y20.167 E0.01529
G1 X187.396 Y45.969 E0.72319
G1 X186.850 Y45.969 E0.01529
G1 X186.850 Y20.167 E0.72319
G1 X186.305 Y20.167 E0.01529
G1 X186.305 Y45.969 E0.72319
G1 X185.759 Y45.969 E0.01529
G1 X185.759 Y20.167 E0.72319
G1 X185.213 Y20.167 E0.01529
G1 X185.213 Y45.969 E0.72319
G1 X184.668 Y45.969 E0.01529
G1 X184.668 Y20.167 E0.72319
G1 X184.122 Y20.167 E0.01529
G1 X184.122 Y45.969 E0.72319
G1 X183.576 Y45.969 E0.01529
G1 X183.576 Y20.167 E0.72319
G1 X183.031 Y20.167 E0.01529
G1 X183.031 Y45.969 E0.72319
G1 X182.485 Y45.969 E0.01529
G1 X182.485 Y20.167 E0.72319
G1 X181.939 Y20.167 E0.01529
G1 X181.939 Y45.969 E0.72319
G1 X181.394 Y45.969 E0.01529
G1 X181.394 Y20.167 E0.72319
G1 X180.848 Y20.167 E0.01529
G1 X180.848 Y45.969 E0.72319
G1 X180.302 Y45.969 E0.01529
G1 X180.302 Y20.167 E0.72319
G1 X179.757 Y20.167 E0.01529
G1 X179.757 Y45.969 E0.72319
G1 X179.211 Y45.969 E0.01529
G1 X179.211 Y20.167 E0.72319
G1 X178.665 Y20.167 E0.01529
G1 X178.665 Y45.969 E0.72319
G1 X178.120 Y45.969 E0.01529
G1 X178.120 Y20.167 E0.72319
G1 X177.574 Y20.167 E0.01529
G1 X177.574 Y45.969 E0.72319
G1 X177.028 Y45.969 E0.01529
G1 X177.028 Y20.167 E0.72319
G1 X176.483 Y20.167 E0.01529
G1 X176.483 Y45.969 E0.72319
G1 X175.937 Y45.969 E0.01529
G1 X175.937 Y20.167 E0.72319
G1 X175.391 Y20.167 E0.01529
G1 X175.391 Y45.969 E0.72319
G1 X174.846 Y45.969 E0.01529
G1 X174.846 Y20.167 E0.72319
G1 X174.300 Y20.167 E0.01529
G1 X174.300 Y45.969 E0.72319
G1 X173.754 Y45.969 E0.01529
G1 X173.754 Y20.167 E0.72319
G1 X173.209 Y20.167 E0.01529
G1 X173.209 Y45.969 E0.72319
G1 X172.663 Y45.969 E0.01529
G1 X172.663 Y20.167 E0.72319
G1 X172.117 Y20.167 E0.01529
G1 X172.117 Y45.969 E0.72319
G1 X171.572 Y45.969 E0.01529
G1 X171.572 Y20.167 E0.72319
G1 X171.026 Y20.167 E0.01529
G1 X171.026 Y45.969 E0.72319
G1 X170.480 Y45.969 E0.01529
G1 X170.480 Y20.167 E0.72319
G1 X169.935 Y20.167 E0.01529
G1 X169.935 Y45.969 E0.72319
G1 X169.389 Y45.969 E0.01529
G1 X169.389 Y20.167 E0.72319
G1 X168.843 Y20.167 E0.01529
G1 X168.843 Y45.969 E0.72319
G1 X168.298 Y45.969 E0.01529
G1 X168.298 Y20.167 E0.72319
G1 X167.752 Y20.167 E0.01529
G1 X167.752 Y45.969 E0.72319
G1 X167.206 Y45.969 E0.01529
G1 X167.206 Y20.167 E0.72319
G1 X166.661 Y20.167 E0.01529
G1 X166.661 Y45.969 E0.72319
G1 X166.115 Y45.969 E0.01529
G1 X166.115 Y20.167 E0.72319
G1 X165.569 Y20.167 E0.01529
G1 X165.569 Y45.969 E0.72319
G1 X165.024 Y45.969 E0.01529
G1 X165.024 Y20.167 E0.72319
G1 X164.478 Y20.167 E0.01529
G1 X164.478 Y45.969 E0.72319
G1 X163.932 Y45.969 E0.01529
G1 X163.932 Y20.167 E0.72319
G1 X163.387 Y20.167 E0.01529
G1 X163.387 Y45.969 E0.72319
G1 X162.841 Y45.969 E0.01529
G1 X162.841 Y20.167 E0.72319
G1 X162.295 Y20.167 E0.01529
G1 X162.295 Y45.969 E0.72319
G1 X161.750 Y45.969 E0.01529
G1 X161.750 Y20.167 E0.72319
G1 X161.204 Y20.167 E0.01529
G1 X161.204 Y45.969 E0.72319
G1 X160.658 Y45.969 E0.01529
G1 X160.658 Y20.167 E0.72319
G1 X160.113 Y20.167 E0.01529
G1 X160.113 Y45.969 E0.72319
G1 X159.567 Y45.969 E0.01529
G1 X159.567 Y20.167 E0.72319
G1 X159.021 Y20.167 E0.01529
G1 X159.021 Y45.969 E0.72319
G1 X158.476 Y45.969 E0.01529
G1 X158.476 Y20.167 E0.72319
G1 X157.930 Y20.167 E0.01529
G1 X157.930 Y45.969 E0.72319
G1 X157.384 Y45.969 E0.01529
G1 X157.384 Y20.167 E0.72319
G1 X156.839 Y20.167 E0.01529
G1 X156.839 Y45.969 E0.72319
G1 X156.293 Y45.969 E0.01529
G1 X156.293 Y20.167 E0.72319
G1 X155.747 Y20.167 E0.01529
G1 X155.747 Y45.969 E0.72319
G1 X155.202 Y45.969 E0.01529
G1 X155.202 Y20.167 E0.72319
G1 X154.656 Y20.167 E0.01529
G1 X154.656 Y45.969 E0.72319
G1 X154.110 Y45.969 E0.01529
G1 X154.110 Y20.167 E0.72319
G1 X153.565 Y20.167 E0.01529
G1 X153.565 Y45.969 E0.72319
G1 X153.019 Y45.969 E0.01529
G1 X153.019 Y20.167 E0.72319
G1 X152.474 Y20.167 E0.01529
G1 X152.473 Y45.969 E0.72319
G1 X151.928 Y45.969 E0.01529
G1 X151.928 Y20.167 E0.72319
G1 X151.382 Y20.167 E0.01529
G1 X151.382 Y45.969 E0.72319
G1 X150.837 Y45.969 E0.01529
G1 X150.837 Y20.167 E0.72319
G1 X150.291 Y20.167 E0.01529
G1 X150.291 Y45.969 E0.72319
G1 X149.745 Y45.969 E0.01529
G1 X149.745 Y20.167 E0.72319
G1 X149.200 Y20.167 E0.01529
G1 X149.200 Y45.969 E0.72319
G1 X148.654 Y45.969 E0.01529
G1 X148.654 Y20.167 E0.72319
G1 X148.108 Y20.167 E0.01529
G1 X148.108 Y45.969 E0.72319
G1 X147.563 Y45.969 E0.01529
G1 X147.563 Y20.167 E0.72319
G1 X147.017 Y20.167 E0.01529
G1 X147.017 Y45.969 E0.72319
G1 X146.471 Y45.969 E0.01529
G1 X146.471 Y20.167 E0.72319
G1 X145.926 Y20.167 E0.01529
G1 X145.926 Y45.969 E0.72319
G1 X145.380 Y45.969 E0.01529
G1 X145.380 Y20.167 E0.72319
G1 X144.834 Y20.167 E0.01529
G1 X144.834 Y45.969 E0.72319
G1 X144.289 Y45.969 E0.01529
G1 X144.289 Y20.167 E0.72319
G1 X143.743 Y20.167 E0.01529
G1 X143.743 Y45.969 E0.72319
G1 X143.197 Y45.969 E0.01529
G1 X143.197 Y20.167 E0.72319
G1 X142.652 Y20.167 E0.01529
G1 X142.652 Y45.969 E0.72319
G1 X142.106 Y45.969 E0.01529
G1 X142.106 Y20.167 E0.72319
G1 X141.560 Y20.167 E0.01529
G1 X141.560 Y45.969 E0.72319
G1 X141.015 Y45.969 E0.01529
G1 X141.015 Y20.167 E0.72319
G1 X140.469 Y20.167 E0.01529
G1 X140.469 Y45.969 E0.72319
G1 X139.923 Y45.969 E0.01529
G1 X139.923 Y20.167 E0.72319
G1 X139.378 Y20.167 E0.01529
G1 X139.378 Y45.969 E0.72319
G1 X138.832 Y45.969 E0.01529
G1 X138.832 Y20.167 E0.72319
G1 X138.286 Y20.167 E0.01529
G1 X138.286 Y45.969 E0.72319
G1 X137.741 Y45.969 E0.01529
G1 X137.741 Y20.167 E0.72319
G1 X137.195 Y20.167 E0.01529
G1 X137.195 Y45.969 E0.72319
G1 X136.649 Y45.969 E0.01529
G1 X136.649 Y20.167 E0.72319
G1 X136.104 Y20.167 E0.01529
G1 X136.104 Y45.969 E0.72319
G1 X135.558 Y45.969 E0.01529
G1 X135.558 Y20.167 E0.72319
G1 X135.012 Y20.167 E0.01529
G1 X135.012 Y45.969 E0.72319
G1 X134.467 Y45.969 E0.01529
G1 X134.467 Y20.167 E0.72319
G1 X133.921 Y20.167 E0.01529
G1 X133.921 Y45.969 E0.72319
G1 X133.375 Y45.969 E0.01529
G1 X133.375 Y20.167 E0.72319
G1 X132.830 Y20.167 E0.01529
G1 X132.830 Y45.969 E0.72319
G1 X132.284 Y45.969 E0.01529
G1 X132.284 Y20.167 E0.72319
G1 X131.738 Y20.167 E0.01529
G1 X131.738 Y45.969 E0.72319
G1 X131.193 Y45.969 E0.01529
G1 X131.193 Y20.167 E0.72319
G1 X130.647 Y20.167 E0.01529
G1 X130.647 Y45.969 E0.72319
G1 X130.101 Y45.969 E0.01529
G1 X130.101 Y20.167 E0.72319
G1 X129.556 Y20.167 E0.01529
G1 X129.556 Y45.969 E0.72319
G1 X129.010 Y45.969 E0.01529
G1 X129.010 Y20.167 E0.72319
G1 X128.464 Y20.167 E0.01529
G1 X128.464 Y45.969 E0.72319
G1 X127.919 Y45.969 E0.01529
G1 X127.919 Y20.167 E0.72319
G1 X127.373 Y20.167 E0.01529
G1 X127.373 Y45.969 E0.72319
G1 X126.827 Y45.969 E0.01529
G1 X126.827 Y20.167 E0.72319
G1 X126.282 Y20.167 E0.01529
G1 X126.282 Y45.969 E0.72319
G1 X125.736 Y45.969 E0.01529
G1 X125.736 Y20.167 E0.72319
G1 X125.190 Y20.167 E0.01529
G1 X125.190 Y45.969 E0.72319
G1 X124.645 Y45.969 E0.01529
G1 X124.645 Y20.167 E0.72319
G1 X124.099 Y20.167 E0.01529
G1 X124.099 Y45.969 E0.72319
G1 X123.553 Y45.969 E0.01529
G1 X123.553 Y20.167 E0.72319
G1 X123.008 Y20.167 E0.01529
G1 X123.008 Y45.969 E0.72319
G1 X122.462 Y45.969 E0.01529
G1 X122.462 Y20.167 E0.72319
G1 X121.916 Y20.167 E0.01529
G1 X121.916 Y45.969 E0.72319
G1 X121.371 Y45.969 E0.01529
G1 X121.371 Y20.167 E0.72319
G1 X120.825 Y20.167 E0.01529
G1 X120.825 Y45.969 E0.72319
G1 X120.279 Y45.969 E0.01529
G1 X120.279 Y20.167 E0.72319
G1 X119.734 Y20.167 E0.01529
G1 X119.734 Y45.969 E0.72319
G1 X119.351 Y45.969 E0.01073
G1 X119.351 Y182.018 E3.81320
G1 X119.734 Y182.018 E0.01072
G1 X119.734 Y207.820 E0.72319
G1 X120.279 Y207.820 E0.01529
G1 X120.279 Y182.018 E0.72319
G1 X120.825 Y182.018 E0.01529
G1 X120.825 Y207.820 E0.72319
G1 X121.371 Y207.820 E0.01529
G1 X121.371 Y182.018 E0.72319
G1 X121.916 Y182.018 E0.01529
G1 X121.916 Y207.820 E0.72319
G1 X122.462 Y207.820 E0.01529
G1 X122.462 Y182.018 E0.72319
G1 X123.008 Y182.018 E0.01529
G1 X123.008 Y207.820 E0.72319
G1 X123.553 Y207.820 E0.01529
G1 X123.553 Y182.018 E0.72319
G1 X124.099 Y182.018 E0.01529
G1 X124.099 Y207.820 E0.72319
G1 X124.645 Y207.820 E0.01529
G1 X124.645 Y182.018 E0.72319
G1 X125.190 Y182.018 E0.01529
G1 X125.190 Y207.820 E0.72319
G1 X125.736 Y207.820 E0.01529
G1 X125.736 Y182.018 E0.72319
G1 X126.282 Y182.018 E0.01529
G1 X126.282 Y207.820 E0.72319
G1 X126.827 Y207.820 E0.01529
G1 X126.827 Y182.018 E0.72319
G1 X127.373 Y182.018 E0.01529
G1 X127.373 Y207.820 E0.72319
G1 X127.919 Y207.820 E0.01529
G1 X127.919 Y182.018 E0.72319
G1 X128.464 Y182.018 E0.01529
G1 X128.464 Y207.820 E0.72319
G1 X129.010 Y207.820 E0.01529
G1 X129.010 Y182.018 E0.72319
G1 X129.556 Y182.018 E0.01529
G1 X129.556 Y207.820 E0.72319
G1 X130.101 Y207.820 E0.01529
G1 X130.101 Y182.018 E0.72319
G1 X130.647 Y182.018 E0.01529
G1 X130.647 Y207.820 E0.72319
G1 X131.193 Y207.820 E0.01529
G1 X131.193 Y182.018 E0.72319
G1 X131.738 Y182.018 E0.01529
G1 X131.738 Y207.820 E0.72319
G1 X132.284 Y207.820 E0.01529
G1 X132.284 Y182.018 E0.72319
G1 X132.830 Y182.018 E0.01529
G1 X132.830 Y207.820 E0.72319
G1 X133.375 Y207.820 E0.01529
G1 X133.375 Y182.018 E0.72319
G1 X133.921 Y182.018 E0.01529
G1 X133.921 Y207.820 E0.72319
G1 X134.467 Y207.820 E0.01529
G1 X134.467 Y182.018 E0.72319
G1 X135.012 Y182.018 E0.01529
G1 X135.012 Y207.820 E0.72319
G1 X135.558 Y207.820 E0.01529
G1 X135.558 Y182.018 E0.72319
G1 X136.104 Y182.018 E0.01529
G1 X136.104 Y207.820 E0.72319
G1 X136.649 Y207.820 E0.01529
G1 X136.649 Y182.018 E0.72319
G1 X137.195 Y182.018 E0.01529
G1 X137.195 Y207.820 E0.72319
G1 X137.741 Y207.820 E0.01529
G1 X137.741 Y182.018 E0.72319
G1 X138.286 Y182.018 E0.01529
G1 X138.286 Y207.820 E0.72319
G1 X138.832 Y207.820 E0.01529
G1 X138.832 Y182.018 E0.72319
G1 X139.378 Y182.018 E0.01529
G1 X139.378 Y207.820 E0.72319
G1 X139.923 Y207.820 E0.01529
G1 X139.923 Y182.018 E0.72319
G1 X140.469 Y182.018 E0.01529
G1 X140.469 Y207.820 E0.72319
G1 X141.015 Y207.820 E0.01529
G1 X141.015 Y182.018 E0.72319
G1 X141.560 Y182.018 E0.01529
G1 X141.560 Y207.820 E0.72319
G1 X142.106 Y207.820 E0.01529
G1 X142.106 Y182.018 E0.72319
G1 X142.652 Y182.018 E0.01529
G1 X142.652 Y207.820 E0.72319
G1 X143.197 Y207.820 E0.01529
G1 X143.197 Y182.018 E0.72319
G1 X143.743 Y182.018 E0.01529
G1 X143.743 Y207.820 E0.72319
G1 X144.289 Y207.820 E0.01529
G1 X144.289 Y182.018 E0.72319
G1 X144.834 Y182.018 E0.01529
G1 X144.834 Y207.820 E0.72319
G1 X145.380 Y207.820 E0.01529
G1 X145.380 Y182.018 E0.72319
G1 X145.926 Y182.018 E0.01529
G1 X145.926 Y207.820 E0.72319
G1 X146.471 Y207.820 E0.01529
G1 X146.471 Y182.018 E0.72319
G1 X147.017 Y182.018 E0.01529
G1 X147.017 Y207.820 E0.72319
G1 X147.563 Y207.820 E0.01529
G1 X147.563 Y182.018 E0.72319
G1 X148.108 Y182.018 E0.01529
G1 X148.108 Y207.820 E0.72319
G1 X148.654 Y207.820 E0.01529
G1 X148.654 Y182.018 E0.72319
G1 X149.200 Y182.018 E0.01529
G1 X149.200 Y207.820 E0.72319
G1 X149.745 Y207.820 E0.01529
G1 X149.745 Y182.018 E0.72319
G1 X150.291 Y182.018 E0.01529
G1 X150.291 Y207.820 E0.72319
G1 X150.836 Y207.820 E0.01529
G1 X150.836 Y182.018 E0.72319
G1 X151.382 Y182.018 E0.01529
G1 X151.382 Y207.820 E0.72319
G1 X151.928 Y207.820 E0.01529
G1 X151.928 Y182.018 E0.72319
G1 X152.473 Y182.018 E0.01529
G1 X152.473 Y207.820 E0.72319
G1 X153.019 Y207.820 E0.01529
G1 X153.019 Y182.018 E0.72319
G1 X153.565 Y182.018 E0.01529
G1 X153.565 Y207.820 E0.72319
G1 X154.110 Y207.820 E0.01529
G1 X154.110 Y182.018 E0.72319
G1 X154.656 Y182.018 E0.01529
G1 X154.656 Y207.820 E0.72319
G1 X155.202 Y207.820 E0.01529
G1 X155.202 Y182.018 E0.72319
G1 X155.747 Y182.018 E0.01529
G1 X155.747 Y207.820 E0.72319
G1 X156.293 Y207.820 E0.01529
G1 X156.293 Y182.018 E0.72319
G1 X156.839 Y182.018 E0.01529
G1 X156.839 Y207.820 E0.72319
G1 X157.384 Y207.820 E0.01529
G1 X157.384 Y182.018 E0.72319
G1 X157.930 Y182.018 E0.01529
G1 X157.930 Y207.820 E0.72319
G1 X158.476 Y207.820 E0.01529
G1 X158.476 Y182.018 E0.72319
G1 X159.021 Y182.018 E0.01529
G1 X159.021 Y207.820 E0.72319
G1 X159.567 Y207.820 E0.01529
G1 X159.567 Y182.018 E0.72319
G1 X160.113 Y182.018 E0.01529
G1 X160.113 Y207.820 E0.72319
G1 X160.658 Y207.820 E0.01529
G1 X160.658 Y182.018 E0.72319
G1 X161.204 Y182.018 E0.01529
G1 X161.204 Y207.820 E0.72319
G1 X161.750 Y207.820 E0.01529
G1 X161.750 Y182.018 E0.72319
G1 X162.295 Y182.018 E0.01529
G1 X162.295 Y207.820 E0.72319
G1 X162.841 Y207.820 E0.01529
G1 X162.841 Y182.018 E0.72319
G1 X163.387 Y182.018 E0.01529
G1 X163.387 Y207.820 E0.72319
G1 X163.932 Y207.820 E0.01529
G1 X163.932 Y182.018 E0.72319
G1 X164.478 Y182.018 E0.01529
G1 X164.478 Y207.820 E0.72319
G1 X165.024 Y207.820 E0.01529
G1 X165.024 Y182.018 E0.72319
G1 X165.569 Y182.018 E0.01529
G1 X165.569 Y207.820 E0.72319
G1 X166.115 Y207.820 E0.01529
G1 X166.115 Y182.018 E0.72319
G1 X166.661 Y182.018 E0.01529
G1 X166.661 Y207.820 E0.72319
G1 X167.206 Y207.820 E0.01529
G1 X167.206 Y182.018 E0.72319
G1 X167.752 Y182.018 E0.01529
G1 X167.752 Y207.820 E0.72319
G1 X168.298 Y207.820 E0.01529
G1 X168.298 Y182.018 E0.72319
G1 X168.843 Y182.018 E0.01529
G1 X168.843 Y207.820 E0.72319
G1 X169.389 Y207.820 E0.01529
G1 X169.389 Y182.018 E0.72319
G1 X169.935 Y182.018 E0.01529
G1 X169.935 Y207.820 E0.72319
G1 X170.480 Y207.820 E0.01529
G1 X170.480 Y182.018 E0.72319
G1 X171.026 Y182.018 E0.01529
G1 X171.026 Y207.820 E0.72319
G1 X171.572 Y207.820 E0.01529
G1 X171.572 Y182.018 E0.72319
G1 X172.117 Y182.018 E0.01529
G1 X172.117 Y207.820 E0.72319
G1 X172.663 Y207.820 E0.01529
G1 X172.663 Y182.018 E0.72319
G1 X173.209 Y182.018 E0.01529
G1 X173.209 Y207.820 E0.72319
G1 X173.754 Y207.820 E0.01529
