; generated by PrusaSlicer 2.3.0 on 2021-04-25 at 08:23:08 UTC

; 

; external perimeters extrusion width = 0.45mm
; perimeters extrusion width = 0.45mm
; infill extrusion width = 0.45mm
; solid infill extrusion width = 0.45mm
; top infill extrusion width = 0.40mm
; support material extrusion width = 0.38mm
; first layer extrusion width = 0.42mm

M201 X500 Y500 Z100 E5000 ; sets maximum accelerations, mm/sec^2
M203 X500 Y500 Z10 E60 ; sets maximum feedrates, mm/sec
M204 P500 R1000 T500 ; sets acceleration (P, T) and retract acceleration (R), mm/sec^2
M205 X8.00 Y8.00 Z0.40 E5.00 ; sets the jerk limits, mm/sec
M205 S0 T0 ; sets the minimum extruding and travel feed rate, mm/sec
M107
;TYPE:Custom
G90 ; use absolute coordinates
M83 ; extruder relative mode
M104 S120 ; set temporary nozzle temp to prevent oozing during homing and auto bed leveling
M140 S90 ; set final bed temp
G4 S10 ; allow partial nozzle warmup
G28 ; home all axis
G1 Z50 F240
G1 X2 Y10 F3000
M104 S245 ; set final nozzle temp
M190 S90 ; wait for bed temp to stabilize
M109 S245 ; wait for nozzle temp to stabilize
G1 Z0.28 F240
G92 E0
G1 Y140 E10 F1500 ; prime the nozzle
G1 X2.3 F5000
G92 E0
G1 Y10 E10 F1200 ; prime the nozzle
G92 E0
G21 ; set units to millimeters
G90 ; use absolute coordinates
M83 ; use relative distances for extrusion
; Filament gcode
;LAYER_CHANGE
;Z:0.2
;HEIGHT:0.2
;BEFORE_LAYER_CHANGE
G92 E0
;0.2


G1 E-5.00000 F3600.000
G1 Z0.200 F9000.000
;AFTER_LAYER_CHANGE
;0.2
G1 X108.794 Y78.571
G1 E5.00000 F2400.000
;TYPE:Skirt
;WIDTH:0.42
G1 F1200.000
G1 X109.396 Y78.121 E0.02355
G1 X110.112 Y77.881 E0.02367
G1 X120.504 Y77.849 E0.32584
G1 X121.173 Y77.946 E0.02119
G1 X127.814 Y80.005 E0.21802
G1 X128.322 Y80.325 E0.01882
G1 X128.734 Y80.761 E0.01882
G1 X129.025 Y81.291 E0.01894
G1 X129.172 Y81.873 E0.01882
G1 X129.167 Y149.332 E2.11514
G1 X129.014 Y149.904 E0.01858
G1 X128.722 Y150.424 E0.01870
G1 X128.310 Y150.855 E0.01870
G1 X127.807 Y151.168 E0.01858
G1 X120.966 Y153.105 E0.22291
G1 X110.177 Y153.129 E0.33827
G1 X109.483 Y152.922 E0.02272
G1 X108.885 Y152.518 E0.02260
G1 X108.437 Y151.954 E0.02260
G1 X108.178 Y151.281 E0.02260
G1 X106.336 Y135.584 E0.49556
G1 X106.337 Y95.187 E1.26660
G1 X108.145 Y79.904 E0.48254
G1 X108.363 Y79.186 E0.02355
G1 X108.760 Y78.620 E0.02167
G1 E-3.50000 F3600.000
;WIPE_START
G1 F7200.000
G1 X109.396 Y78.121 E-0.38392
G1 X110.112 Y77.881 E-0.35852
G1 X111.548 Y77.877 E-0.68256
;WIPE_END
G1 E-0.07500 F3600.000
G1 X108.760 Y78.620 F9000.000
G1 X108.760 Y78.620
G1 X108.713 Y95.264
G1 E5.00000 F2400.000
;TYPE:Support material
G1 F1200.000
G1 X108.713 Y114.143 E0.59194
G1 X109.467 Y114.143 E0.02365
G1 X109.467 Y95.433 E0.58662
G1 X110.041 Y95.433 E0.01802
G1 X110.041 Y98.165 E0.08564
G1 X110.221 Y98.344 E0.00796
G1 X110.221 Y114.143 E0.49536
G1 X110.975 Y114.143 E0.02365
G1 X110.975 Y98.433 E0.49256
G1 X111.729 Y98.433 E0.02365
G1 X111.729 Y114.143 E0.49256
G1 X112.483 Y114.143 E0.02365
G1 X112.483 Y98.433 E0.49256
G1 X113.238 Y98.433 E0.02365
G1 X113.238 Y114.143 E0.49256
G1 X113.992 Y114.143 E0.02365
G1 X113.992 Y98.433 E0.49256
G1 X114.746 Y98.433 E0.02365
G1 X114.746 Y114.143 E0.49256
G1 X115.500 Y114.143 E0.02365
G1 X115.500 Y98.433 E0.49256
G1 X116.254 Y98.433 E0.02365
G1 X116.254 Y114.143 E0.49256
G1 X117.008 Y114.143 E0.02365
G1 X117.008 Y98.433 E0.49256
G1 X117.762 Y98.433 E0.02365
G1 X117.762 Y114.143 E0.49256
G1 X118.517 Y114.143 E0.02365
G1 X118.517 Y98.433 E0.49256
G1 X119.271 Y98.433 E0.02365
G1 X119.271 Y114.143 E0.49256
G1 X120.025 Y114.143 E0.02365
G1 X120.025 Y98.433 E0.49256
G1 X120.690 Y98.433 E0.02085
G1 X120.779 Y98.344 E0.00395
G1 X120.779 Y114.143 E0.49536
G1 X121.533 Y114.143 E0.02365
G1 X121.533 Y82.161 E1.00278
G1 X122.287 Y82.161 E0.02365
G1 X122.287 Y114.143 E1.00278
G1 X123.042 Y114.143 E0.02365
G1 X123.042 Y82.161 E1.00278
G1 X123.796 Y82.161 E0.02365
G1 X123.796 Y114.143 E1.00278
G1 X124.550 Y114.143 E0.02365
G1 X124.550 Y82.161 E1.00278
G1 X125.304 Y82.161 E0.02365
G1 X125.304 Y114.143 E1.00278
G1 X126.058 Y114.143 E0.02365
G1 X126.058 Y82.161 E1.00278
G1 X126.812 Y82.161 E0.02365
G1 X126.812 Y114.313 E1.00810
G1 E-5.00000 F3600.000
G1 X108.713 Y116.687 F9000.000
G1 E5.00000 F2400.000
G1 F1200.000
G1 X108.713 Y135.516 E0.59036
G1 X109.467 Y135.516 E0.02365
G1 X109.467 Y116.857 E0.58504
G1 X110.221 Y116.857 E0.02365
G1 X110.221 Y132.605 E0.49377
G1 X110.310 Y132.516 E0.00395
G1 X110.975 Y132.516 E0.02085
G1 X110.975 Y116.857 E0.49098
G1 X111.729 Y116.857 E0.02365
G1 X111.729 Y132.516 E0.49098
G1 X112.483 Y132.516 E0.02365
G1 X112.483 Y116.857 E0.49098
G1 X113.238 Y116.857 E0.02365
G1 X113.238 Y132.516 E0.49098
G1 X113.992 Y132.516 E0.02365
G1 X113.992 Y116.857 E0.49098
G1 X114.746 Y116.857 E0.02365
G1 X114.746 Y132.516 E0.49098
G1 X115.500 Y132.516 E0.02365
G1 X115.500 Y116.857 E0.49098
G1 X116.254 Y116.857 E0.02365
G1 X116.254 Y132.516 E0.49098
G1 X117.008 Y132.516 E0.02365
G1 X117.008 Y116.857 E0.49098
G1 X117.762 Y116.857 E0.02365
G1 X117.762 Y132.516 E0.49098
G1 X118.517 Y132.516 E0.02365
G1 X118.517 Y116.857 E0.49098
G1 X119.271 Y116.857 E0.02365
G1 X119.271 Y132.516 E0.49098
G1 X120.025 Y132.516 E0.02365
G1 X120.025 Y116.857 E0.49098
G1 X120.779 Y116.857 E0.02365
G1 X120.779 Y132.605 E0.49377
G1 X120.959 Y132.785 E0.00796
G1 X120.959 Y148.839 E0.50338
G1 X121.533 Y148.839 E0.01802
G1 X121.533 Y116.857 E1.00278
G1 X122.287 Y116.857 E0.02365
G1 X122.287 Y148.839 E1.00278
G1 X123.042 Y148.839 E0.02365
G1 X123.042 Y116.857 E1.00278
G1 X123.796 Y116.857 E0.02365
G1 X123.796 Y148.839 E1.00278
G1 X124.550 Y148.839 E0.02365
G1 X124.550 Y116.857 E1.00278
G1 X125.304 Y116.857 E0.02365
G1 X125.304 Y148.839 E1.00278
G1 X126.058 Y148.839 E0.02365
G1 X126.058 Y116.857 E1.00278
G1 X126.812 Y116.857 E0.02365
G1 X126.812 Y149.009 E1.00810
G1 E-3.50000 F3600.000
;WIPE_START
G1 F7200.000
G1 X126.812 Y146.009 E-1.42500
;WIPE_END
G1 E-0.07500 F3600.000
G1 X126.812 Y149.009 F9000.000
G1 X126.812 Y149.009
G1 X119.813 Y150.087
G1 E5.00000 F2400.000
;TYPE:Perimeter
G1 F1200.000
G1 X111.187 Y150.087 E0.27046
G1 X111.187 Y133.662 E0.51499
G1 X119.813 Y133.662 E0.27046
G1 X119.813 Y150.027 E0.51311
G1 X120.190 Y150.464 F9000.000
;TYPE:External perimeter
G1 F1200.000
G1 X110.810 Y150.464 E0.29410
G1 X110.810 Y133.285 E0.53863
G1 X120.190 Y133.285 E0.29410
G1 X120.190 Y150.404 E0.53675
G1 X119.815 Y150.324 F9000.000
G1 E-5.00000 F3600.000
G1 X119.700 Y134.542 F9000.000
G1 E5.00000 F2400.000
;TYPE:Solid infill
;WIDTH:0.4222
G1 F1200.000
G1 X119.103 Y133.945 E0.02664
G1 X118.566 Y133.945 E0.01692
G1 X119.530 Y134.908 E0.04299
G1 X119.530 Y135.445 E0.01692
G1 X118.030 Y133.945 E0.06692
G1 X117.493 Y133.945 E0.01692
G1 X119.530 Y135.981 E0.09084
G1 X119.530 Y136.518 E0.01692
G1 X116.957 Y133.945 E0.11476
G1 X116.421 Y133.945 E0.01692
G1 X119.530 Y137.054 E0.13868
G1 X119.530 Y137.590 E0.01692
G1 X115.884 Y133.945 E0.16261
G1 X115.348 Y133.945 E0.01692
G1 X119.530 Y138.127 E0.18653
G1 X119.530 Y138.663 E0.01692
G1 X114.812 Y133.945 E0.21045
G1 X114.275 Y133.945 E0.01692
G1 X119.530 Y139.200 E0.23438
G1 X119.530 Y139.736 E0.01692
G1 X113.739 Y133.945 E0.25830
G1 X113.202 Y133.945 E0.01692
G1 X119.530 Y140.272 E0.28222
G1 X119.530 Y140.809 E0.01692
G1 X112.666 Y133.945 E0.30614
G1 X112.130 Y133.945 E0.01692
G1 X119.530 Y141.345 E0.33007
G1 X119.530 Y141.881 E0.01692
G1 X111.593 Y133.945 E0.35399
G1 X111.470 Y133.945 E0.00389
G1 X111.470 Y134.358 E0.01303
G1 X119.530 Y142.418 E0.35949
G1 X119.530 Y142.954 E0.01692
G1 X111.470 Y134.894 E0.35949
G1 X111.470 Y135.430 E0.01692
G1 X119.530 Y143.491 E0.35949
G1 X119.530 Y144.027 E0.01692
G1 X111.470 Y135.967 E0.35949
G1 X111.470 Y136.503 E0.01692
G1 X119.530 Y144.563 E0.35949
G1 X119.530 Y145.100 E0.01692
G1 X111.470 Y137.039 E0.35949
G1 X111.470 Y137.576 E0.01692
G1 X119.530 Y145.636 E0.35949
G1 X119.530 Y146.173 E0.01692
G1 X111.470 Y138.112 E0.35949
G1 X111.470 Y138.649 E0.01692
G1 X119.530 Y146.709 E0.35949
G1 X119.530 Y147.245 E0.01692
G1 X111.470 Y139.185 E0.35949
G1 X111.470 Y139.721 E0.01692
G1 X119.530 Y147.782 E0.35949
G1 X119.530 Y148.318 E0.01692
G1 X111.470 Y140.258 E0.35949
G1 X111.470 Y140.794 E0.01692
G1 X119.530 Y148.854 E0.35949
G1 X119.530 Y149.391 E0.01692
G1 X111.470 Y141.331 E0.35949
G1 X111.470 Y141.867 E0.01692
G1 X119.407 Y149.804 E0.35399
G1 X118.870 Y149.804 E0.01692
G1 X111.470 Y142.403 E0.33006
G1 X111.470 Y142.940 E0.01692
G1 X118.334 Y149.804 E0.30614
G1 X117.798 Y149.804 E0.01692
G1 X111.470 Y143.476 E0.28222
G1 X111.470 Y144.012 E0.01692
G1 X117.261 Y149.804 E0.25829
G1 X116.725 Y149.804 E0.01692
G1 X111.470 Y144.549 E0.23437
G1 X111.470 Y145.085 E0.01692
G1 X116.188 Y149.804 E0.21045
G1 X115.652 Y149.804 E0.01692
G1 X111.470 Y145.622 E0.18653
G1 X111.470 Y146.158 E0.01692
G1 X115.116 Y149.804 E0.16260
G1 X114.579 Y149.804 E0.01692
G1 X111.470 Y146.694 E0.13868
G1 X111.470 Y147.231 E0.01692
G1 X114.043 Y149.804 E0.11476
G1 X113.506 Y149.804 E0.01692
G1 X111.470 Y147.767 E0.09083
G1 X111.470 Y148.304 E0.01692
G1 X112.970 Y149.804 E0.06691
G1 X112.434 Y149.804 E0.01692
G1 X111.470 Y148.840 E0.04299
G1 X111.470 Y149.376 E0.01692
G1 X112.067 Y149.973 E0.02663
G1 E-3.50000 F3600.000
;WIPE_START
G1 F7200.000
G1 X111.470 Y149.376 E-0.40114
G1 X111.470 Y148.840 E-0.25478
G1 X112.434 Y149.804 E-0.64747
G1 X112.690 Y149.804 E-0.12162
;WIPE_END
G1 E-0.07500 F3600.000
G1 X112.067 Y149.973 F9000.000
G1 X112.067 Y149.973
G1 X111.786 Y133.175
G1 X111.187 Y97.288
G1 E5.00000 F2400.000
;TYPE:Perimeter
;WIDTH:0.42
G1 F1200.000
G1 X111.187 Y80.913 E0.51340
G1 X119.813 Y80.913 E0.27046
G1 X119.813 Y97.288 E0.51340
G1 X111.247 Y97.288 E0.26858
G1 X110.810 Y97.665 F9000.000
;TYPE:External perimeter
G1 F1200.000
G1 X110.810 Y80.536 E0.53705
G1 X120.190 Y80.536 E0.29410
G1 X120.190 Y97.665 E0.53705
G1 X110.870 Y97.665 E0.29222
G1 X110.876 Y97.270 F9000.000
G1 E-5.00000 F3600.000
G1 X119.700 Y81.792 F9000.000
G1 E5.00000 F2400.000
;TYPE:Solid infill
;WIDTH:0.421421
G1 F1200.000
G1 X119.104 Y81.196 E0.02651
G1 X118.569 Y81.196 E0.01685
G1 X119.530 Y82.157 E0.04278
G1 X119.530 Y82.693 E0.01685
G1 X118.034 Y81.196 E0.06661
G1 X117.498 Y81.196 E0.01685
G1 X119.530 Y83.228 E0.09043
G1 X119.530 Y83.763 E0.01685
G1 X116.963 Y81.196 E0.11426
G1 X116.428 Y81.196 E0.01685
G1 X119.530 Y84.299 E0.13808
G1 X119.530 Y84.834 E0.01685
G1 X115.893 Y81.196 E0.16191
G1 X115.357 Y81.196 E0.01685
G1 X119.530 Y85.369 E0.18573
G1 X119.530 Y85.904 E0.01685
G1 X114.822 Y81.196 E0.20955
G1 X114.287 Y81.196 E0.01685
G1 X119.530 Y86.440 E0.23338
G1 X119.530 Y86.975 E0.01685
G1 X113.751 Y81.196 E0.25720
G1 X113.216 Y81.196 E0.01685
G1 X119.530 Y87.510 E0.28103
G1 X119.530 Y88.046 E0.01685
G1 X112.681 Y81.196 E0.30485
G1 X112.146 Y81.196 E0.01685
G1 X119.530 Y88.581 E0.32868
G1 X119.530 Y89.116 E0.01685
G1 X111.610 Y81.196 E0.35250
G1 X111.470 Y81.196 E0.00442
G1 X111.470 Y81.591 E0.01243
G1 X119.530 Y89.651 E0.35875
G1 X119.530 Y90.187 E0.01685
G1 X111.470 Y82.126 E0.35875
G1 X111.470 Y82.662 E0.01685
G1 X119.530 Y90.722 E0.35875
G1 X119.530 Y91.257 E0.01685
G1 X111.470 Y83.197 E0.35875
G1 X111.470 Y83.732 E0.01685
G1 X119.530 Y91.792 E0.35875
G1 X119.530 Y92.328 E0.01685
G1 X111.470 Y84.268 E0.35875
G1 X111.470 Y84.803 E0.01685
G1 X119.530 Y92.863 E0.35875
G1 X119.530 Y93.398 E0.01685
G1 X111.470 Y85.338 E0.35875
G1 X111.470 Y85.873 E0.01685
G1 X119.530 Y93.934 E0.35875
G1 X119.530 Y94.469 E0.01685
G1 X111.470 Y86.409 E0.35875
G1 X111.470 Y86.944 E0.01685
G1 X119.530 Y95.004 E0.35875
G1 X119.530 Y95.539 E0.01685
G1 X111.470 Y87.479 E0.35875
G1 X111.470 Y88.014 E0.01685
G1 X119.530 Y96.075 E0.35875
G1 X119.530 Y96.610 E0.01685
G1 X111.470 Y88.550 E0.35875
G1 X111.470 Y89.085 E0.01685
G1 X119.390 Y97.005 E0.35250
G1 X118.854 Y97.005 E0.01685
G1 X111.470 Y89.620 E0.32867
G1 X111.470 Y90.156 E0.01685
G1 X118.319 Y97.005 E0.30485
G1 X117.784 Y97.005 E0.01685
G1 X111.470 Y90.691 E0.28103
G1 X111.470 Y91.226 E0.01685
G1 X117.249 Y97.005 E0.25720
G1 X116.713 Y97.005 E0.01685
G1 X111.470 Y91.761 E0.23338
G1 X111.470 Y92.297 E0.01685
G1 X116.178 Y97.005 E0.20955
G1 X115.643 Y97.005 E0.01685
G1 X111.470 Y92.832 E0.18573
G1 X111.470 Y93.367 E0.01685
G1 X115.107 Y97.005 E0.16190
G1 X114.572 Y97.005 E0.01685
G1 X111.470 Y93.903 E0.13808
G1 X111.470 Y94.438 E0.01685
G1 X114.037 Y97.005 E0.11425
G1 X113.502 Y97.005 E0.01685
G1 X111.470 Y94.973 E0.09043
G1 X111.470 Y95.508 E0.01685
G1 X112.966 Y97.005 E0.06660
G1 X112.431 Y97.005 E0.01685
G1 X111.470 Y96.044 E0.04278
G1 X111.470 Y96.579 E0.01685
G1 X112.065 Y97.174 E0.02651
;LAYER_CHANGE
;Z:0.4
;HEIGHT:0.2
;BEFORE_LAYER_CHANGE
G92 E0
;0.4


G1 E-3.50000 F3600.000
;WIPE_START
G1 F7200.000
G1 X111.470 Y96.579 E-0.40004
G1 X111.470 Y96.044 E-0.25426
G1 X112.431 Y97.005 E-0.64563
G1 X112.694 Y97.005 E-0.12508
;WIPE_END
G1 E-0.07500 F3600.000
G1 Z0.400 F9000.000
;AFTER_LAYER_CHANGE
;0.4
G1 X108.363 Y79.186
G1 E5.00000 F2400.000
;TYPE:Skirt
;WIDTH:0.42
G1 X108.794 Y78.571 E0.02355
G1 X109.396 Y78.121 E0.02355
G1 X110.112 Y77.881 E0.02367
G1 X120.504 Y77.849 E0.32584
G1 X121.173 Y77.946 E0.02119
G1 X127.814 Y80.005 E0.21802
G1 X128.322 Y80.325 E0.01882
G1 X128.734 Y80.761 E0.01882
G1 X129.025 Y81.291 E0.01894
G1 X129.172 Y81.873 E0.01882
G1 X129.167 Y149.332 E2.11514
G1 X129.014 Y149.904 E0.01858
G1 X128.722 Y150.424 E0.01870
G1 X128.310 Y150.855 E0.01870
G1 X127.807 Y151.168 E0.01858
G1 X120.966 Y153.105 E0.22291
G1 X110.177 Y153.129 E0.33827
G1 X109.483 Y152.922 E0.02272
G1 X108.885 Y152.518 E0.02260
G1 X108.437 Y151.954 E0.02260
G1 X108.178 Y151.281 E0.02260
G1 X106.336 Y135.584 E0.49556
G1 X106.337 Y95.187 E1.26660
G1 X108.145 Y79.904 E0.48254
G1 X108.345 Y79.243 E0.02167
G1 E-3.50000 F3600.000
;WIPE_START
G1 F7200.000
G1 X108.794 Y78.571 E-0.38392
G1 X109.396 Y78.121 E-0.35674
G1 X110.112 Y77.881 E-0.35852
G1 X110.797 Y77.879 E-0.32582
;WIPE_END
G1 E-0.07500 F3600.000
G1 X108.345 Y79.243 F9000.000
G1 X108.345 Y79.243
G1 X111.132 Y80.858
G1 E5.00000 F2400.000
;TYPE:Perimeter
;WIDTH:0.45
G1 X119.868 Y80.858 E0.29570
G1 X119.868 Y97.343 E0.55797
G1 X111.132 Y97.343 E0.29570
G1 X111.132 Y80.918 E0.55594
G1 X110.725 Y80.451 F9000.000
;TYPE:External perimeter
G1 F1500.000
G1 X120.275 Y80.451 E0.32326
G1 X120.275 Y97.750 E0.58553
G1 X110.725 Y97.750 E0.32326
G1 X110.725 Y80.511 E0.58350
G1 X111.100 Y80.591 F9000.000
G1 E-5.00000 F3600.000
G1 X118.921 Y97.220 F9000.000
G1 E5.00000 F2400.000
;TYPE:Solid infill
;WIDTH:0.450952
G1 X119.563 Y96.579 E0.03079
G1 X119.563 Y96.002 E0.01958
G1 X118.527 Y97.037 E0.04969
G1 X117.950 Y97.037 E0.01958
G1 X119.563 Y95.425 E0.07738
G1 X119.563 Y94.848 E0.01958
G1 X117.373 Y97.037 E0.10506
G1 X116.796 Y97.037 E0.01958
G1 X119.563 Y94.271 E0.13275
G1 X119.563 Y93.694 E0.01958
G1 X116.219 Y97.037 E0.16044
G1 X115.642 Y97.037 E0.01958
G1 X119.563 Y93.116 E0.18813
G1 X119.563 Y92.539 E0.01958
G1 X115.065 Y97.037 E0.21581
G1 X114.488 Y97.037 E0.01958
G1 X119.563 Y91.962 E0.24350
G1 X119.563 Y91.385 E0.01958
G1 X113.911 Y97.037 E0.27119
G1 X113.334 Y97.037 E0.01958
G1 X119.563 Y90.808 E0.29888
G1 X119.563 Y90.231 E0.01958
G1 X112.757 Y97.037 E0.32656
G1 X112.180 Y97.037 E0.01958
G1 X119.563 Y89.654 E0.35425
G1 X119.563 Y89.077 E0.01958
G1 X111.602 Y97.037 E0.38194
G1 X111.437 Y97.037 E0.00560
G1 X111.437 Y96.625 E0.01398
G1 X119.563 Y88.500 E0.38986
G1 X119.563 Y87.923 E0.01958
G1 X111.437 Y96.048 E0.38986
G1 X111.437 Y95.471 E0.01958
G1 X119.563 Y87.346 E0.38986
G1 X119.563 Y86.769 E0.01958
G1 X111.437 Y94.894 E0.38986
G1 X111.437 Y94.317 E0.01958
G1 X119.563 Y86.192 E0.38986
G1 X119.563 Y85.615 E0.01958
G1 X111.437 Y93.740 E0.38986
G1 X111.437 Y93.163 E0.01958
G1 X119.563 Y85.038 E0.38986
G1 X119.563 Y84.461 E0.01958
G1 X111.437 Y92.586 E0.38986
G1 X111.437 Y92.009 E0.01958
G1 X119.563 Y83.884 E0.38986
G1 X119.563 Y83.307 E0.01958
G1 X111.437 Y91.432 E0.38986
G1 X111.437 Y90.855 E0.01958
G1 X119.563 Y82.730 E0.38986
G1 X119.563 Y82.153 E0.01958
G1 X111.437 Y90.278 E0.38986
G1 X111.437 Y89.701 E0.01958
G1 X119.563 Y81.576 E0.38986
G1 X119.563 Y81.164 E0.01397
G1 X119.397 Y81.164 E0.00561
