; generated by PrusaSlicer 2.3.0 on 2021-04-23 at 20:06:50 UTC

; 

; external perimeters extrusion width = 0.45mm
; perimeters extrusion width = 0.45mm
; infill extrusion width = 0.45mm
; solid infill extrusion width = 0.45mm
; top infill extrusion width = 0.40mm
; support material extrusion width = 0.38mm
; first layer extrusion width = 0.42mm

M201 X500 Y500 Z100 E5000 ; sets maximum accelerations, mm/sec^2
M203 X500 Y500 Z10 E60 ; sets maximum feedrates, mm/sec
M204 P500 R1000 T500 ; sets acceleration (P, T) and retract acceleration (R), mm/sec^2
M205 X8.00 Y8.00 Z0.40 E5.00 ; sets the jerk limits, mm/sec
M205 S0 T0 ; sets the minimum extruding and travel feed rate, mm/sec
M107
;TYPE:Custom
G90 ; use absolute coordinates
M83 ; extruder relative mode
M104 S120 ; set temporary nozzle temp to prevent oozing during homing and auto bed leveling
M140 S90 ; set final bed temp
G4 S10 ; allow partial nozzle warmup
G28 ; home all axis
G1 Z50 F240
G1 X2 Y10 F3000
M104 S245 ; set final nozzle temp
M190 S90 ; wait for bed temp to stabilize
M109 S245 ; wait for nozzle temp to stabilize
G1 Z0.28 F240
G92 E0
G1 Y140 E10 F1500 ; prime the nozzle
G1 X2.3 F5000
G92 E0
G1 Y10 E10 F1200 ; prime the nozzle
G92 E0
G21 ; set units to millimeters
G90 ; use absolute coordinates
M83 ; use relative distances for extrusion
; Filament gcode
;LAYER_CHANGE
;Z:0.2
;HEIGHT:0.2
;BEFORE_LAYER_CHANGE
G92 E0
;0.2


G1 E-5.00000 F3600.000
G1 Z0.200 F9000.000
;AFTER_LAYER_CHANGE
;0.2
G1 X79.470 Y33.101
G1 E5.00000 F2400.000
;TYPE:Skirt
;WIDTH:0.42
G1 F1200.000
G1 X79.819 Y32.509 E0.02154
G1 X80.326 Y32.040 E0.02166
G1 X80.943 Y31.737 E0.02154
G1 X81.620 Y31.623 E0.02154
G1 X149.333 Y31.623 E2.12309
G1 X150.235 Y31.802 E0.02884
G1 X150.999 Y32.308 E0.02872
G1 X151.516 Y33.069 E0.02884
G1 X151.706 Y33.968 E0.02884
G1 X151.706 Y197.004 E5.11186
G1 X151.530 Y197.899 E0.02860
G1 X151.181 Y198.491 E0.02154
G1 X150.674 Y198.960 E0.02166
G1 X150.054 Y199.264 E0.02166
G1 X149.372 Y199.377 E0.02166
G1 X81.663 Y199.377 E2.12298
G1 X80.772 Y199.201 E0.02849
G1 X80.174 Y198.847 E0.02178
G1 X79.704 Y198.335 E0.02178
G1 X79.401 Y197.706 E0.02190
G1 X79.294 Y197.020 E0.02178
G1 X79.294 Y33.996 E5.11150
G1 X79.458 Y33.160 E0.02672
G1 E-3.50000 F3600.000
;WIPE_START
G1 F7200.000
G1 X79.819 Y32.509 E-0.35335
G1 X80.326 Y32.040 E-0.32812
G1 X80.943 Y31.737 E-0.32633
G1 X81.620 Y31.623 E-0.32633
G1 X81.811 Y31.623 E-0.09087
;WIPE_END
G1 E-0.07500 F3600.000
G1 X96.646 Y44.289 F9000.000
G1 E5.00000 F2400.000
;TYPE:Support material
G1 F1200.000
G1 X96.646 Y59.843 E0.48768
G1 X97.400 Y59.843 E0.02365
G1 X97.400 Y44.459 E0.48236
G1 X98.154 Y44.459 E0.02365
G1 X98.154 Y59.843 E0.48236
G1 X98.442 Y59.843 E0.00901
G1 X98.442 Y62.188 E0.07355
G1 X98.909 Y62.188 E0.01463
G1 X98.909 Y44.459 E0.55590
G1 X99.663 Y44.459 E0.02365
G1 X99.663 Y62.188 E0.55590
G1 X100.417 Y62.188 E0.02365
G1 X100.417 Y44.459 E0.55590
G1 X101.171 Y44.459 E0.02365
G1 X101.171 Y62.188 E0.55590
G1 X101.925 Y62.188 E0.02365
G1 X101.925 Y44.459 E0.55590
G1 X102.679 Y44.459 E0.02365
G1 X102.679 Y62.188 E0.55590
G1 X103.433 Y62.188 E0.02365
G1 X103.433 Y44.459 E0.55590
G1 X104.188 Y44.459 E0.02365
G1 X104.188 Y62.188 E0.55590
G1 X104.942 Y62.188 E0.02365
G1 X104.942 Y44.459 E0.55590
G1 X105.696 Y44.459 E0.02365
G1 X105.696 Y62.188 E0.55590
G1 X106.450 Y62.188 E0.02365
G1 X106.450 Y44.459 E0.55590
G1 X107.204 Y44.459 E0.02365
G1 X107.204 Y62.188 E0.55590
G1 X107.958 Y62.188 E0.02365
G1 X107.958 Y44.459 E0.55590
G1 X108.713 Y44.459 E0.02365
G1 X108.713 Y62.188 E0.55590
G1 X109.467 Y62.188 E0.02365
G1 X109.467 Y44.459 E0.55590
G1 X110.221 Y44.459 E0.02365
G1 X110.221 Y62.188 E0.55590
G1 X110.975 Y62.188 E0.02365
G1 X110.975 Y44.459 E0.55590
G1 X111.729 Y44.459 E0.02365
G1 X111.729 Y62.188 E0.55590
G1 X112.483 Y62.188 E0.02365
G1 X112.483 Y44.459 E0.55590
G1 X113.238 Y44.459 E0.02365
G1 X113.238 Y62.188 E0.55590
G1 X113.992 Y62.188 E0.02365
G1 X113.992 Y44.459 E0.55590
G1 X114.746 Y44.459 E0.02365
G1 X114.746 Y62.188 E0.55590
G1 X115.500 Y62.188 E0.02365
G1 X115.500 Y44.459 E0.55590
G1 X116.139 Y44.459 E0.02002
G1 X116.139 Y44.492 E0.00103
G1 X116.254 Y44.492 E0.00363
G1 X116.254 Y57.497 E0.40778
G1 X117.008 Y57.497 E0.02365
G1 X117.008 Y44.492 E0.40778
G1 X117.762 Y44.492 E0.02365
G1 X117.762 Y57.667 E0.41310
G1 E-3.50000 F3600.000
;WIPE_START
G1 F7200.000
G1 X117.762 Y54.667 E-1.42500
;WIPE_END
G1 E-0.07500 F3600.000
G1 X138.879 Y44.289 F9000.000
G1 E5.00000 F2400.000
G1 F1200.000
G1 X138.879 Y186.541 E4.46023
G1 X139.633 Y186.541 E0.02365
G1 X139.633 Y44.459 E4.45491
G1 X140.387 Y44.459 E0.02365
G1 X140.387 Y186.541 E4.45491
G1 X141.141 Y186.541 E0.02365
G1 X141.141 Y44.459 E4.45491
G1 X141.896 Y44.459 E0.02365
G1 X141.896 Y186.541 E4.45491
G1 X142.650 Y186.541 E0.02365
G1 X142.650 Y44.459 E4.45491
G1 X143.404 Y44.459 E0.02365
G1 X143.404 Y186.541 E4.45491
G1 X144.158 Y186.541 E0.02365
G1 X144.158 Y44.459 E4.45491
G1 X144.912 Y44.459 E0.02365
G1 X144.912 Y186.541 E4.45491
G1 X145.666 Y186.541 E0.02365
G1 X145.666 Y44.459 E4.45491
G1 X146.421 Y44.459 E0.02365
G1 X146.421 Y186.711 E4.46023
G1 E-3.50000 F3600.000
;WIPE_START
G1 F7200.000
G1 X146.421 Y183.711 E-1.42500
;WIPE_END
G1 E-0.07500 F3600.000
G1 X117.762 Y186.678 F9000.000
G1 E5.00000 F2400.000
G1 F1200.000
G1 X117.762 Y173.503 E0.41310
G1 X117.008 Y173.503 E0.02365
G1 X117.008 Y186.508 E0.40778
G1 X116.254 Y186.508 E0.02365
G1 X116.254 Y173.503 E0.40778
G1 X116.139 Y173.503 E0.00363
G1 X116.139 Y168.812 E0.14709
G1 X115.500 Y168.812 E0.02002
G1 X115.500 Y186.541 E0.55590
G1 X114.746 Y186.541 E0.02365
G1 X114.746 Y168.812 E0.55590
G1 X113.992 Y168.812 E0.02365
G1 X113.992 Y186.541 E0.55590
G1 X113.238 Y186.541 E0.02365
G1 X113.238 Y168.812 E0.55590
G1 X112.483 Y168.812 E0.02365
G1 X112.483 Y186.541 E0.55590
G1 X111.729 Y186.541 E0.02365
G1 X111.729 Y168.812 E0.55590
G1 X110.975 Y168.812 E0.02365
G1 X110.975 Y186.541 E0.55590
G1 X110.221 Y186.541 E0.02365
G1 X110.221 Y168.812 E0.55590
G1 X109.467 Y168.812 E0.02365
G1 X109.467 Y186.541 E0.55590
G1 X108.713 Y186.541 E0.02365
G1 X108.713 Y168.812 E0.55590
G1 X107.958 Y168.812 E0.02365
G1 X107.958 Y186.541 E0.55590
G1 X107.204 Y186.541 E0.02365
G1 X107.204 Y168.812 E0.55590
G1 X106.450 Y168.812 E0.02365
G1 X106.450 Y186.541 E0.55590
G1 X105.696 Y186.541 E0.02365
G1 X105.696 Y168.812 E0.55590
G1 X104.942 Y168.812 E0.02365
G1 X104.942 Y186.541 E0.55590
G1 X104.188 Y186.541 E0.02365
G1 X104.188 Y168.812 E0.55590
G1 X103.433 Y168.812 E0.02365
G1 X103.433 Y186.541 E0.55590
G1 X102.679 Y186.541 E0.02365
G1 X102.679 Y168.812 E0.55590
G1 X101.925 Y168.812 E0.02365
G1 X101.925 Y186.541 E0.55590
G1 X101.171 Y186.541 E0.02365
G1 X101.171 Y168.812 E0.55590
G1 X100.417 Y168.812 E0.02365
G1 X100.417 Y186.541 E0.55590
G1 X99.663 Y186.541 E0.02365
G1 X99.663 Y168.812 E0.55590
G1 X98.908 Y168.812 E0.02365
G1 X98.908 Y186.541 E0.55590
G1 X98.154 Y186.541 E0.02365
G1 X98.154 Y171.157 E0.48236
G1 X97.400 Y171.157 E0.02365
G1 X97.400 Y186.541 E0.48236
G1 X96.646 Y186.541 E0.02365
G1 X96.646 Y170.988 E0.48768
G1 E-3.50000 F3600.000
;WIPE_START
G1 F7200.000
G1 X96.646 Y173.988 E-1.42500
;WIPE_END
G1 E-0.07500 F3600.000
G1 X96.646 Y132.728 F9000.000
G1 E5.00000 F2400.000
G1 F1200.000
G1 X96.646 Y98.442 E1.07502
G1 X97.400 Y98.442 E0.02365
G1 X97.400 Y132.558 E1.06970
G1 X98.154 Y132.558 E0.02365
G1 X98.154 Y98.442 E1.06970
G1 X98.909 Y98.442 E0.02365
G1 X98.909 Y132.558 E1.06970
G1 X99.663 Y132.558 E0.02365
G1 X99.663 Y98.442 E1.06970
G1 X100.417 Y98.442 E0.02365
G1 X100.417 Y132.558 E1.06970
G1 X100.787 Y132.558 E0.01162
G1 X100.787 Y134.904 E0.07355
G1 X101.171 Y134.904 E0.01203
G1 X101.171 Y96.096 E1.21679
G1 X101.925 Y96.096 E0.02365
G1 X101.925 Y134.904 E1.21679
G1 X102.679 Y134.904 E0.02365
G1 X102.679 Y96.096 E1.21679
G1 X103.433 Y96.096 E0.02365
G1 X103.433 Y134.904 E1.21679
G1 X104.188 Y134.904 E0.02365
G1 X104.188 Y96.096 E1.21679
G1 X104.942 Y96.096 E0.02365
G1 X104.942 Y134.904 E1.21679
G1 X105.696 Y134.904 E0.02365
G1 X105.696 Y96.096 E1.21679
G1 X106.450 Y96.096 E0.02365
G1 X106.450 Y134.904 E1.21679
G1 X107.204 Y134.904 E0.02365
G1 X107.204 Y96.096 E1.21679
G1 X107.958 Y96.096 E0.02365
G1 X107.958 Y134.904 E1.21679
G1 X108.713 Y134.904 E0.02365
G1 X108.713 Y96.096 E1.21679
G1 X109.467 Y96.096 E0.02365
G1 X109.467 Y134.904 E1.21679
G1 X110.221 Y134.904 E0.02365
G1 X110.221 Y96.096 E1.21679
G1 X110.975 Y96.096 E0.02365
G1 X110.975 Y134.904 E1.21679
G1 X111.729 Y134.904 E0.02365
G1 X111.729 Y96.096 E1.21679
G1 X112.483 Y96.096 E0.02365
G1 X112.483 Y134.904 E1.21679
G1 X113.238 Y134.904 E0.02365
G1 X113.238 Y96.096 E1.21679
G1 X113.793 Y96.096 E0.01741
G1 X113.793 Y98.442 E0.07355
G1 X113.992 Y98.442 E0.00623
G1 X113.992 Y132.558 E1.06970
G1 X114.746 Y132.558 E0.02365
G1 X114.746 Y98.442 E1.06970
G1 X115.500 Y98.442 E0.02365
G1 X115.500 Y132.728 E1.07502
G1 E-3.50000 F3600.000
;WIPE_START
G1 F7200.000
G1 X115.500 Y129.728 E-1.42500
;WIPE_END
G1 E-0.07500 F3600.000
G1 X117.762 Y130.382 F9000.000
G1 E5.00000 F2400.000
G1 F1200.000
G1 X117.762 Y117.207 E0.41310
G1 X117.008 Y117.207 E0.02365
G1 X117.008 Y130.213 E0.40778
G1 X116.254 Y130.213 E0.02365
G1 X116.254 Y100.787 E0.92260
G1 X117.008 Y100.787 E0.02365
G1 X117.008 Y113.793 E0.40778
G1 X117.762 Y113.793 E0.02365
G1 X117.762 Y100.618 E0.41310
G1 E-3.50000 F3600.000
;WIPE_START
G1 F7200.000
G1 X117.762 Y103.618 E-1.42500
;WIPE_END
G1 E-0.07500 F3600.000
G1 X90.984 Y43.313 F9000.000
G1 E5.00000 F2400.000
;TYPE:Perimeter
G1 F1200.000
G1 X90.984 Y187.687 E4.52675
G1 X148.642 Y187.687 E1.80785
G1 X148.642 Y196.313 E0.27046
G1 X82.358 Y196.313 E2.07830
G1 X82.358 Y34.687 E5.06766
G1 X148.642 Y34.687 E2.07830
G1 X148.642 Y43.313 E0.27046
G1 X91.044 Y43.313 E1.80596
G1 X91.361 Y43.690 F9000.000
;TYPE:External perimeter
G1 F1200.000
G1 X91.361 Y187.310 E4.50310
G1 X149.019 Y187.310 E1.80785
G1 X149.019 Y196.690 E0.29410
G1 X81.981 Y196.690 E2.10195
G1 X81.981 Y34.310 E5.09131
G1 X149.019 Y34.310 E2.10195
G1 X149.019 Y43.690 E0.29410
G1 X91.421 Y43.690 E1.80596
G1 X90.961 Y43.711 F9000.000
G1 E-3.50000 F3600.000
;WIPE_START
G1 F7200.000
G1 X91.419 Y46.690 E-1.42500
;WIPE_END
G1 E-0.07500 F3600.000
G1 X147.766 Y34.800 F9000.000
G1 E5.00000 F2400.000
;TYPE:Solid infill
;WIDTH:0.420596
G1 F1200.000
G1 X148.359 Y35.394 E0.02637
G1 X148.359 Y35.928 E0.01677
G1 X147.401 Y34.970 E0.04256
G1 X146.867 Y34.970 E0.01677
G1 X148.359 Y36.462 E0.06628
G1 X148.359 Y36.996 E0.01677
G1 X146.333 Y34.970 E0.09000
G1 X145.799 Y34.970 E0.01677
G1 X148.359 Y37.530 E0.11372
G1 X148.359 Y38.065 E0.01677
G1 X145.265 Y34.970 E0.13744
G1 X144.731 Y34.970 E0.01677
G1 X148.359 Y38.599 E0.16116
G1 X148.359 Y39.133 E0.01677
G1 X144.196 Y34.970 E0.18488
G1 X143.662 Y34.970 E0.01677
G1 X148.359 Y39.667 E0.20861
G1 X148.359 Y40.201 E0.01677
G1 X143.128 Y34.970 E0.23233
G1 X142.594 Y34.970 E0.01677
G1 X148.359 Y40.735 E0.25605
G1 X148.359 Y41.269 E0.01677
G1 X142.060 Y34.970 E0.27977
G1 X141.526 Y34.970 E0.01677
G1 X148.359 Y41.803 E0.30349
G1 X148.359 Y42.338 E0.01677
G1 X140.992 Y34.970 E0.32721
G1 X140.458 Y34.970 E0.01677
G1 X148.359 Y42.872 E0.35093
G1 X148.359 Y43.030 E0.00498
G1 X147.984 Y43.030 E0.01180
G1 X139.924 Y34.970 E0.35797
G1 X139.389 Y34.970 E0.01677
G1 X147.450 Y43.030 E0.35797
G1 X146.916 Y43.030 E0.01677
G1 X138.855 Y34.970 E0.35797
G1 X138.321 Y34.970 E0.01677
G1 X146.381 Y43.030 E0.35797
G1 X145.847 Y43.030 E0.01677
G1 X137.787 Y34.970 E0.35797
G1 X137.253 Y34.970 E0.01677
G1 X145.313 Y43.030 E0.35797
G1 X144.779 Y43.030 E0.01677
G1 X136.719 Y34.970 E0.35797
G1 X136.185 Y34.970 E0.01677
G1 X144.245 Y43.030 E0.35797
G1 X143.711 Y43.030 E0.01677
G1 X135.651 Y34.970 E0.35797
G1 X135.117 Y34.970 E0.01677
G1 X143.177 Y43.030 E0.35797
G1 X142.643 Y43.030 E0.01677
G1 X134.582 Y34.970 E0.35797
G1 X134.048 Y34.970 E0.01677
G1 X142.109 Y43.030 E0.35797
G1 X141.574 Y43.030 E0.01677
G1 X133.514 Y34.970 E0.35797
G1 X132.980 Y34.970 E0.01677
G1 X141.040 Y43.030 E0.35797
G1 X140.506 Y43.030 E0.01677
G1 X132.446 Y34.970 E0.35797
G1 X131.912 Y34.970 E0.01677
G1 X139.972 Y43.030 E0.35797
G1 X139.438 Y43.030 E0.01677
G1 X131.378 Y34.970 E0.35797
G1 X130.844 Y34.970 E0.01677
G1 X138.904 Y43.030 E0.35797
G1 X138.370 Y43.030 E0.01677
G1 X130.309 Y34.970 E0.35797
G1 X129.775 Y34.970 E0.01677
G1 X137.836 Y43.030 E0.35797
G1 X137.302 Y43.030 E0.01677
G1 X129.241 Y34.970 E0.35797
G1 X128.707 Y34.970 E0.01677
G1 X136.767 Y43.030 E0.35797
G1 X136.233 Y43.030 E0.01677
G1 X128.173 Y34.970 E0.35797
G1 X127.639 Y34.970 E0.01677
G1 X135.699 Y43.030 E0.35797
G1 X135.165 Y43.030 E0.01677
G1 X127.105 Y34.970 E0.35797
G1 X126.571 Y34.970 E0.01677
G1 X134.631 Y43.030 E0.35797
G1 X134.097 Y43.030 E0.01677
G1 X126.037 Y34.970 E0.35797
G1 X125.502 Y34.970 E0.01677
G1 X133.563 Y43.030 E0.35797
G1 X133.029 Y43.030 E0.01677
G1 X124.968 Y34.970 E0.35797
G1 X124.434 Y34.970 E0.01677
G1 X132.494 Y43.030 E0.35797
G1 X131.960 Y43.030 E0.01677
G1 X123.900 Y34.970 E0.35797
G1 X123.366 Y34.970 E0.01677
G1 X131.426 Y43.030 E0.35797
G1 X130.892 Y43.030 E0.01677
G1 X122.832 Y34.970 E0.35797
G1 X122.298 Y34.970 E0.01677
G1 X130.358 Y43.030 E0.35797
G1 X129.824 Y43.030 E0.01677
G1 X121.764 Y34.970 E0.35797
G1 X121.230 Y34.970 E0.01677
G1 X129.290 Y43.030 E0.35797
G1 X128.756 Y43.030 E0.01677
G1 X120.695 Y34.970 E0.35797
G1 X120.161 Y34.970 E0.01677
G1 X128.222 Y43.030 E0.35797
G1 X127.687 Y43.030 E0.01677
G1 X119.627 Y34.970 E0.35797
G1 X119.093 Y34.970 E0.01677
G1 X127.153 Y43.030 E0.35797
G1 X126.619 Y43.030 E0.01677
G1 X118.559 Y34.970 E0.35797
G1 X118.025 Y34.970 E0.01677
G1 X126.085 Y43.030 E0.35797
G1 X125.551 Y43.030 E0.01677
G1 X117.491 Y34.970 E0.35797
G1 X116.957 Y34.970 E0.01677
G1 X125.017 Y43.030 E0.35797
G1 X124.483 Y43.030 E0.01677
G1 X116.423 Y34.970 E0.35797
G1 X115.888 Y34.970 E0.01677
G1 X123.949 Y43.030 E0.35797
G1 X123.415 Y43.030 E0.01677
G1 X115.354 Y34.970 E0.35797
G1 X114.820 Y34.970 E0.01677
G1 X122.880 Y43.030 E0.35797
G1 X122.346 Y43.030 E0.01677
G1 X114.286 Y34.970 E0.35797
G1 X113.752 Y34.970 E0.01677
G1 X121.812 Y43.030 E0.35797
G1 X121.278 Y43.030 E0.01677
G1 X113.218 Y34.970 E0.35797
G1 X112.684 Y34.970 E0.01677
G1 X120.744 Y43.030 E0.35797
G1 X120.210 Y43.030 E0.01677
G1 X112.150 Y34.970 E0.35797
G1 X111.615 Y34.970 E0.01677
G1 X119.676 Y43.030 E0.35797
G1 X119.142 Y43.030 E0.01677
G1 X111.081 Y34.970 E0.35797
G1 X110.547 Y34.970 E0.01677
G1 X118.608 Y43.030 E0.35797
G1 X118.073 Y43.030 E0.01677
G1 X110.013 Y34.970 E0.35797
G1 X109.479 Y34.970 E0.01677
G1 X117.539 Y43.030 E0.35797
G1 X117.005 Y43.030 E0.01677
G1 X108.945 Y34.970 E0.35797
G1 X108.411 Y34.970 E0.01677
G1 X116.471 Y43.030 E0.35797
G1 X115.937 Y43.030 E0.01677
G1 X107.877 Y34.970 E0.35797
G1 X107.343 Y34.970 E0.01677
G1 X115.403 Y43.030 E0.35797
G1 X114.869 Y43.030 E0.01677
G1 X106.808 Y34.970 E0.35797
G1 X106.274 Y34.970 E0.01677
G1 X114.335 Y43.030 E0.35797
G1 X113.800 Y43.030 E0.01677
G1 X105.740 Y34.970 E0.35797
G1 X105.206 Y34.970 E0.01677
G1 X113.266 Y43.030 E0.35797
G1 X112.732 Y43.030 E0.01677
G1 X104.672 Y34.970 E0.35797
G1 X104.138 Y34.970 E0.01677
G1 X112.198 Y43.030 E0.35797
G1 X111.664 Y43.030 E0.01677
G1 X103.604 Y34.970 E0.35797
G1 X103.070 Y34.970 E0.01677
G1 X111.130 Y43.030 E0.35797
G1 X110.596 Y43.030 E0.01677
G1 X102.536 Y34.970 E0.35797
G1 X102.001 Y34.970 E0.01677
G1 X110.062 Y43.030 E0.35797
G1 X109.528 Y43.030 E0.01677
G1 X101.467 Y34.970 E0.35797
G1 X100.933 Y34.970 E0.01677
G1 X108.993 Y43.030 E0.35797
G1 X108.459 Y43.030 E0.01677
G1 X100.399 Y34.970 E0.35797
G1 X99.865 Y34.970 E0.01677
G1 X107.925 Y43.030 E0.35797
G1 X107.391 Y43.030 E0.01677
G1 X99.331 Y34.970 E0.35797
G1 X98.797 Y34.970 E0.01677
G1 X106.857 Y43.030 E0.35797
G1 X106.323 Y43.030 E0.01677
G1 X98.263 Y34.970 E0.35797
G1 X97.729 Y34.970 E0.01677
G1 X105.789 Y43.030 E0.35797
G1 X105.255 Y43.030 E0.01677
G1 X97.194 Y34.970 E0.35797
G1 X96.660 Y34.970 E0.01677
G1 X104.721 Y43.030 E0.35797
G1 X104.186 Y43.030 E0.01677
G1 X96.126 Y34.970 E0.35797
G1 X95.592 Y34.970 E0.01677
G1 X103.652 Y43.030 E0.35797
G1 X103.118 Y43.030 E0.01677
