; generated by PrusaSlicer 2.3.0 on 2021-04-23 at 08:19:39 UTC

; 

; external perimeters extrusion width = 0.45mm
; perimeters extrusion width = 0.45mm
; infill extrusion width = 0.45mm
; solid infill extrusion width = 0.45mm
; top infill extrusion width = 0.40mm
; support material extrusion width = 0.38mm
; first layer extrusion width = 0.42mm

M201 X500 Y500 Z100 E5000 ; sets maximum accelerations, mm/sec^2
M203 X500 Y500 Z10 E60 ; sets maximum feedrates, mm/sec
M204 P500 R1000 T500 ; sets acceleration (P, T) and retract acceleration (R), mm/sec^2
M205 X8.00 Y8.00 Z0.40 E5.00 ; sets the jerk limits, mm/sec
M205 S0 T0 ; sets the minimum extruding and travel feed rate, mm/sec
M107
;TYPE:Custom
G90 ; use absolute coordinates
M83 ; extruder relative mode
M104 S120 ; set temporary nozzle temp to prevent oozing during homing and auto bed leveling
M140 S90 ; set final bed temp
G4 S10 ; allow partial nozzle warmup
G28 ; home all axis
G1 Z50 F240
G1 X2 Y10 F3000
M104 S245 ; set final nozzle temp
M190 S90 ; wait for bed temp to stabilize
M109 S245 ; wait for nozzle temp to stabilize
G1 Z0.28 F240
G92 E0
G1 Y140 E10 F1500 ; prime the nozzle
G1 X2.3 F5000
G92 E0
G1 Y10 E10 F1200 ; prime the nozzle
G92 E0
G21 ; set units to millimeters
G90 ; use absolute coordinates
M83 ; use relative distances for extrusion
; Filament gcode
;LAYER_CHANGE
;Z:0.2
;HEIGHT:0.2
;BEFORE_LAYER_CHANGE
G92 E0
;0.2


G1 E-5.00000 F3600.000
G1 Z0.200 F9000.000
;AFTER_LAYER_CHANGE
;0.2
G1 X61.197 Y28.533
G1 E5.00000 F2400.000
;TYPE:Skirt
;WIDTH:0.42
G1 F1200.000
G1 X61.541 Y28.074 E0.01799
G1 X63.293 Y26.349 E0.07710
G1 X63.950 Y25.992 E0.02343
G1 X64.681 Y25.857 E0.02331
G1 X166.497 Y25.856 E3.19238
G1 X166.989 Y25.907 E0.01550
G1 X167.456 Y26.058 E0.01538
G1 X167.882 Y26.301 E0.01538
G1 X168.249 Y26.626 E0.01538
G1 X169.792 Y28.644 E0.07965
G1 X170.031 Y29.203 E0.01906
G1 X170.120 Y29.804 E0.01906
G1 X170.120 Y201.285 E5.37666
G1 X170.040 Y201.895 E0.01929
G1 X169.803 Y202.467 E0.01941
G1 X169.456 Y202.929 E0.01811
G1 X167.704 Y204.654 E0.07710
G1 X167.046 Y205.009 E0.02343
G1 X166.311 Y205.143 E0.02343
G1 X64.495 Y205.144 E3.19238
G1 X63.885 Y205.062 E0.01929
G1 X63.316 Y204.827 E0.01929
G1 X62.705 Y204.323 E0.02484
G1 X61.281 Y202.472 E0.07323
G1 X60.987 Y201.856 E0.02142
G1 X60.880 Y201.181 E0.02142
G1 X60.880 Y29.715 E5.37619
G1 X60.960 Y29.105 E0.01929
G1 X61.174 Y28.588 E0.01753
G1 E-3.50000 F3600.000
;WIPE_START
G1 F7200.000
G1 X61.541 Y28.074 E-0.30022
G1 X63.228 Y26.413 E-1.12478
;WIPE_END
G1 E-0.07500 F3600.000
G1 X64.503 Y202.767 F9000.000
G1 E5.00000 F2400.000
;TYPE:Support material
G1 F1200.000
G1 X166.257 Y202.767 E3.19045
G1 X166.796 Y202.228 E0.02389
G1 X64.204 Y202.228 E3.21671
G1 X63.665 Y201.690 E0.02389
G1 X167.335 Y201.690 E3.25049
G1 X167.743 Y201.281 E0.01811
G1 X167.743 Y201.151 E0.00409
G1 X63.257 Y201.151 E3.27610
G1 X63.257 Y200.612 E0.01689
G1 X167.743 Y200.612 E3.27610
G1 X167.743 Y200.074 E0.01689
G1 X63.257 Y200.074 E3.27610
G1 X63.257 Y199.535 E0.01689
G1 X167.743 Y199.535 E3.27610
G1 X167.743 Y198.996 E0.01689
G1 X63.257 Y198.996 E3.27610
G1 X63.257 Y198.457 E0.01689
G1 X167.743 Y198.457 E3.27610
G1 X167.743 Y197.919 E0.01689
G1 X63.257 Y197.919 E3.27610
G1 X63.257 Y197.380 E0.01689
G1 X167.743 Y197.380 E3.27610
G1 X167.743 Y196.841 E0.01689
G1 X63.257 Y196.841 E3.27610
G1 X63.257 Y196.303 E0.01689
G1 X167.743 Y196.303 E3.27610
G1 X167.743 Y195.764 E0.01689
G1 X63.257 Y195.764 E3.27610
G1 X63.257 Y195.225 E0.01689
G1 X167.743 Y195.225 E3.27610
G1 X167.743 Y194.687 E0.01689
G1 X63.257 Y194.687 E3.27610
G1 X63.257 Y194.148 E0.01689
G1 X167.743 Y194.148 E3.27610
G1 X167.743 Y193.609 E0.01689
G1 X63.257 Y193.609 E3.27610
G1 X63.257 Y193.071 E0.01689
G1 X167.743 Y193.071 E3.27610
G1 X167.743 Y192.532 E0.01689
G1 X63.257 Y192.532 E3.27610
G1 X63.257 Y191.993 E0.01689
G1 X167.743 Y191.993 E3.27610
G1 X167.743 Y191.455 E0.01689
G1 X63.257 Y191.455 E3.27610
G1 X63.257 Y190.916 E0.01689
G1 X167.743 Y190.916 E3.27610
G1 X167.743 Y190.377 E0.01689
G1 X63.257 Y190.377 E3.27610
G1 X63.257 Y189.839 E0.01689
G1 X167.743 Y189.839 E3.27610
G1 X167.743 Y189.300 E0.01689
G1 X63.257 Y189.300 E3.27610
G1 X63.257 Y188.761 E0.01689
G1 X167.743 Y188.761 E3.27610
G1 X167.743 Y188.222 E0.01689
G1 X63.257 Y188.222 E3.27610
G1 X63.257 Y187.684 E0.01689
G1 X167.743 Y187.684 E3.27610
G1 X167.743 Y187.145 E0.01689
G1 X63.257 Y187.145 E3.27610
G1 X63.257 Y186.606 E0.01689
G1 X167.743 Y186.606 E3.27610
G1 X167.743 Y186.068 E0.01689
G1 X63.257 Y186.068 E3.27610
G1 X63.257 Y185.529 E0.01689
G1 X167.743 Y185.529 E3.27610
G1 X167.743 Y184.990 E0.01689
G1 X63.257 Y184.990 E3.27610
G1 X63.257 Y184.452 E0.01689
G1 X167.743 Y184.452 E3.27610
G1 X167.743 Y183.913 E0.01689
G1 X63.257 Y183.913 E3.27610
G1 X63.257 Y183.374 E0.01689
G1 X167.743 Y183.374 E3.27610
G1 X167.743 Y182.836 E0.01689
G1 X63.257 Y182.836 E3.27610
G1 X63.257 Y182.297 E0.01689
G1 X167.743 Y182.297 E3.27610
G1 X167.743 Y182.187 E0.00345
G1 X167.315 Y181.758 E0.01900
G1 X63.257 Y181.758 E3.26266
G1 X63.257 Y181.220 E0.01689
G1 X166.776 Y181.220 E3.24577
G1 X166.237 Y180.681 E0.02389
G1 X63.257 Y180.681 E3.22888
G1 X63.257 Y180.142 E0.01689
G1 X134.904 Y180.142 E2.24645
G1 X134.904 Y179.604 E0.01689
G1 X63.257 Y179.604 E2.24645
G1 X63.257 Y179.065 E0.01689
G1 X134.904 Y179.065 E2.24645
G1 X134.904 Y178.526 E0.01689
G1 X63.257 Y178.526 E2.24645
G1 X63.257 Y177.987 E0.01689
G1 X134.904 Y177.987 E2.24645
G1 X134.904 Y177.449 E0.01689
G1 X63.257 Y177.449 E2.24645
G1 X63.257 Y176.910 E0.01689
G1 X134.904 Y176.910 E2.24645
G1 X134.904 Y176.371 E0.01689
G1 X63.257 Y176.371 E2.24645
G1 X63.257 Y175.833 E0.01689
G1 X134.904 Y175.833 E2.24645
G1 X134.904 Y175.294 E0.01689
G1 X63.257 Y175.294 E2.24645
G1 X63.257 Y174.755 E0.01689
G1 X134.904 Y174.755 E2.24645
G1 X134.904 Y174.217 E0.01689
G1 X63.257 Y174.217 E2.24645
G1 X63.257 Y173.678 E0.01689
G1 X134.904 Y173.678 E2.24645
G1 X134.904 Y173.139 E0.01689
G1 X63.257 Y173.139 E2.24645
G1 X63.257 Y172.601 E0.01689
G1 X134.904 Y172.601 E2.24645
G1 X134.904 Y172.062 E0.01689
G1 X63.257 Y172.062 E2.24645
G1 X63.257 Y171.523 E0.01689
G1 X134.904 Y171.523 E2.24645
G1 X134.904 Y170.985 E0.01689
G1 X63.257 Y170.985 E2.24645
G1 X63.257 Y170.446 E0.01689
G1 X134.904 Y170.446 E2.24645
G1 X134.904 Y169.907 E0.01689
G1 X63.257 Y169.907 E2.24645
G1 X63.257 Y169.368 E0.01689
G1 X134.904 Y169.369 E2.24645
G1 X134.904 Y168.830 E0.01689
G1 X63.257 Y168.830 E2.24645
G1 X63.257 Y168.291 E0.01689
G1 X134.904 Y168.291 E2.24645
G1 X134.904 Y167.752 E0.01689
G1 X63.257 Y167.752 E2.24645
G1 X63.257 Y167.214 E0.01689
G1 X134.904 Y167.214 E2.24645
G1 X134.904 Y166.675 E0.01689
G1 X63.257 Y166.675 E2.24645
G1 X63.257 Y166.136 E0.01689
G1 X134.904 Y166.136 E2.24645
G1 X134.904 Y165.598 E0.01689
G1 X63.257 Y165.598 E2.24645
G1 X63.257 Y165.059 E0.01689
G1 X134.904 Y165.059 E2.24645
G1 X134.904 Y164.520 E0.01689
G1 X63.257 Y164.520 E2.24645
G1 X63.257 Y163.982 E0.01689
G1 X134.904 Y163.982 E2.24645
G1 X134.904 Y163.443 E0.01689
G1 X63.257 Y163.443 E2.24645
G1 X63.257 Y162.904 E0.01689
G1 X134.904 Y162.904 E2.24645
G1 X134.904 Y162.366 E0.01689
G1 X63.257 Y162.366 E2.24645
G1 X63.257 Y161.827 E0.01689
G1 X134.904 Y161.827 E2.24645
G1 X134.904 Y161.288 E0.01689
G1 X63.257 Y161.288 E2.24645
G1 X63.257 Y160.750 E0.01689
G1 X134.904 Y160.750 E2.24645
G1 X134.904 Y160.211 E0.01689
G1 X63.257 Y160.211 E2.24645
G1 X63.257 Y159.672 E0.01689
G1 X134.904 Y159.672 E2.24645
G1 X134.904 Y159.133 E0.01689
G1 X63.257 Y159.133 E2.24645
G1 X63.257 Y158.595 E0.01689
G1 X134.904 Y158.595 E2.24645
G1 X134.904 Y158.056 E0.01689
G1 X63.257 Y158.056 E2.24645
G1 X63.257 Y157.517 E0.01689
G1 X134.904 Y157.517 E2.24645
G1 X134.904 Y156.979 E0.01689
G1 X63.257 Y156.979 E2.24645
G1 X63.257 Y156.440 E0.01689
G1 X134.904 Y156.440 E2.24645
G1 X134.904 Y155.901 E0.01689
G1 X63.257 Y155.901 E2.24645
G1 X63.257 Y155.363 E0.01689
G1 X134.904 Y155.363 E2.24645
G1 X134.904 Y154.824 E0.01689
G1 X63.257 Y154.824 E2.24645
G1 X63.257 Y154.285 E0.01689
G1 X134.904 Y154.285 E2.24645
G1 X134.904 Y153.747 E0.01689
G1 X63.257 Y153.747 E2.24645
G1 X63.257 Y153.208 E0.01689
G1 X134.904 Y153.208 E2.24645
G1 X134.904 Y152.669 E0.01689
G1 X63.257 Y152.669 E2.24645
G1 X63.257 Y152.131 E0.01689
G1 X134.904 Y152.131 E2.24645
G1 X134.904 Y151.592 E0.01689
G1 X63.257 Y151.592 E2.24645
G1 X63.257 Y151.053 E0.01689
G1 X134.904 Y151.053 E2.24645
G1 X134.904 Y150.515 E0.01689
G1 X63.257 Y150.515 E2.24645
G1 X63.257 Y149.976 E0.01689
G1 X134.904 Y149.976 E2.24645
G1 X134.904 Y149.437 E0.01689
G1 X63.257 Y149.437 E2.24645
G1 X63.257 Y148.898 E0.01689
G1 X134.904 Y148.898 E2.24645
G1 X134.904 Y148.360 E0.01689
G1 X63.257 Y148.360 E2.24645
G1 X63.257 Y147.821 E0.01689
G1 X134.904 Y147.821 E2.24645
G1 X134.904 Y147.282 E0.01689
G1 X63.257 Y147.282 E2.24645
G1 X63.257 Y146.744 E0.01689
G1 X134.904 Y146.744 E2.24645
G1 X134.904 Y146.205 E0.01689
G1 X63.257 Y146.205 E2.24645
G1 X63.257 Y145.666 E0.01689
G1 X134.904 Y145.666 E2.24645
G1 X134.904 Y145.128 E0.01689
G1 X63.257 Y145.128 E2.24645
G1 X63.257 Y144.589 E0.01689
G1 X134.904 Y144.589 E2.24645
G1 X134.904 Y144.050 E0.01689
G1 X63.257 Y144.050 E2.24645
G1 X63.257 Y143.512 E0.01689
G1 X134.904 Y143.512 E2.24645
G1 X134.904 Y142.973 E0.01689
G1 X63.257 Y142.973 E2.24645
G1 X63.257 Y142.434 E0.01689
G1 X134.904 Y142.434 E2.24645
G1 X134.904 Y141.896 E0.01689
G1 X63.257 Y141.896 E2.24645
G1 X63.257 Y141.357 E0.01689
G1 X134.904 Y141.357 E2.24645
G1 X134.904 Y140.818 E0.01689
G1 X63.257 Y140.818 E2.24645
G1 X63.257 Y140.280 E0.01689
G1 X134.904 Y140.280 E2.24645
G1 X134.904 Y139.741 E0.01689
G1 X63.257 Y139.741 E2.24645
G1 X63.257 Y139.202 E0.01689
G1 X134.904 Y139.202 E2.24645
G1 X134.904 Y138.663 E0.01689
G1 X63.257 Y138.663 E2.24645
G1 X63.257 Y138.125 E0.01689
G1 X134.904 Y138.125 E2.24645
G1 X134.904 Y137.586 E0.01689
G1 X63.257 Y137.586 E2.24645
G1 X63.257 Y137.047 E0.01689
G1 X134.904 Y137.047 E2.24645
G1 X134.904 Y136.509 E0.01689
G1 X63.257 Y136.509 E2.24645
G1 X63.257 Y135.970 E0.01689
G1 X134.904 Y135.970 E2.24645
G1 X134.904 Y135.431 E0.01689
G1 X63.257 Y135.431 E2.24645
G1 X63.257 Y134.893 E0.01689
G1 X134.904 Y134.893 E2.24645
G1 X134.904 Y134.354 E0.01689
G1 X63.257 Y134.354 E2.24645
G1 X63.257 Y133.815 E0.01689
G1 X134.904 Y133.815 E2.24645
G1 X134.904 Y133.277 E0.01689
G1 X63.257 Y133.277 E2.24645
G1 X63.257 Y132.738 E0.01689
G1 X134.904 Y132.738 E2.24645
G1 X134.904 Y132.199 E0.01689
G1 X63.257 Y132.199 E2.24645
G1 X63.257 Y131.661 E0.01689
G1 X134.904 Y131.661 E2.24645
G1 X134.904 Y131.122 E0.01689
G1 X63.257 Y131.122 E2.24645
G1 X63.257 Y130.583 E0.01689
G1 X134.904 Y130.583 E2.24645
G1 X134.904 Y130.044 E0.01689
G1 X63.257 Y130.044 E2.24645
G1 X63.257 Y129.506 E0.01689
G1 X134.904 Y129.506 E2.24645
G1 X134.904 Y128.967 E0.01689
G1 X63.257 Y128.967 E2.24645
G1 X63.257 Y128.428 E0.01689
G1 X134.904 Y128.428 E2.24645
G1 X134.904 Y127.890 E0.01689
G1 X63.257 Y127.890 E2.24645
G1 X63.257 Y127.351 E0.01689
G1 X134.904 Y127.351 E2.24645
G1 X134.904 Y126.812 E0.01689
G1 X63.257 Y126.812 E2.24645
G1 X63.257 Y126.274 E0.01689
G1 X134.904 Y126.274 E2.24645
G1 X134.904 Y125.735 E0.01689
G1 X63.257 Y125.735 E2.24645
G1 X63.257 Y125.196 E0.01689
G1 X134.904 Y125.196 E2.24645
G1 X134.904 Y124.658 E0.01689
G1 X63.257 Y124.658 E2.24645
G1 X63.257 Y124.119 E0.01689
G1 X134.904 Y124.119 E2.24645
G1 X134.904 Y123.580 E0.01689
G1 X63.257 Y123.580 E2.24645
G1 X63.257 Y123.042 E0.01689
G1 X134.904 Y123.042 E2.24645
G1 X134.904 Y122.503 E0.01689
G1 X63.257 Y122.503 E2.24645
G1 X63.257 Y121.964 E0.01689
G1 X134.904 Y121.964 E2.24645
G1 X134.904 Y121.426 E0.01689
G1 X63.257 Y121.426 E2.24645
G1 X63.257 Y120.887 E0.01689
G1 X134.904 Y120.887 E2.24645
G1 X134.904 Y120.348 E0.01689
G1 X63.257 Y120.348 E2.24645
G1 X63.257 Y119.809 E0.01689
G1 X134.904 Y119.809 E2.24645
G1 X134.904 Y119.271 E0.01689
G1 X63.257 Y119.271 E2.24645
G1 X63.257 Y118.732 E0.01689
G1 X134.904 Y118.732 E2.24645
G1 X134.904 Y118.193 E0.01689
G1 X63.257 Y118.193 E2.24645
G1 X63.257 Y117.655 E0.01689
G1 X134.904 Y117.655 E2.24645
G1 X134.904 Y117.116 E0.01689
G1 X63.257 Y117.116 E2.24645
G1 X63.257 Y116.577 E0.01689
G1 X134.904 Y116.577 E2.24645
G1 X134.904 Y116.039 E0.01689
G1 X63.257 Y116.039 E2.24645
G1 X63.257 Y115.500 E0.01689
G1 X134.904 Y115.500 E2.24645
G1 X134.904 Y114.961 E0.01689
G1 X63.257 Y114.961 E2.24645
G1 X63.257 Y114.423 E0.01689
G1 X134.904 Y114.423 E2.24645
G1 X134.904 Y113.884 E0.01689
G1 X63.257 Y113.884 E2.24645
G1 X63.257 Y113.345 E0.01689
G1 X134.904 Y113.345 E2.24645
G1 X134.904 Y112.807 E0.01689
G1 X63.257 Y112.807 E2.24645
G1 X63.257 Y112.268 E0.01689
G1 X134.904 Y112.268 E2.24645
G1 X134.904 Y111.729 E0.01689
G1 X63.257 Y111.729 E2.24645
G1 X63.257 Y111.191 E0.01689
G1 X134.904 Y111.191 E2.24645
G1 X134.904 Y110.652 E0.01689
G1 X63.257 Y110.652 E2.24645
G1 X63.257 Y110.113 E0.01689
G1 X134.904 Y110.113 E2.24645
G1 X134.904 Y109.574 E0.01689
G1 X63.257 Y109.574 E2.24645
G1 X63.257 Y109.036 E0.01689
G1 X134.904 Y109.036 E2.24645
G1 X134.904 Y108.497 E0.01689
G1 X63.257 Y108.497 E2.24645
G1 X63.257 Y107.958 E0.01689
G1 X134.904 Y107.958 E2.24645
G1 X134.904 Y107.420 E0.01689
G1 X63.257 Y107.420 E2.24645
G1 X63.257 Y106.881 E0.01689
G1 X134.904 Y106.881 E2.24645
G1 X134.904 Y106.342 E0.01689
G1 X63.257 Y106.342 E2.24645
G1 X63.257 Y105.804 E0.01689
G1 X134.904 Y105.804 E2.24645
G1 X134.904 Y105.265 E0.01689
G1 X63.257 Y105.265 E2.24645
G1 X63.257 Y104.726 E0.01689
G1 X134.904 Y104.726 E2.24645
G1 X134.904 Y104.188 E0.01689
G1 X63.257 Y104.188 E2.24645
G1 X63.257 Y103.649 E0.01689
G1 X134.904 Y103.649 E2.24645
G1 X134.904 Y103.110 E0.01689
G1 X63.257 Y103.110 E2.24645
G1 X63.257 Y102.572 E0.01689
G1 X134.904 Y102.572 E2.24645
G1 X134.904 Y102.033 E0.01689
G1 X63.257 Y102.033 E2.24645
G1 X63.257 Y101.494 E0.01689
G1 X134.904 Y101.494 E2.24645
G1 X134.904 Y100.956 E0.01689
G1 X63.257 Y100.956 E2.24645
G1 X63.257 Y100.417 E0.01689
G1 X134.904 Y100.417 E2.24645
G1 X134.904 Y99.878 E0.01689
G1 X63.257 Y99.878 E2.24645
G1 X63.257 Y99.339 E0.01689
G1 X134.904 Y99.339 E2.24645
G1 X134.904 Y98.801 E0.01689
G1 X63.257 Y98.801 E2.24645
G1 X63.257 Y98.262 E0.01689
G1 X134.904 Y98.262 E2.24645
G1 X134.904 Y97.723 E0.01689
G1 X63.257 Y97.723 E2.24645
G1 X63.257 Y97.185 E0.01689
G1 X134.904 Y97.185 E2.24645
G1 X134.904 Y96.646 E0.01689
G1 X63.257 Y96.646 E2.24645
G1 X63.257 Y96.107 E0.01689
G1 X134.904 Y96.107 E2.24645
G1 X134.904 Y95.569 E0.01689
G1 X63.257 Y95.569 E2.24645
G1 X63.257 Y95.030 E0.01689
G1 X134.904 Y95.030 E2.24645
G1 X134.904 Y94.491 E0.01689
G1 X63.257 Y94.491 E2.24645
G1 X63.257 Y93.953 E0.01689
G1 X134.904 Y93.953 E2.24645
G1 X134.904 Y93.414 E0.01689
G1 X63.257 Y93.414 E2.24645
G1 X63.257 Y92.875 E0.01689
G1 X134.904 Y92.875 E2.24645
G1 X134.904 Y92.337 E0.01689
G1 X63.257 Y92.337 E2.24645
G1 X63.257 Y91.798 E0.01689
G1 X134.904 Y91.798 E2.24645
G1 X134.904 Y91.259 E0.01689
G1 X63.257 Y91.259 E2.24645
G1 X63.257 Y90.720 E0.01689
G1 X134.904 Y90.720 E2.24645
G1 X134.904 Y90.182 E0.01689
G1 X63.257 Y90.182 E2.24645
G1 X63.257 Y89.643 E0.01689
G1 X134.904 Y89.643 E2.24645
G1 X134.904 Y89.104 E0.01689
G1 X63.257 Y89.104 E2.24645
G1 X63.257 Y88.566 E0.01689
G1 X134.904 Y88.566 E2.24645
G1 X134.904 Y88.027 E0.01689
G1 X63.257 Y88.027 E2.24645
G1 X63.257 Y87.488 E0.01689
G1 X134.904 Y87.488 E2.24645
G1 X134.904 Y86.950 E0.01689
G1 X63.257 Y86.950 E2.24645
G1 X63.257 Y86.411 E0.01689
G1 X134.904 Y86.411 E2.24645
G1 X134.904 Y85.872 E0.01689
G1 X63.257 Y85.872 E2.24645
G1 X63.257 Y85.334 E0.01689
G1 X134.904 Y85.334 E2.24645
G1 X134.904 Y84.795 E0.01689
G1 X63.257 Y84.795 E2.24645
G1 X63.257 Y84.256 E0.01689
G1 X134.904 Y84.256 E2.24645
G1 X134.904 Y83.718 E0.01689
G1 X63.257 Y83.718 E2.24645
G1 X63.257 Y83.179 E0.01689
G1 X134.904 Y83.179 E2.24645
G1 X134.904 Y82.640 E0.01689
G1 X63.257 Y82.640 E2.24645
G1 X63.257 Y82.102 E0.01689
G1 X134.904 Y82.102 E2.24645
G1 X134.904 Y81.563 E0.01689
G1 X63.257 Y81.563 E2.24645
G1 X63.257 Y81.024 E0.01689
G1 X134.904 Y81.024 E2.24645
G1 X134.904 Y80.485 E0.01689
