; generated by PrusaSlicer 2.3.0 on 2021-04-25 at 22:20:04 UTC

; 

; external perimeters extrusion width = 0.45mm
; perimeters extrusion width = 0.45mm
; infill extrusion width = 0.45mm
; solid infill extrusion width = 0.45mm
; top infill extrusion width = 0.40mm
; support material extrusion width = 0.38mm
; first layer extrusion width = 0.42mm

M201 X500 Y500 Z100 E5000 ; sets maximum accelerations, mm/sec^2
M203 X500 Y500 Z10 E60 ; sets maximum feedrates, mm/sec
M204 P500 R1000 T500 ; sets acceleration (P, T) and retract acceleration (R), mm/sec^2
M205 X8.00 Y8.00 Z0.40 E5.00 ; sets the jerk limits, mm/sec
M205 S0 T0 ; sets the minimum extruding and travel feed rate, mm/sec
M107
;TYPE:Custom
G90 ; use absolute coordinates
M83 ; extruder relative mode
M104 S120 ; set temporary nozzle temp to prevent oozing during homing and auto bed leveling
M140 S90 ; set final bed temp
G4 S10 ; allow partial nozzle warmup
G28 ; home all axis
G1 Z50 F240
G1 X2 Y10 F3000
M104 S245 ; set final nozzle temp
M190 S90 ; wait for bed temp to stabilize
M109 S245 ; wait for nozzle temp to stabilize
G1 Z0.28 F240
G92 E0
G1 Y140 E10 F1500 ; prime the nozzle
G1 X2.3 F5000
G92 E0
G1 Y10 E10 F1200 ; prime the nozzle
G92 E0
G21 ; set units to millimeters
G90 ; use absolute coordinates
M83 ; use relative distances for extrusion
; Filament gcode
;LAYER_CHANGE
;Z:0.2
;HEIGHT:0.2
;BEFORE_LAYER_CHANGE
G92 E0
;0.2


G1 E-5.00000 F3600.000
G1 Z0.200 F9000.000
;AFTER_LAYER_CHANGE
;0.2
G1 X108.789 Y77.107
G1 E5.00000 F2400.000
;TYPE:Skirt
;WIDTH:0.42
G1 F1200.000
G1 X109.393 Y76.653 E0.02367
G1 X110.108 Y76.412 E0.02367
G1 X120.504 Y76.380 E0.32595
G1 X121.047 Y76.444 E0.01716
G1 X121.558 Y76.629 E0.01704
G1 X128.082 Y80.151 E0.23245
G1 X128.489 Y80.476 E0.01633
G1 X128.818 Y80.884 E0.01645
G1 X129.049 Y81.355 E0.01645
G1 X129.171 Y81.862 E0.01633
G1 X129.169 Y144.984 E1.97914
G1 X128.995 Y145.613 E0.02048
G1 X128.659 Y146.169 E0.02036
G1 X122.299 Y153.797 E0.31142
G1 X121.574 Y154.364 E0.02884
G1 X121.075 Y154.549 E0.01668
G1 X120.548 Y154.620 E0.01668
G1 X110.189 Y154.600 E0.32481
G1 X109.476 Y154.388 E0.02331
G1 X108.866 Y153.969 E0.02319
G1 X108.413 Y153.380 E0.02331
G1 X108.163 Y152.680 E0.02331
G1 X106.336 Y133.878 E0.59230
G1 X106.337 Y93.487 E1.26643
G1 X108.143 Y78.446 E0.47500
G1 X108.358 Y77.726 E0.02355
G1 X108.755 Y77.156 E0.02178
G1 E-3.50000 F3600.000
;WIPE_START
G1 F7200.000
G1 X109.393 Y76.653 E-0.38569
G1 X110.108 Y76.412 E-0.35852
G1 X111.542 Y76.408 E-0.68079
;WIPE_END
G1 E-0.07500 F3600.000
G1 X108.755 Y77.156 F9000.000
G1 X108.755 Y77.156
G1 X108.713 Y93.563
G1 E5.00000 F2400.000
;TYPE:Support material
G1 F1200.000
G1 X108.713 Y109.806 E0.50928
G1 X109.467 Y109.806 E0.02365
G1 X109.467 Y93.733 E0.50396
G1 X110.041 Y93.733 E0.01802
G1 X110.041 Y96.464 E0.08564
G1 X110.221 Y96.643 E0.00796
G1 X110.221 Y109.806 E0.41269
G1 X110.975 Y109.806 E0.02365
G1 X110.975 Y96.733 E0.40990
G1 X111.729 Y96.733 E0.02365
G1 X111.729 Y109.806 E0.40990
G1 X112.483 Y109.806 E0.02365
G1 X112.483 Y96.733 E0.40990
G1 X113.238 Y96.733 E0.02365
G1 X113.238 Y109.806 E0.40990
G1 X113.992 Y109.806 E0.02365
G1 X113.992 Y96.733 E0.40990
G1 X114.746 Y96.733 E0.02365
G1 X114.746 Y109.806 E0.40990
G1 X115.500 Y109.806 E0.02365
G1 X115.500 Y96.733 E0.40990
G1 X116.254 Y96.733 E0.02365
G1 X116.254 Y109.806 E0.40990
G1 X117.008 Y109.806 E0.02365
G1 X117.008 Y96.733 E0.40990
G1 X117.762 Y96.733 E0.02365
G1 X117.762 Y109.806 E0.40990
G1 X118.517 Y109.806 E0.02365
G1 X118.517 Y96.733 E0.40990
G1 X119.271 Y96.733 E0.02365
G1 X119.271 Y109.806 E0.40990
G1 X120.025 Y109.806 E0.02365
G1 X120.025 Y96.733 E0.40990
G1 X120.690 Y96.733 E0.02085
G1 X120.779 Y96.643 E0.00395
G1 X120.779 Y109.806 E0.41269
G1 X121.533 Y109.806 E0.02365
G1 X121.533 Y82.161 E0.86680
G1 X122.287 Y82.161 E0.02365
G1 X122.287 Y109.806 E0.86680
G1 X123.042 Y109.806 E0.02365
G1 X123.042 Y82.161 E0.86680
G1 X123.796 Y82.161 E0.02365
G1 X123.796 Y109.806 E0.86680
G1 X124.550 Y109.806 E0.02365
G1 X124.550 Y82.161 E0.86680
G1 X125.304 Y82.161 E0.02365
G1 X125.304 Y109.806 E0.86680
G1 X126.058 Y109.806 E0.02365
G1 X126.058 Y82.161 E0.86680
G1 X126.812 Y82.161 E0.02365
G1 X126.812 Y109.975 E0.87212
G1 E-5.00000 F3600.000
G1 X108.713 Y116.687 F9000.000
G1 E5.00000 F2400.000
G1 F1200.000
G1 X108.713 Y133.815 E0.53704
G1 X109.467 Y133.815 E0.02365
G1 X109.467 Y116.857 E0.53172
G1 X110.221 Y116.857 E0.02365
G1 X110.221 Y130.905 E0.44045
G1 X110.310 Y130.816 E0.00395
G1 X110.975 Y130.816 E0.02085
G1 X110.975 Y116.857 E0.43766
G1 X111.729 Y116.857 E0.02365
G1 X111.729 Y130.816 E0.43766
G1 X112.483 Y130.816 E0.02365
G1 X112.483 Y116.857 E0.43766
G1 X113.238 Y116.857 E0.02365
G1 X113.238 Y130.816 E0.43766
G1 X113.992 Y130.816 E0.02365
G1 X113.992 Y116.857 E0.43766
G1 X114.746 Y116.857 E0.02365
G1 X114.746 Y130.816 E0.43766
G1 X115.500 Y130.816 E0.02365
G1 X115.500 Y116.857 E0.43766
G1 X116.254 Y116.857 E0.02365
G1 X116.254 Y130.816 E0.43766
G1 X117.008 Y130.816 E0.02365
G1 X117.008 Y116.857 E0.43766
G1 X117.762 Y116.857 E0.02365
G1 X117.762 Y130.816 E0.43766
G1 X118.517 Y130.816 E0.02365
G1 X118.517 Y116.857 E0.43766
G1 X119.271 Y116.857 E0.02365
G1 X119.271 Y130.816 E0.43766
G1 X120.025 Y130.816 E0.02365
G1 X120.025 Y116.857 E0.43766
G1 X120.779 Y116.857 E0.02365
G1 X120.779 Y130.905 E0.44045
G1 X120.959 Y131.084 E0.00796
G1 X120.959 Y144.502 E0.42072
G1 X121.533 Y144.502 E0.01802
G1 X121.533 Y116.857 E0.86680
G1 X122.287 Y116.857 E0.02365
G1 X122.287 Y144.502 E0.86680
G1 X123.042 Y144.502 E0.02365
G1 X123.042 Y116.857 E0.86680
G1 X123.796 Y116.857 E0.02365
G1 X123.796 Y144.502 E0.86680
G1 X124.550 Y144.502 E0.02365
G1 X124.550 Y116.857 E0.86680
G1 X125.304 Y116.857 E0.02365
G1 X125.304 Y144.502 E0.86680
G1 X126.058 Y144.502 E0.02365
G1 X126.058 Y116.857 E0.86680
G1 X126.812 Y116.857 E0.02365
G1 X126.812 Y144.672 E0.87212
G1 E-3.50000 F3600.000
;WIPE_START
G1 F7200.000
G1 X126.812 Y141.672 E-1.42500
;WIPE_END
G1 E-0.07500 F3600.000
G1 X126.812 Y144.672 F9000.000
G1 X126.812 Y144.672
G1 X119.813 Y151.556
G1 E5.00000 F2400.000
;TYPE:Perimeter
G1 F1200.000
G1 X111.187 Y151.556 E0.27046
G1 X111.187 Y131.961 E0.61438
G1 X119.813 Y131.961 E0.27046
G1 X119.813 Y151.496 E0.61250
G1 X120.190 Y151.933 F9000.000
;TYPE:External perimeter
G1 F1200.000
G1 X110.810 Y151.933 E0.29410
G1 X110.810 Y131.584 E0.63802
G1 X120.190 Y131.584 E0.29410
G1 X120.190 Y151.873 E0.63614
G1 X119.818 Y151.785 F9000.000
G1 E-5.00000 F3600.000
G1 X119.700 Y132.840 F9000.000
G1 E5.00000 F2400.000
;TYPE:Solid infill
;WIDTH:0.421542
G1 F1200.000
G1 X119.104 Y132.244 E0.02653
G1 X118.569 Y132.244 E0.01686
G1 X119.530 Y133.206 E0.04281
G1 X119.530 Y133.741 E0.01686
G1 X118.033 Y132.244 E0.06665
G1 X117.498 Y132.244 E0.01686
G1 X119.530 Y134.277 E0.09049
G1 X119.530 Y134.812 E0.01686
G1 X116.962 Y132.244 E0.11433
G1 X116.427 Y132.244 E0.01686
G1 X119.530 Y135.347 E0.13817
G1 X119.530 Y135.883 E0.01686
G1 X115.891 Y132.244 E0.16201
G1 X115.356 Y132.244 E0.01686
G1 X119.530 Y136.418 E0.18585
G1 X119.530 Y136.954 E0.01686
G1 X114.820 Y132.244 E0.20969
G1 X114.285 Y132.244 E0.01686
G1 X119.530 Y137.489 E0.23353
G1 X119.530 Y138.025 E0.01686
G1 X113.749 Y132.244 E0.25737
G1 X113.214 Y132.244 E0.01686
G1 X119.530 Y138.560 E0.28121
G1 X119.530 Y139.096 E0.01686
G1 X112.679 Y132.244 E0.30505
G1 X112.143 Y132.244 E0.01686
G1 X119.530 Y139.631 E0.32889
G1 X119.530 Y140.166 E0.01686
G1 X111.608 Y132.244 E0.35273
G1 X111.470 Y132.244 E0.00434
G1 X111.470 Y132.642 E0.01252
G1 X119.530 Y140.702 E0.35887
G1 X119.530 Y141.237 E0.01686
G1 X111.470 Y133.177 E0.35887
G1 X111.470 Y133.713 E0.01686
G1 X119.530 Y141.773 E0.35887
G1 X119.530 Y142.308 E0.01686
G1 X111.470 Y134.248 E0.35887
G1 X111.470 Y134.783 E0.01686
G1 X119.530 Y142.844 E0.35887
G1 X119.530 Y143.379 E0.01686
G1 X111.470 Y135.319 E0.35887
G1 X111.470 Y135.854 E0.01686
G1 X119.530 Y143.915 E0.35887
G1 X119.530 Y144.450 E0.01686
G1 X111.470 Y136.390 E0.35887
G1 X111.470 Y136.925 E0.01686
G1 X119.530 Y144.986 E0.35887
G1 X119.530 Y145.521 E0.01686
G1 X111.470 Y137.461 E0.35887
G1 X111.470 Y137.996 E0.01686
G1 X119.530 Y146.056 E0.35887
G1 X119.530 Y146.592 E0.01686
G1 X111.470 Y138.532 E0.35887
G1 X111.470 Y139.067 E0.01686
G1 X119.530 Y147.127 E0.35887
G1 X119.530 Y147.663 E0.01686
G1 X111.470 Y139.603 E0.35887
G1 X111.470 Y140.138 E0.01686
G1 X119.530 Y148.198 E0.35887
G1 X119.530 Y148.734 E0.01686
G1 X111.470 Y140.673 E0.35887
G1 X111.470 Y141.209 E0.01686
G1 X119.530 Y149.269 E0.35887
G1 X119.530 Y149.805 E0.01686
G1 X111.470 Y141.744 E0.35887
G1 X111.470 Y142.280 E0.01686
G1 X119.530 Y150.340 E0.35887
G1 X119.530 Y150.876 E0.01686
G1 X111.470 Y142.815 E0.35887
G1 X111.470 Y143.351 E0.01686
G1 X119.392 Y151.273 E0.35273
G1 X118.857 Y151.273 E0.01686
G1 X111.470 Y143.886 E0.32889
G1 X111.470 Y144.422 E0.01686
G1 X118.321 Y151.273 E0.30505
G1 X117.786 Y151.273 E0.01686
G1 X111.470 Y144.957 E0.28121
G1 X111.470 Y145.493 E0.01686
G1 X117.250 Y151.273 E0.25737
G1 X116.715 Y151.273 E0.01686
G1 X111.470 Y146.028 E0.23353
G1 X111.470 Y146.563 E0.01686
G1 X116.180 Y151.273 E0.20969
G1 X115.644 Y151.273 E0.01686
G1 X111.470 Y147.099 E0.18585
G1 X111.470 Y147.634 E0.01686
G1 X115.109 Y151.273 E0.16201
G1 X114.573 Y151.273 E0.01686
G1 X111.470 Y148.170 E0.13817
G1 X111.470 Y148.705 E0.01686
G1 X114.038 Y151.273 E0.11433
G1 X113.502 Y151.273 E0.01686
G1 X111.470 Y149.241 E0.09049
G1 X111.470 Y149.776 E0.01686
G1 X112.967 Y151.273 E0.06665
G1 X112.431 Y151.273 E0.01686
G1 X111.470 Y150.312 E0.04281
G1 X111.470 Y150.847 E0.01686
G1 X112.066 Y151.443 E0.02652
G1 E-3.50000 F3600.000
;WIPE_START
G1 F7200.000
G1 X111.470 Y150.847 E-0.40020
G1 X111.470 Y150.312 E-0.25434
G1 X112.431 Y151.273 E-0.64590
G1 X112.694 Y151.273 E-0.12456
;WIPE_END
G1 E-0.07500 F3600.000
G1 X112.066 Y151.443 F9000.000
G1 X112.066 Y151.443
G1 X111.752 Y131.474
G1 X111.187 Y95.587
G1 E5.00000 F2400.000
;TYPE:Perimeter
;WIDTH:0.42
G1 F1200.000
G1 X111.187 Y79.444 E0.50615
G1 X119.813 Y79.444 E0.27046
G1 X119.813 Y95.587 E0.50615
G1 X111.247 Y95.587 E0.26858
G1 X110.810 Y95.964 F9000.000
;TYPE:External perimeter
G1 F1200.000
G1 X110.810 Y79.067 E0.52980
G1 X120.190 Y79.067 E0.29410
G1 X120.190 Y95.964 E0.52980
G1 X110.870 Y95.964 E0.29222
G1 X110.877 Y95.570 F9000.000
G1 E-5.00000 F3600.000
G1 X119.700 Y80.333 F9000.000
G1 E5.00000 F2400.000
;TYPE:Solid infill
;WIDTH:0.426199
G1 F1200.000
G1 X119.094 Y79.727 E0.02730
G1 X118.552 Y79.727 E0.01727
G1 X119.530 Y80.705 E0.04408
G1 X119.530 Y81.247 E0.01727
G1 X118.010 Y79.727 E0.06851
G1 X117.468 Y79.727 E0.01727
G1 X119.530 Y81.789 E0.09294
G1 X119.530 Y82.331 E0.01727
G1 X116.926 Y79.727 E0.11737
G1 X116.384 Y79.727 E0.01727
G1 X119.530 Y82.873 E0.14180
G1 X119.530 Y83.415 E0.01727
G1 X115.842 Y79.727 E0.16623
G1 X115.300 Y79.727 E0.01727
G1 X119.530 Y83.957 E0.19066
G1 X119.530 Y84.499 E0.01727
G1 X114.758 Y79.727 E0.21509
G1 X114.216 Y79.727 E0.01727
G1 X119.530 Y85.041 E0.23952
G1 X119.530 Y85.583 E0.01727
G1 X113.674 Y79.727 E0.26395
G1 X113.132 Y79.727 E0.01727
G1 X119.530 Y86.125 E0.28838
G1 X119.530 Y86.667 E0.01727
G1 X112.590 Y79.727 E0.31281
G1 X112.048 Y79.727 E0.01727
G1 X119.530 Y87.209 E0.33724
G1 X119.530 Y87.751 E0.01727
G1 X111.506 Y79.727 E0.36167
G1 X111.470 Y79.727 E0.00114
G1 X111.470 Y80.233 E0.01614
G1 X119.530 Y88.294 E0.36328
G1 X119.530 Y88.836 E0.01727
G1 X111.470 Y80.775 E0.36328
G1 X111.470 Y81.317 E0.01727
G1 X119.530 Y89.378 E0.36328
G1 X119.530 Y89.920 E0.01727
G1 X111.470 Y81.859 E0.36328
G1 X111.470 Y82.401 E0.01727
G1 X119.530 Y90.462 E0.36328
G1 X119.530 Y91.004 E0.01727
G1 X111.470 Y82.943 E0.36328
G1 X111.470 Y83.485 E0.01727
G1 X119.530 Y91.546 E0.36328
G1 X119.530 Y92.088 E0.01727
G1 X111.470 Y84.028 E0.36328
G1 X111.470 Y84.570 E0.01727
G1 X119.530 Y92.630 E0.36328
G1 X119.530 Y93.172 E0.01727
G1 X111.470 Y85.112 E0.36328
G1 X111.470 Y85.654 E0.01727
G1 X119.530 Y93.714 E0.36328
G1 X119.530 Y94.256 E0.01727
G1 X111.470 Y86.196 E0.36328
G1 X111.470 Y86.738 E0.01727
G1 X119.530 Y94.798 E0.36328
G1 X119.530 Y95.304 E0.01614
G1 X119.494 Y95.304 E0.00114
G1 X111.470 Y87.280 E0.36167
G1 X111.470 Y87.822 E0.01727
G1 X118.952 Y95.304 E0.33724
G1 X118.410 Y95.304 E0.01727
G1 X111.470 Y88.364 E0.31281
G1 X111.470 Y88.906 E0.01727
G1 X117.868 Y95.304 E0.28838
G1 X117.326 Y95.304 E0.01727
G1 X111.470 Y89.448 E0.26395
G1 X111.470 Y89.990 E0.01727
G1 X116.784 Y95.304 E0.23952
G1 X116.242 Y95.304 E0.01727
G1 X111.470 Y90.532 E0.21509
G1 X111.470 Y91.074 E0.01727
G1 X115.700 Y95.304 E0.19066
G1 X115.158 Y95.304 E0.01727
G1 X111.470 Y91.616 E0.16623
G1 X111.470 Y92.158 E0.01727
G1 X114.616 Y95.304 E0.14180
G1 X114.074 Y95.304 E0.01727
G1 X111.470 Y92.700 E0.11737
G1 X111.470 Y93.242 E0.01727
G1 X113.532 Y95.304 E0.09294
G1 X112.990 Y95.304 E0.01727
G1 X111.470 Y93.784 E0.06851
G1 X111.470 Y94.326 E0.01727
G1 X112.448 Y95.304 E0.04408
G1 X111.906 Y95.304 E0.01727
G1 X111.300 Y94.699 E0.02730
;LAYER_CHANGE
;Z:0.4
;HEIGHT:0.2
;BEFORE_LAYER_CHANGE
G92 E0
;0.4


G1 E-3.50000 F3600.000
;WIPE_START
G1 F7200.000
G1 X111.906 Y95.304 E-0.40685
G1 X112.448 Y95.304 E-0.25747
G1 X111.470 Y94.326 E-0.65698
G1 X111.470 Y94.108 E-0.10370
;WIPE_END
G1 E-0.07500 F3600.000
G1 Z0.400 F9000.000
;AFTER_LAYER_CHANGE
;0.4
G1 X108.358 Y77.726
G1 E5.00000 F2400.000
;TYPE:Skirt
;WIDTH:0.42
G1 X108.789 Y77.107 E0.02367
G1 X109.393 Y76.653 E0.02367
G1 X110.108 Y76.412 E0.02367
G1 X120.504 Y76.380 E0.32595
G1 X121.047 Y76.444 E0.01716
G1 X121.558 Y76.629 E0.01704
G1 X128.082 Y80.151 E0.23245
G1 X128.489 Y80.476 E0.01633
G1 X128.818 Y80.884 E0.01645
G1 X129.049 Y81.355 E0.01645
G1 X129.171 Y81.862 E0.01633
G1 X129.169 Y144.984 E1.97914
G1 X128.995 Y145.613 E0.02048
G1 X128.659 Y146.169 E0.02036
G1 X122.299 Y153.797 E0.31142
G1 X121.574 Y154.364 E0.02884
G1 X121.075 Y154.549 E0.01668
G1 X120.548 Y154.620 E0.01668
G1 X110.189 Y154.600 E0.32481
G1 X109.476 Y154.388 E0.02331
G1 X108.866 Y153.969 E0.02319
G1 X108.413 Y153.380 E0.02331
G1 X108.163 Y152.680 E0.02331
G1 X106.336 Y133.878 E0.59230
G1 X106.337 Y93.487 E1.26643
G1 X108.143 Y78.446 E0.47500
G1 X108.341 Y77.783 E0.02167
G1 E-3.50000 F3600.000
;WIPE_START
G1 F7200.000
G1 X108.789 Y77.107 E-0.38570
G1 X109.393 Y76.653 E-0.35852
G1 X110.108 Y76.412 E-0.35852
G1 X110.787 Y76.410 E-0.32226
;WIPE_END
G1 E-0.07500 F3600.000
G1 X108.341 Y77.783 F9000.000
G1 X108.341 Y77.783
G1 X111.132 Y79.389
G1 E5.00000 F2400.000
;TYPE:Perimeter
;WIDTH:0.45
G1 X119.868 Y79.389 E0.29570
G1 X119.868 Y95.642 E0.55014
G1 X111.132 Y95.642 E0.29570
G1 X111.132 Y79.449 E0.54811
G1 X110.725 Y78.982 F9000.000
;TYPE:External perimeter
G1 F1500.000
G1 X120.275 Y78.982 E0.32326
G1 X120.275 Y96.049 E0.57770
G1 X110.725 Y96.049 E0.32326
G1 X110.725 Y79.042 E0.57567
G1 X111.100 Y79.121 F9000.000
G1 E-5.00000 F3600.000
G1 X118.909 Y95.520 F9000.000
G1 E5.00000 F2400.000
;TYPE:Solid infill
;WIDTH:0.456775
G1 X119.563 Y94.866 E0.03183
G1 X119.563 Y94.281 E0.02014
G1 X118.506 Y95.337 E0.05140
G1 X117.921 Y95.337 E0.02014
G1 X119.563 Y93.695 E0.07988
G1 X119.563 Y93.110 E0.02014
G1 X117.336 Y95.337 E0.10837
G1 X116.751 Y95.337 E0.02014
G1 X119.563 Y92.525 E0.13685
G1 X119.563 Y91.939 E0.02014
G1 X116.165 Y95.337 E0.16533
G1 X115.580 Y95.337 E0.02014
G1 X119.563 Y91.354 E0.19382
G1 X119.563 Y90.769 E0.02014
G1 X114.995 Y95.337 E0.22230
G1 X114.409 Y95.337 E0.02014
G1 X119.563 Y90.184 E0.25078
G1 X119.563 Y89.598 E0.02014
G1 X113.824 Y95.337 E0.27927
G1 X113.239 Y95.337 E0.02014
G1 X119.563 Y89.013 E0.30775
G1 X119.563 Y88.428 E0.02014
G1 X112.654 Y95.337 E0.33623
G1 X112.068 Y95.337 E0.02014
G1 X119.563 Y87.842 E0.36472
G1 X119.563 Y87.257 E0.02014
G1 X111.483 Y95.337 E0.39320
G1 X111.437 Y95.337 E0.00157
G1 X111.437 Y94.797 E0.01857
G1 X119.563 Y86.672 E0.39542
G1 X119.563 Y86.087 E0.02014
G1 X111.437 Y94.212 E0.39542
G1 X111.437 Y93.627 E0.02014
G1 X119.563 Y85.501 E0.39542
G1 X119.563 Y84.916 E0.02014
G1 X111.437 Y93.041 E0.39542
G1 X111.437 Y92.456 E0.02014
G1 X119.563 Y84.331 E0.39542
G1 X119.563 Y83.746 E0.02014
G1 X111.437 Y91.871 E0.39542
G1 X111.437 Y91.285 E0.02014
