; generated by PrusaSlicer 2.3.0 on 2021-04-27 at 23:09:12 UTC

; 

; external perimeters extrusion width = 0.45mm
; perimeters extrusion width = 0.45mm
; infill extrusion width = 0.45mm
; solid infill extrusion width = 0.45mm
; top infill extrusion width = 0.40mm
; support material extrusion width = 0.38mm
; first layer extrusion width = 0.42mm

M201 X500 Y500 Z100 E5000 ; sets maximum accelerations, mm/sec^2
M203 X500 Y500 Z10 E60 ; sets maximum feedrates, mm/sec
M204 P500 R1000 T500 ; sets acceleration (P, T) and retract acceleration (R), mm/sec^2
M205 X8.00 Y8.00 Z0.40 E5.00 ; sets the jerk limits, mm/sec
M205 S0 T0 ; sets the minimum extruding and travel feed rate, mm/sec
M107
;TYPE:Custom
G90 ; use absolute coordinates
M83 ; extruder relative mode
M104 S120 ; set temporary nozzle temp to prevent oozing during homing and auto bed leveling
M140 S60 ; set final bed temp
G4 S10 ; allow partial nozzle warmup
G28 ; home all axis
G1 Z50 F240
G1 X2 Y10 F3000
M104 S210 ; set final nozzle temp
M190 S60 ; wait for bed temp to stabilize
M109 S210 ; wait for nozzle temp to stabilize
G1 Z0.28 F240
G92 E0
G1 Y140 E10 F1500 ; prime the nozzle
G1 X2.3 F5000
G92 E0
G1 Y10 E10 F1200 ; prime the nozzle
G92 E0
G21 ; set units to millimeters
G90 ; use absolute coordinates
M83 ; use relative distances for extrusion
; Filament gcode
;LAYER_CHANGE
;Z:0.2
;HEIGHT:0.2
;BEFORE_LAYER_CHANGE
G92 E0
;0.2


G1 E-5.00000 F3600.000
G1 Z0.200 F9000.000
;AFTER_LAYER_CHANGE
;0.2
G1 X114.277 Y69.105
G1 E5.00000 F2400.000
;TYPE:Skirt
;WIDTH:0.42
G1 F1200.000
G1 X114.965 Y68.903 E0.02247
G1 X115.623 Y68.867 E0.02066
G1 X116.257 Y68.950 E0.02007
G1 X116.810 Y69.146 E0.01841
G1 X117.415 Y69.535 E0.02253
G1 X117.872 Y69.992 E0.02027
G1 X163.991 Y123.694 E2.21951
G1 X164.635 Y124.757 E0.03896
G1 X164.995 Y125.804 E0.03471
G1 X165.150 Y126.835 E0.03267
G1 X165.150 Y128.526 E0.05302
G1 X165.027 Y129.584 E0.03342
G1 X164.793 Y130.617 E0.03320
G1 X164.266 Y132.009 E0.04668
G1 X163.654 Y133.096 E0.03911
G1 X162.849 Y134.134 E0.04120
G1 X161.559 Y135.351 E0.05560
G1 X122.157 Y161.670 E1.48568
G1 X121.598 Y161.917 E0.01917
G1 X120.990 Y162.014 E0.01929
G1 X109.931 Y162.010 E0.34674
G1 X109.327 Y161.894 E0.01929
G1 X108.770 Y161.624 E0.01941
G1 X69.410 Y135.327 E1.48419
G1 X68.133 Y134.111 E0.05529
G1 X67.330 Y133.072 E0.04117
G1 X66.644 Y131.819 E0.04478
G1 X66.233 Y130.710 E0.03708
G1 X65.969 Y129.558 E0.03706
G1 X65.848 Y128.485 E0.03388
G1 X65.850 Y126.825 E0.05203
G1 X66.006 Y125.798 E0.03258
G1 X66.340 Y124.812 E0.03264
G1 X66.875 Y123.871 E0.03393
G1 X67.520 Y123.087 E0.03181
G1 X113.132 Y69.988 E2.19481
G1 X113.608 Y69.518 E0.02097
G1 X114.226 Y69.136 E0.02277
G1 E-3.50000 F3600.000
;WIPE_START
G1 F7200.000
G1 X114.965 Y68.903 E-0.36800
G1 X115.623 Y68.867 E-0.31304
G1 X116.257 Y68.950 E-0.30399
G1 X116.810 Y69.146 E-0.27887
G1 X117.096 Y69.330 E-0.16111
;WIPE_END
G1 E-0.07500 F3600.000
G1 X114.226 Y69.136 F9000.000
G1 X114.226 Y69.136
G1 X115.500 Y72.022
G1 E5.00000 F2400.000
;TYPE:Perimeter
G1 F1200.000
G1 X115.683 Y72.470 E0.01517
G1 X115.853 Y73.033 E0.01842
G1 X116.047 Y73.809 E0.02509
G1 X116.267 Y74.821 E0.03248
G1 X118.334 Y85.655 E0.34581
G1 X119.932 Y93.235 E0.24288
G1 X120.289 Y95.022 E0.05715
G1 X120.545 Y96.405 E0.04411
G1 X120.763 Y97.729 E0.04207
G1 X121.262 Y101.387 E0.11576
G1 X121.454 Y102.501 E0.03544
G1 X121.701 Y103.558 E0.03403
G1 X122.029 Y104.555 E0.03292
G1 X122.470 Y105.486 E0.03229
G1 X123.051 Y106.337 E0.03230
G1 X123.785 Y107.080 E0.03275
G1 X124.638 Y107.719 E0.03341
G1 X125.590 Y108.276 E0.03459
G1 X126.628 Y108.773 E0.03608
G1 X127.740 Y109.229 E0.03767
G1 X128.913 Y109.662 E0.03923
G1 X132.705 Y110.999 E0.12605
G1 X135.453 Y112.046 E0.09220
G1 X138.473 Y113.282 E0.10232
G1 X141.850 Y114.753 E0.11551
G1 X145.667 Y116.509 E0.13174
G1 X149.768 Y118.483 E0.14269
G1 X151.796 Y119.496 E0.07109
G1 X153.745 Y120.498 E0.06872
G1 X155.564 Y121.465 E0.06458
G1 X157.200 Y122.375 E0.05871
G1 X158.601 Y123.204 E0.05105
G1 X159.715 Y123.926 E0.04160
G1 X160.566 Y124.558 E0.03324
G1 X161.182 Y125.115 E0.02604
G1 X161.598 Y125.609 E0.02026
G1 X161.859 Y126.064 E0.01644
G1 X162.013 Y126.521 E0.01512
G1 X162.091 Y127.033 E0.01623
G1 X162.111 Y127.638 E0.01899
G1 X162.091 Y128.332 E0.02178
G1 X162.005 Y129.069 E0.02326
G1 X161.829 Y129.833 E0.02460
G1 X161.538 Y130.612 E0.02608
G1 X161.103 Y131.395 E0.02807
G1 X160.494 Y132.171 E0.03094
G1 X159.677 Y132.931 E0.03499
G1 X158.613 Y133.658 E0.04039
G1 X157.261 Y134.339 E0.04748
G1 X155.645 Y134.976 E0.05446
G1 X153.806 Y135.571 E0.06059
G1 X151.784 Y136.129 E0.06578
G1 X149.615 Y136.656 E0.06998
G1 X147.336 Y137.159 E0.07318
G1 X144.983 Y137.647 E0.07536
G1 X131.142 Y140.417 E0.44258
G1 X130.016 Y140.550 E0.03553
G1 X128.859 Y140.722 E0.03669
G1 X127.711 Y140.965 E0.03679
G1 X126.589 Y141.315 E0.03686
G1 X125.510 Y141.813 E0.03726
G1 X124.502 Y142.496 E0.03818
G1 X123.594 Y143.393 E0.04003
G1 X122.815 Y144.528 E0.04315
G1 X122.190 Y145.908 E0.04749
G1 X121.695 Y147.486 E0.05186
G1 X121.303 Y149.234 E0.05617
G1 X120.992 Y151.133 E0.06035
G1 X120.747 Y153.146 E0.06355
G1 X120.548 Y155.248 E0.06621
G1 X120.275 Y158.951 E0.11641
G1 X110.725 Y158.951 E0.29945
G1 X110.452 Y155.248 E0.11641
G1 X110.253 Y153.146 E0.06621
G1 X110.008 Y151.133 E0.06355
G1 X109.697 Y149.234 E0.06035
G1 X109.305 Y147.486 E0.05617
G1 X108.810 Y145.908 E0.05186
G1 X108.185 Y144.528 E0.04749
G1 X107.406 Y143.393 E0.04315
G1 X106.498 Y142.496 E0.04003
G1 X105.490 Y141.813 E0.03818
G1 X104.411 Y141.315 E0.03726
G1 X103.289 Y140.965 E0.03686
G1 X102.141 Y140.722 E0.03679
G1 X100.984 Y140.550 E0.03669
G1 X99.858 Y140.417 E0.03553
G1 X86.017 Y137.647 E0.44258
G1 X83.664 Y137.159 E0.07536
G1 X81.385 Y136.656 E0.07318
G1 X79.216 Y136.129 E0.06998
G1 X77.194 Y135.571 E0.06578
G1 X75.355 Y134.976 E0.06059
G1 X73.739 Y134.339 E0.05446
G1 X72.387 Y133.658 E0.04748
G1 X71.323 Y132.931 E0.04039
G1 X70.506 Y132.171 E0.03499
G1 X69.897 Y131.395 E0.03094
G1 X69.462 Y130.612 E0.02807
G1 X69.171 Y129.833 E0.02608
G1 X68.995 Y129.069 E0.02460
G1 X68.909 Y128.332 E0.02326
G1 X68.889 Y127.638 E0.02178
G1 X68.909 Y127.033 E0.01899
G1 X68.987 Y126.521 E0.01623
G1 X69.141 Y126.064 E0.01512
G1 X69.402 Y125.609 E0.01644
G1 X69.818 Y125.115 E0.02026
G1 X70.434 Y124.558 E0.02604
G1 X71.285 Y123.926 E0.03324
G1 X72.399 Y123.204 E0.04160
G1 X73.800 Y122.375 E0.05105
G1 X75.436 Y121.465 E0.05871
G1 X77.255 Y120.498 E0.06458
G1 X79.203 Y119.497 E0.06867
G1 X83.293 Y117.479 E0.14301
G1 X87.301 Y115.593 E0.13890
G1 X90.888 Y113.985 E0.12324
G1 X94.077 Y112.637 E0.10853
G1 X96.950 Y111.502 E0.09688
G1 X99.596 Y110.531 E0.08836
G1 X102.086 Y109.663 E0.08267
G1 X103.260 Y109.229 E0.03927
G1 X104.372 Y108.773 E0.03767
G1 X105.410 Y108.276 E0.03608
G1 X106.362 Y107.719 E0.03459
G1 X107.215 Y107.080 E0.03341
G1 X107.949 Y106.337 E0.03275
G1 X108.530 Y105.486 E0.03230
G1 X108.971 Y104.555 E0.03229
G1 X109.299 Y103.558 E0.03292
G1 X109.546 Y102.501 E0.03403
G1 X109.738 Y101.387 E0.03544
G1 X110.237 Y97.729 E0.11576
G1 X110.455 Y96.405 E0.04207
G1 X110.711 Y95.022 E0.04411
G1 X111.068 Y93.235 E0.05715
G1 X112.666 Y85.656 E0.24286
G1 X113.328 Y82.237 E0.10919
G1 X114.488 Y76.043 E0.19758
G1 X114.953 Y73.806 E0.07163
G1 X115.147 Y73.033 E0.02501
G1 X115.317 Y72.470 E0.01842
G1 X115.472 Y72.075 E0.01330
G1 X115.376 Y71.562 F9000.000
;TYPE:External perimeter
G1 F1200.000
G1 X115.588 Y71.554 E0.00665
G1 X115.670 Y71.594 E0.00287
G1 X115.757 Y71.700 E0.00429
G1 X115.886 Y71.946 E0.00870
G1 X116.040 Y72.348 E0.01352
G1 X116.216 Y72.932 E0.01913
G1 X116.414 Y73.723 E0.02555
G1 X116.637 Y74.746 E0.03282
G1 X118.704 Y85.581 E0.34585
G1 X120.302 Y93.159 E0.24283
G1 X120.660 Y94.951 E0.05730
G1 X120.916 Y96.340 E0.04431
G1 X121.136 Y97.673 E0.04235
G1 X121.635 Y101.330 E0.11571
G1 X121.824 Y102.426 E0.03489
G1 X122.064 Y103.456 E0.03316
G1 X122.380 Y104.415 E0.03166
G1 X122.798 Y105.298 E0.03063
G1 X123.343 Y106.096 E0.03030
G1 X124.033 Y106.795 E0.03080
G1 X124.847 Y107.405 E0.03186
G1 X125.767 Y107.943 E0.03343
G1 X126.781 Y108.428 E0.03525
G1 X127.877 Y108.877 E0.03712
G1 X129.041 Y109.308 E0.03894
G1 X132.835 Y110.645 E0.12611
G1 X135.591 Y111.695 E0.09249
G1 X138.620 Y112.934 E0.10260
G1 X142.004 Y114.409 E0.11576
G1 X145.828 Y116.167 E0.13196
G1 X149.934 Y118.145 E0.14288
G1 X151.966 Y119.160 E0.07124
G1 X153.920 Y120.164 E0.06887
G1 X155.744 Y121.134 E0.06477
G1 X157.387 Y122.048 E0.05897
G1 X158.800 Y122.883 E0.05145
G1 X159.930 Y123.616 E0.04222
G1 X160.805 Y124.266 E0.03418
G1 X161.454 Y124.852 E0.02741
G1 X161.908 Y125.392 E0.02212
G1 X162.205 Y125.908 E0.01866
G1 X162.381 Y126.431 E0.01732
G1 X162.468 Y126.998 E0.01797
G1 X162.488 Y127.637 E0.02005
G1 X162.467 Y128.359 E0.02265
G1 X162.378 Y129.133 E0.02443
G1 X162.191 Y129.942 E0.02604
G1 X161.881 Y130.771 E0.02774
G1 X161.418 Y131.604 E0.02988
G1 X160.773 Y132.427 E0.03280
G1 X159.913 Y133.226 E0.03680
G1 X158.805 Y133.984 E0.04206
G1 X157.415 Y134.683 E0.04880
G1 X155.772 Y135.331 E0.05537
G1 X153.915 Y135.932 E0.06122
G1 X151.879 Y136.494 E0.06622
G1 X149.700 Y137.023 E0.07029
G1 X147.415 Y137.528 E0.07338
G1 X145.058 Y138.016 E0.07547
G1 X131.201 Y140.789 E0.44309
G1 X130.066 Y140.924 E0.03582
G1 X128.926 Y141.094 E0.03616
G1 X127.806 Y141.330 E0.03587
G1 X126.725 Y141.668 E0.03553
G1 X125.696 Y142.143 E0.03553
G1 X124.742 Y142.788 E0.03612
G1 X123.885 Y143.636 E0.03781
G1 X123.145 Y144.714 E0.04098
G1 X122.543 Y146.043 E0.04573
G1 X122.059 Y147.584 E0.05064
G1 X121.673 Y149.307 E0.05538
G1 X121.366 Y151.186 E0.05970
G1 X121.122 Y153.186 E0.06317
G1 X120.924 Y155.279 E0.06593
G1 X120.626 Y159.328 E0.12727
G1 X110.374 Y159.328 E0.32142
G1 X110.076 Y155.279 E0.12727
G1 X109.878 Y153.186 E0.06593
G1 X109.634 Y151.186 E0.06317
G1 X109.327 Y149.307 E0.05970
G1 X108.941 Y147.584 E0.05538
G1 X108.457 Y146.043 E0.05064
G1 X107.855 Y144.714 E0.04573
G1 X107.115 Y143.636 E0.04098
G1 X106.258 Y142.788 E0.03781
G1 X105.304 Y142.143 E0.03612
G1 X104.275 Y141.668 E0.03553
G1 X103.194 Y141.330 E0.03553
G1 X102.074 Y141.094 E0.03587
G1 X100.934 Y140.924 E0.03616
G1 X99.799 Y140.789 E0.03582
G1 X85.942 Y138.016 E0.44309
G1 X83.585 Y137.528 E0.07547
G1 X81.300 Y137.023 E0.07338
G1 X79.121 Y136.494 E0.07029
G1 X77.085 Y135.932 E0.06622
G1 X75.228 Y135.331 E0.06122
G1 X73.585 Y134.683 E0.05537
G1 X72.195 Y133.984 E0.04880
G1 X71.087 Y133.226 E0.04206
G1 X70.227 Y132.427 E0.03680
G1 X69.582 Y131.604 E0.03280
G1 X69.119 Y130.771 E0.02988
G1 X68.809 Y129.942 E0.02774
G1 X68.622 Y129.133 E0.02604
G1 X68.533 Y128.359 E0.02443
G1 X68.512 Y127.637 E0.02265
G1 X68.532 Y126.998 E0.02005
G1 X68.619 Y126.431 E0.01797
G1 X68.795 Y125.908 E0.01732
G1 X69.092 Y125.392 E0.01866
G1 X69.546 Y124.852 E0.02212
G1 X70.195 Y124.266 E0.02741
G1 X71.070 Y123.616 E0.03418
G1 X72.200 Y122.883 E0.04222
G1 X73.613 Y122.048 E0.05145
G1 X75.256 Y121.134 E0.05897
G1 X77.080 Y120.164 E0.06477
G1 X79.033 Y119.160 E0.06885
G1 X83.130 Y117.140 E0.14321
G1 X87.144 Y115.250 E0.13911
G1 X90.738 Y113.639 E0.12348
G1 X93.934 Y112.288 E0.10880
G1 X96.816 Y111.149 E0.09717
G1 X99.469 Y110.175 E0.08860
G1 X101.958 Y109.308 E0.08266
G1 X103.123 Y108.877 E0.03895
G1 X104.219 Y108.428 E0.03712
G1 X105.233 Y107.943 E0.03525
G1 X106.153 Y107.405 E0.03343
G1 X106.967 Y106.795 E0.03186
G1 X107.657 Y106.096 E0.03080
G1 X108.202 Y105.298 E0.03030
G1 X108.620 Y104.415 E0.03063
G1 X108.936 Y103.456 E0.03166
G1 X109.176 Y102.426 E0.03316
G1 X109.365 Y101.330 E0.03489
G1 X109.864 Y97.673 E0.11571
G1 X110.084 Y96.340 E0.04235
G1 X110.340 Y94.951 E0.04431
G1 X110.698 Y93.159 E0.05730
G1 X112.296 Y85.581 E0.24282
G1 X112.958 Y82.166 E0.10906
G1 X114.118 Y75.970 E0.19766
G1 X114.586 Y73.722 E0.07198
G1 X114.784 Y72.932 E0.02552
G1 X114.960 Y72.348 E0.01913
G1 X115.114 Y71.946 E0.01352
G1 X115.243 Y71.700 E0.00870
G1 X115.327 Y71.597 E0.00418
G1 X115.539 Y71.698 F9000.000
G1 E-5.00000 F3600.000
G1 X121.943 Y102.402 F9000.000
G1 X122.123 Y103.175
G1 X122.181 Y103.423
G1 X122.416 Y104.137
G1 X122.493 Y104.370
G1 X122.904 Y105.238
G1 X123.437 Y106.019
G1 X123.606 Y106.191
G1 X124.113 Y106.703
G1 X124.312 Y106.854
G1 X124.914 Y107.303
G1 X125.138 Y107.436
G1 X125.824 Y107.835
G1 X161.894 Y126.521
G1 E5.00000 F2400.000
;TYPE:Solid infill
;WIDTH:0.420454
G1 F1200.000
G1 X159.492 Y124.119 E0.10662
G1 X158.452 Y123.445 E0.03891
G1 X158.040 Y123.201 E0.01503
G1 X161.793 Y126.954 E0.16662
G1 X161.824 Y127.518 E0.01775
G1 X156.760 Y122.454 E0.22484
G1 X155.557 Y121.785 E0.04321
G1 X161.816 Y128.045 E0.27790
G1 X161.782 Y128.544 E0.01571
G1 X154.409 Y121.172 E0.32730
G1 X153.281 Y120.577 E0.04002
G1 X161.726 Y129.022 E0.37491
G1 X161.626 Y129.456 E0.01398
G1 X152.183 Y120.013 E0.41923
G1 X151.101 Y119.466 E0.03805
G1 X161.512 Y129.876 E0.46216
G1 X161.366 Y130.264 E0.01302
G1 X150.035 Y118.933 E0.50306
G1 X148.991 Y118.423 E0.03645
G1 X161.202 Y130.634 E0.54210
G1 X161.011 Y130.977 E0.01233
G1 X147.962 Y117.927 E0.57935
G1 X146.932 Y117.431 E0.03589
G1 X160.810 Y131.310 E0.61614
G1 X160.576 Y131.609 E0.01194
G1 X145.902 Y116.935 E0.65145
G1 X144.899 Y116.467 E0.03475
G1 X160.341 Y131.909 E0.68555
G1 X160.074 Y132.176 E0.01185
G1 X143.911 Y116.012 E0.71758
G1 X142.922 Y115.558 E0.03415
G1 X159.797 Y132.433 E0.74917
G1 X159.521 Y132.690 E0.01186
G1 X141.934 Y115.103 E0.78077
G1 X140.979 Y114.682 E0.03276
G1 X159.207 Y132.910 E0.80921
G1 X158.890 Y133.127 E0.01206
G1 X140.033 Y114.270 E0.83715
G1 X139.086 Y113.857 E0.03241
G1 X158.573 Y133.344 E0.86509
G1 X158.230 Y133.535 E0.01232
G1 X138.150 Y113.455 E0.89144
G1 X137.247 Y113.085 E0.03065
G1 X157.875 Y133.713 E0.91578
G1 X157.519 Y133.892 E0.01248
G1 X136.343 Y112.716 E0.94012
G1 X135.439 Y112.346 E0.03065
G1 X157.164 Y134.071 E0.96447
G1 X156.783 Y134.223 E0.01289
G1 X134.573 Y112.013 E0.98601
G1 X133.710 Y111.685 E0.02898
G1 X156.400 Y134.374 E1.00731
G1 X156.017 Y134.525 E0.01292
G1 X132.848 Y111.356 E1.02860
G1 X132.012 Y111.055 E0.02787
G1 X155.634 Y134.676 E1.04868
G1 X155.235 Y134.811 E0.01322
G1 X131.188 Y110.764 E1.06759
G1 X130.363 Y110.473 E0.02745
G1 X154.832 Y134.942 E1.08629
G1 X154.428 Y135.073 E0.01331
G1 X129.539 Y110.183 E1.10499
G1 X128.711 Y109.889 E0.02756
G1 X154.025 Y135.203 E1.12382
G1 X153.618 Y135.330 E0.01339
G1 X127.864 Y109.576 E1.14334
G1 X126.975 Y109.220 E0.03008
G1 X153.199 Y135.445 E1.16425
G1 X152.781 Y135.561 E0.01363
G1 X125.651 Y108.430 E1.20445
G1 E-5.00000 F3600.000
G1 X123.437 Y106.019 F9000.000
G1 X122.904 Y105.238
G1 X122.493 Y104.370
G1 X122.416 Y104.137
G1 X122.181 Y103.423
G1 X122.123 Y103.175
G1 X121.943 Y102.402
G1 X115.866 Y73.552
G1 E5.00000 F2400.000
G1 F1200.000
G1 X115.421 Y73.106 E0.01978
G1 X115.314 Y73.533 E0.01381
G1 X115.805 Y74.024 E0.02180
G1 X115.953 Y74.707 E0.02192
G1 X115.210 Y73.963 E0.03300
G1 X115.118 Y74.405 E0.01417
G1 X116.084 Y75.372 E0.04292
G1 X116.210 Y76.032 E0.02109
G1 X115.026 Y74.847 E0.05259
G1 X114.934 Y75.289 E0.01417
G1 X116.336 Y76.692 E0.06226
G1 X116.462 Y77.351 E0.02109
G1 X114.842 Y75.731 E0.07193
G1 X114.751 Y76.174 E0.01420
G1 X116.588 Y78.011 E0.08154
G1 X116.714 Y78.671 E0.02109
G1 X114.667 Y76.624 E0.09087
G1 X114.583 Y77.074 E0.01436
G1 X116.840 Y79.331 E0.10020
G1 X116.966 Y79.990 E0.02109
G1 X114.499 Y77.523 E0.10952
G1 X114.414 Y77.973 E0.01436
G1 X117.091 Y80.650 E0.11885
G1 X117.217 Y81.310 E0.02109
G1 X114.330 Y78.423 E0.12818
G1 X114.246 Y78.873 E0.01436
G1 X117.343 Y81.970 E0.13751
G1 X117.469 Y82.630 E0.02109
G1 X114.162 Y79.322 E0.14683
G1 X114.077 Y79.772 E0.01436
G1 X117.595 Y83.289 E0.15616
G1 X117.721 Y83.949 E0.02109
G1 X113.993 Y80.222 E0.16549
G1 X113.909 Y80.671 E0.01436
G1 X117.847 Y84.609 E0.17481
G1 X117.973 Y85.269 E0.02109
G1 X113.825 Y81.121 E0.18414
G1 X113.740 Y81.571 E0.01436
G1 X118.104 Y85.934 E0.19372
G1 X118.247 Y86.611 E0.02171
G1 X113.656 Y82.020 E0.20379
G1 X113.571 Y82.469 E0.01434
G1 X118.389 Y87.287 E0.21390
G1 X118.532 Y87.964 E0.02171
G1 X113.484 Y82.916 E0.22408
G1 X113.398 Y83.364 E0.01430
G1 X118.674 Y88.640 E0.23426
G1 X118.817 Y89.317 E0.02171
G1 X113.311 Y83.811 E0.24444
